(Block-name: Header)
(Block-expand: 0)
(Block-enable: 1)
(G-CODE GENERATED BY FLATCAM vUnstable - www.flatcam.org - Version Date: 2021/2/7)

(Name: tag-connect_breakout-B_Cu.gbr_ncc_cnc)
(Type: G-code from Geometry)
(Units: MM)

(Created on Sunday, 13 February 2022 at 11:33)

(This preprocessor is the default preprocessor used by FlatCAM.)
(It is made to work with MACH3 compatible motion controllers.)

(TOOL DIAMETER: 2.4 mm)
(Feedrate_XY: 120.0 mm/min)
(Feedrate_Z: 90.0 mm/min)
(Feedrate rapids 1500.0 mm/min)

(Z_Cut: -0.1 mm)
(DepthPerCut: 0.025 mm <=>4 passes)
(Z_Move: 2.0 mm)
(Z Start: None mm)
(Z End: 22.0 mm)
(X,Y End: 0.0000, 0.0000 mm)
(Steps per circle: 16)
(Preprocessor Geometry: default)

(X range:  -79.2652 ...   -0.7348  mm)
(Y range:  -49.2652 ...   -0.7348  mm)

(Spindle Speed: 300.0 RPM)
G21
G90
G94

G01 F120.00
G00 Z2.0000
M03 S300.0
(Block-name: block)
(Block-expand: 0)
(Block-enable: 1)
G00 X-15.3196 Y-12.2714
G01 F90.00
G01 Z-0.0250
G01 F120.00
G01 X-15.5050 Y-12.3738
G01 X-15.6430 Y-12.4735
G01 X-15.7760 Y-12.5935
G01 X-15.8936 Y-12.7262
G01 X-15.8936 Y-12.5416
G01 X-15.6234 Y-12.2714
G01 X-15.3196 Y-12.2714
G00 X-15.3196 Y-12.2714
G01 F90.00
G01 Z-0.0500
G01 F120.00
G01 X-15.6234 Y-12.2714
G01 X-15.8936 Y-12.5416
G01 X-15.8936 Y-12.7262
G01 X-15.7760 Y-12.5935
G01 X-15.6430 Y-12.4735
G01 X-15.5050 Y-12.3738
G01 X-15.3196 Y-12.2714
G00 X-15.3196 Y-12.2714
G01 F90.00
G01 Z-0.0750
G01 F120.00
G01 X-15.5050 Y-12.3738
G01 X-15.6430 Y-12.4735
G01 X-15.7760 Y-12.5935
G01 X-15.8936 Y-12.7262
G01 X-15.8936 Y-12.5416
G01 X-15.6234 Y-12.2714
G01 X-15.3196 Y-12.2714
G00 X-15.3196 Y-12.2714
G01 F90.00
G01 Z-0.1000
G01 F120.00
G01 X-15.6234 Y-12.2714
G01 X-15.8936 Y-12.5416
G01 X-15.8936 Y-12.7262
G01 X-15.7760 Y-12.5935
G01 X-15.6430 Y-12.4735
G01 X-15.5050 Y-12.3738
G01 X-15.3196 Y-12.2714
G00 Z2.0000
(Block-name: block)
(Block-expand: 0)
(Block-enable: 1)
G00 X-14.6250 Y-14.8118
G01 F90.00
G01 Z-0.0250
G01 F120.00
G01 X-14.5195 Y-14.8066
G01 X-14.4149 Y-14.7911
G01 X-14.3124 Y-14.7654
G01 X-14.2129 Y-14.7298
G01 X-14.1174 Y-14.6847
G01 X-14.0268 Y-14.6303
G01 X-13.9419 Y-14.5674
G01 X-13.8636 Y-14.4964
G01 X-13.7926 Y-14.4181
G01 X-13.7297 Y-14.3332
G01 X-13.6753 Y-14.2426
G01 X-13.6302 Y-14.1471
G01 X-13.5946 Y-14.0476
G01 X-13.5689 Y-13.9451
G01 X-13.5534 Y-13.8405
G01 X-13.5482 Y-13.7350
G01 X-13.5534 Y-13.6295
G01 X-13.5689 Y-13.5249
G01 X-13.5946 Y-13.4224
G01 X-13.6302 Y-13.3229
G01 X-13.6753 Y-13.2274
G01 X-13.7297 Y-13.1368
G01 X-13.7926 Y-13.0519
G01 X-13.8636 Y-12.9736
G01 X-13.9419 Y-12.9026
G01 X-14.0268 Y-12.8397
G01 X-14.1174 Y-12.7853
G01 X-14.2129 Y-12.7402
G01 X-14.3124 Y-12.7046
G01 X-14.4149 Y-12.6789
G01 X-14.5195 Y-12.6634
G01 X-14.6250 Y-12.6582
G01 X-14.7305 Y-12.6634
G01 X-14.8351 Y-12.6789
G01 X-14.9376 Y-12.7046
G01 X-15.0371 Y-12.7402
G01 X-15.1326 Y-12.7853
G01 X-15.2232 Y-12.8397
G01 X-15.3081 Y-12.9026
G01 X-15.3864 Y-12.9736
G01 X-15.4574 Y-13.0519
G01 X-15.5203 Y-13.1368
G01 X-15.5747 Y-13.2274
G01 X-15.6198 Y-13.3229
G01 X-15.6554 Y-13.4224
G01 X-15.6811 Y-13.5249
G01 X-15.6966 Y-13.6295
G01 X-15.7018 Y-13.7350
G01 X-15.6966 Y-13.8405
G01 X-15.6811 Y-13.9451
G01 X-15.6554 Y-14.0476
G01 X-15.6198 Y-14.1471
G01 X-15.5747 Y-14.2426
G01 X-15.5203 Y-14.3332
G01 X-15.4574 Y-14.4181
G01 X-15.3864 Y-14.4964
G01 X-15.3081 Y-14.5674
G01 X-15.2232 Y-14.6303
G01 X-15.1326 Y-14.6847
G01 X-15.0371 Y-14.7298
G01 X-14.9376 Y-14.7654
G01 X-14.8351 Y-14.7911
G01 X-14.7305 Y-14.8066
G01 X-14.6250 Y-14.8118
G01 X-15.9907 Y-14.8518
G01 X-15.8950 Y-14.7421
G01 X-15.8757 Y-14.7663
G01 X-15.9744 Y-14.8375
G01 X-15.9907 Y-14.8518
G01 X-16.1579 Y-15.0050
G01 X-16.0482 Y-14.9093
G01 X-16.1337 Y-15.0243
G01 X-16.1579 Y-15.0050
G01 X-16.7133 Y-15.0050
G01 X-16.5450 Y-14.9328
G01 X-16.4306 Y-14.8662
G01 X-16.3144 Y-14.7819
G01 X-16.2065 Y-14.6841
G01 X-16.1181 Y-14.5856
G01 X-16.0338 Y-14.4694
G01 X-15.9672 Y-14.3550
G01 X-15.8950 Y-14.1867
G01 X-15.8115 Y-14.3767
G01 X-15.7428 Y-14.4900
G01 X-15.6635 Y-14.5959
G01 X-15.5741 Y-14.6935
G01 X-15.4756 Y-14.7819
G01 X-15.4615 Y-14.7928
G01 X-15.3945 Y-14.8425
G01 X-15.3688 Y-14.8603
G01 X-15.2582 Y-14.9260
G01 X-15.4928 Y-14.9264
G01 X-15.6027 Y-14.9427
G01 X-15.7257 Y-14.9937
G01 X-15.8325 Y-15.0770
G01 X-15.9118 Y-15.1839
G01 X-15.9605 Y-15.3103
G01 X-15.9736 Y-15.4072
G01 X-15.9740 Y-15.6418
G01 X-16.0397 Y-15.5312
G01 X-16.1181 Y-15.4244
G01 X-16.2065 Y-15.3259
G01 X-16.3041 Y-15.2365
G01 X-16.4101 Y-15.1572
G01 X-16.5233 Y-15.0885
G01 X-16.7133 Y-15.0050
G00 X-16.7133 Y-15.0050
G01 F90.00
G01 Z-0.0500
G01 F120.00
G01 X-16.5233 Y-15.0885
G01 X-16.4101 Y-15.1572
G01 X-16.3041 Y-15.2365
G01 X-16.2065 Y-15.3259
G01 X-16.1181 Y-15.4244
G01 X-16.0397 Y-15.5312
G01 X-15.9740 Y-15.6418
G01 X-15.9736 Y-15.4072
G01 X-15.9605 Y-15.3103
G01 X-15.9118 Y-15.1839
G01 X-15.8325 Y-15.0770
G01 X-15.7257 Y-14.9937
G01 X-15.6027 Y-14.9427
G01 X-15.4928 Y-14.9264
G01 X-15.2582 Y-14.9260
G01 X-15.3688 Y-14.8603
G01 X-15.3945 Y-14.8425
G01 X-15.4615 Y-14.7928
G01 X-15.4756 Y-14.7819
G01 X-15.5741 Y-14.6935
G01 X-15.6635 Y-14.5959
G01 X-15.7428 Y-14.4900
G01 X-15.8115 Y-14.3767
G01 X-15.8950 Y-14.1867
G01 X-15.9672 Y-14.3550
G01 X-16.0338 Y-14.4694
G01 X-16.1181 Y-14.5856
G01 X-16.2065 Y-14.6841
G01 X-16.3144 Y-14.7819
G01 X-16.4306 Y-14.8662
G01 X-16.5450 Y-14.9328
G01 X-16.7133 Y-15.0050
G01 X-16.1579 Y-15.0050
G01 X-16.1337 Y-15.0243
G01 X-16.0482 Y-14.9093
G01 X-16.1579 Y-15.0050
G01 X-15.9907 Y-14.8518
G01 X-15.9744 Y-14.8375
G01 X-15.8757 Y-14.7663
G01 X-15.8950 Y-14.7421
G01 X-15.9907 Y-14.8518
G01 X-14.6250 Y-14.8118
G01 X-14.7305 Y-14.8066
G01 X-14.8351 Y-14.7911
G01 X-14.9376 Y-14.7654
G01 X-15.0371 Y-14.7298
G01 X-15.1326 Y-14.6847
G01 X-15.2232 Y-14.6303
G01 X-15.3081 Y-14.5674
G01 X-15.3864 Y-14.4964
G01 X-15.4574 Y-14.4181
G01 X-15.5203 Y-14.3332
G01 X-15.5747 Y-14.2426
G01 X-15.6198 Y-14.1471
G01 X-15.6554 Y-14.0476
G01 X-15.6811 Y-13.9451
G01 X-15.6966 Y-13.8405
G01 X-15.7018 Y-13.7350
G01 X-15.6966 Y-13.6295
G01 X-15.6811 Y-13.5249
G01 X-15.6554 Y-13.4224
G01 X-15.6198 Y-13.3229
G01 X-15.5747 Y-13.2274
G01 X-15.5203 Y-13.1368
G01 X-15.4574 Y-13.0519
G01 X-15.3864 Y-12.9736
G01 X-15.3081 Y-12.9026
G01 X-15.2232 Y-12.8397
G01 X-15.1326 Y-12.7853
G01 X-15.0371 Y-12.7402
G01 X-14.9376 Y-12.7046
G01 X-14.8351 Y-12.6789
G01 X-14.7305 Y-12.6634
G01 X-14.6250 Y-12.6582
G01 X-14.5195 Y-12.6634
G01 X-14.4149 Y-12.6789
G01 X-14.3124 Y-12.7046
G01 X-14.2129 Y-12.7402
G01 X-14.1174 Y-12.7853
G01 X-14.0268 Y-12.8397
G01 X-13.9419 Y-12.9026
G01 X-13.8636 Y-12.9736
G01 X-13.7926 Y-13.0519
G01 X-13.7297 Y-13.1368
G01 X-13.6753 Y-13.2274
G01 X-13.6302 Y-13.3229
G01 X-13.5946 Y-13.4224
G01 X-13.5689 Y-13.5249
G01 X-13.5534 Y-13.6295
G01 X-13.5482 Y-13.7350
G01 X-13.5534 Y-13.8405
G01 X-13.5689 Y-13.9451
G01 X-13.5946 Y-14.0476
G01 X-13.6302 Y-14.1471
G01 X-13.6753 Y-14.2426
G01 X-13.7297 Y-14.3332
G01 X-13.7926 Y-14.4181
G01 X-13.8636 Y-14.4964
G01 X-13.9419 Y-14.5674
G01 X-14.0268 Y-14.6303
G01 X-14.1174 Y-14.6847
G01 X-14.2129 Y-14.7298
G01 X-14.3124 Y-14.7654
G01 X-14.4149 Y-14.7911
G01 X-14.5195 Y-14.8066
G01 X-14.6250 Y-14.8118
G00 X-14.6250 Y-14.8118
G01 F90.00
G01 Z-0.0750
G01 F120.00
G01 X-14.5195 Y-14.8066
G01 X-14.4149 Y-14.7911
G01 X-14.3124 Y-14.7654
G01 X-14.2129 Y-14.7298
G01 X-14.1174 Y-14.6847
G01 X-14.0268 Y-14.6303
G01 X-13.9419 Y-14.5674
G01 X-13.8636 Y-14.4964
G01 X-13.7926 Y-14.4181
G01 X-13.7297 Y-14.3332
G01 X-13.6753 Y-14.2426
G01 X-13.6302 Y-14.1471
G01 X-13.5946 Y-14.0476
G01 X-13.5689 Y-13.9451
G01 X-13.5534 Y-13.8405
G01 X-13.5482 Y-13.7350
G01 X-13.5534 Y-13.6295
G01 X-13.5689 Y-13.5249
G01 X-13.5946 Y-13.4224
G01 X-13.6302 Y-13.3229
G01 X-13.6753 Y-13.2274
G01 X-13.7297 Y-13.1368
G01 X-13.7926 Y-13.0519
G01 X-13.8636 Y-12.9736
G01 X-13.9419 Y-12.9026
G01 X-14.0268 Y-12.8397
G01 X-14.1174 Y-12.7853
G01 X-14.2129 Y-12.7402
G01 X-14.3124 Y-12.7046
G01 X-14.4149 Y-12.6789
G01 X-14.5195 Y-12.6634
G01 X-14.6250 Y-12.6582
G01 X-14.7305 Y-12.6634
G01 X-14.8351 Y-12.6789
G01 X-14.9376 Y-12.7046
G01 X-15.0371 Y-12.7402
G01 X-15.1326 Y-12.7853
G01 X-15.2232 Y-12.8397
G01 X-15.3081 Y-12.9026
G01 X-15.3864 Y-12.9736
G01 X-15.4574 Y-13.0519
G01 X-15.5203 Y-13.1368
G01 X-15.5747 Y-13.2274
G01 X-15.6198 Y-13.3229
G01 X-15.6554 Y-13.4224
G01 X-15.6811 Y-13.5249
G01 X-15.6966 Y-13.6295
G01 X-15.7018 Y-13.7350
G01 X-15.6966 Y-13.8405
G01 X-15.6811 Y-13.9451
G01 X-15.6554 Y-14.0476
G01 X-15.6198 Y-14.1471
G01 X-15.5747 Y-14.2426
G01 X-15.5203 Y-14.3332
G01 X-15.4574 Y-14.4181
G01 X-15.3864 Y-14.4964
G01 X-15.3081 Y-14.5674
G01 X-15.2232 Y-14.6303
G01 X-15.1326 Y-14.6847
G01 X-15.0371 Y-14.7298
G01 X-14.9376 Y-14.7654
G01 X-14.8351 Y-14.7911
G01 X-14.7305 Y-14.8066
G01 X-14.6250 Y-14.8118
G01 X-15.9907 Y-14.8518
G01 X-15.8950 Y-14.7421
G01 X-15.8757 Y-14.7663
G01 X-15.9744 Y-14.8375
G01 X-15.9907 Y-14.8518
G01 X-16.1579 Y-15.0050
G01 X-16.0482 Y-14.9093
G01 X-16.1337 Y-15.0243
G01 X-16.1579 Y-15.0050
G01 X-16.7133 Y-15.0050
G01 X-16.5450 Y-14.9328
G01 X-16.4306 Y-14.8662
G01 X-16.3144 Y-14.7819
G01 X-16.2065 Y-14.6841
G01 X-16.1181 Y-14.5856
G01 X-16.0338 Y-14.4694
G01 X-15.9672 Y-14.3550
G01 X-15.8950 Y-14.1867
G01 X-15.8115 Y-14.3767
G01 X-15.7428 Y-14.4900
G01 X-15.6635 Y-14.5959
G01 X-15.5741 Y-14.6935
G01 X-15.4756 Y-14.7819
G01 X-15.4615 Y-14.7928
G01 X-15.3945 Y-14.8425
G01 X-15.3688 Y-14.8603
G01 X-15.2582 Y-14.9260
G01 X-15.4928 Y-14.9264
G01 X-15.6027 Y-14.9427
G01 X-15.7257 Y-14.9937
G01 X-15.8325 Y-15.0770
G01 X-15.9118 Y-15.1839
G01 X-15.9605 Y-15.3103
G01 X-15.9736 Y-15.4072
G01 X-15.9740 Y-15.6418
G01 X-16.0397 Y-15.5312
G01 X-16.1181 Y-15.4244
G01 X-16.2065 Y-15.3259
G01 X-16.3041 Y-15.2365
G01 X-16.4101 Y-15.1572
G01 X-16.5233 Y-15.0885
G01 X-16.7133 Y-15.0050
G00 X-16.7133 Y-15.0050
G01 F90.00
G01 Z-0.1000
G01 F120.00
G01 X-16.5233 Y-15.0885
G01 X-16.4101 Y-15.1572
G01 X-16.3041 Y-15.2365
G01 X-16.2065 Y-15.3259
G01 X-16.1181 Y-15.4244
G01 X-16.0397 Y-15.5312
G01 X-15.9740 Y-15.6418
G01 X-15.9736 Y-15.4072
G01 X-15.9605 Y-15.3103
G01 X-15.9118 Y-15.1839
G01 X-15.8325 Y-15.0770
G01 X-15.7257 Y-14.9937
G01 X-15.6027 Y-14.9427
G01 X-15.4928 Y-14.9264
G01 X-15.2582 Y-14.9260
G01 X-15.3688 Y-14.8603
G01 X-15.3945 Y-14.8425
G01 X-15.4615 Y-14.7928
G01 X-15.4756 Y-14.7819
G01 X-15.5741 Y-14.6935
G01 X-15.6635 Y-14.5959
G01 X-15.7428 Y-14.4900
G01 X-15.8115 Y-14.3767
G01 X-15.8950 Y-14.1867
G01 X-15.9672 Y-14.3550
G01 X-16.0338 Y-14.4694
G01 X-16.1181 Y-14.5856
G01 X-16.2065 Y-14.6841
G01 X-16.3144 Y-14.7819
G01 X-16.4306 Y-14.8662
G01 X-16.5450 Y-14.9328
G01 X-16.7133 Y-15.0050
G01 X-16.1579 Y-15.0050
G01 X-16.1337 Y-15.0243
G01 X-16.0482 Y-14.9093
G01 X-16.1579 Y-15.0050
G01 X-15.9907 Y-14.8518
G01 X-15.9744 Y-14.8375
G01 X-15.8757 Y-14.7663
G01 X-15.8950 Y-14.7421
G01 X-15.9907 Y-14.8518
G01 X-14.6250 Y-14.8118
G01 X-14.7305 Y-14.8066
G01 X-14.8351 Y-14.7911
G01 X-14.9376 Y-14.7654
G01 X-15.0371 Y-14.7298
G01 X-15.1326 Y-14.6847
G01 X-15.2232 Y-14.6303
G01 X-15.3081 Y-14.5674
G01 X-15.3864 Y-14.4964
G01 X-15.4574 Y-14.4181
G01 X-15.5203 Y-14.3332
G01 X-15.5747 Y-14.2426
G01 X-15.6198 Y-14.1471
G01 X-15.6554 Y-14.0476
G01 X-15.6811 Y-13.9451
G01 X-15.6966 Y-13.8405
G01 X-15.7018 Y-13.7350
G01 X-15.6966 Y-13.6295
G01 X-15.6811 Y-13.5249
G01 X-15.6554 Y-13.4224
G01 X-15.6198 Y-13.3229
G01 X-15.5747 Y-13.2274
G01 X-15.5203 Y-13.1368
G01 X-15.4574 Y-13.0519
G01 X-15.3864 Y-12.9736
G01 X-15.3081 Y-12.9026
G01 X-15.2232 Y-12.8397
G01 X-15.1326 Y-12.7853
G01 X-15.0371 Y-12.7402
G01 X-14.9376 Y-12.7046
G01 X-14.8351 Y-12.6789
G01 X-14.7305 Y-12.6634
G01 X-14.6250 Y-12.6582
G01 X-14.5195 Y-12.6634
G01 X-14.4149 Y-12.6789
G01 X-14.3124 Y-12.7046
G01 X-14.2129 Y-12.7402
G01 X-14.1174 Y-12.7853
G01 X-14.0268 Y-12.8397
G01 X-13.9419 Y-12.9026
G01 X-13.8636 Y-12.9736
G01 X-13.7926 Y-13.0519
G01 X-13.7297 Y-13.1368
G01 X-13.6753 Y-13.2274
G01 X-13.6302 Y-13.3229
G01 X-13.5946 Y-13.4224
G01 X-13.5689 Y-13.5249
G01 X-13.5534 Y-13.6295
G01 X-13.5482 Y-13.7350
G01 X-13.5534 Y-13.8405
G01 X-13.5689 Y-13.9451
G01 X-13.5946 Y-14.0476
G01 X-13.6302 Y-14.1471
G01 X-13.6753 Y-14.2426
G01 X-13.7297 Y-14.3332
G01 X-13.7926 Y-14.4181
G01 X-13.8636 Y-14.4964
G01 X-13.9419 Y-14.5674
G01 X-14.0268 Y-14.6303
G01 X-14.1174 Y-14.6847
G01 X-14.2129 Y-14.7298
G01 X-14.3124 Y-14.7654
G01 X-14.4149 Y-14.7911
G01 X-14.5195 Y-14.8066
G01 X-14.6250 Y-14.8118
G00 Z2.0000
(Block-name: block)
(Block-expand: 0)
(Block-enable: 1)
G00 X-18.4350 Y-14.1867
G01 F90.00
G01 Z-0.0250
G01 F120.00
G01 X-18.3628 Y-14.3550
G01 X-18.2962 Y-14.4694
G01 X-18.2119 Y-14.5856
G01 X-18.1141 Y-14.6935
G01 X-18.0156 Y-14.7819
G01 X-17.8994 Y-14.8662
G01 X-17.7850 Y-14.9328
G01 X-17.6167 Y-15.0050
G01 X-17.7850 Y-15.0772
G01 X-17.8994 Y-15.1438
G01 X-18.0156 Y-15.2281
G01 X-18.1235 Y-15.3259
G01 X-18.2119 Y-15.4244
G01 X-18.2962 Y-15.5406
G01 X-18.3628 Y-15.6550
G01 X-18.4350 Y-15.8233
G01 X-18.5072 Y-15.6550
G01 X-18.5738 Y-15.5406
G01 X-18.6581 Y-15.4244
G01 X-18.7559 Y-15.3165
G01 X-18.8544 Y-15.2281
G01 X-18.9706 Y-15.1438
G01 X-19.0850 Y-15.0772
G01 X-19.2533 Y-15.0050
G01 X-19.0850 Y-14.9328
G01 X-19.0750 Y-14.9278
G01 X-19.0536 Y-14.9160
G01 X-18.9706 Y-14.8662
G01 X-18.8544 Y-14.7819
G01 X-18.7465 Y-14.6841
G01 X-18.6581 Y-14.5856
G01 X-18.5738 Y-14.4694
G01 X-18.5072 Y-14.3550
G01 X-18.4350 Y-14.1867
G01 X-18.6979 Y-15.0050
G01 X-18.5540 Y-14.8765
G01 X-18.4350 Y-14.7421
G01 X-18.3065 Y-14.8860
G01 X-18.1721 Y-15.0050
G01 X-18.3160 Y-15.1335
G01 X-18.4350 Y-15.2679
G01 X-18.5635 Y-15.1240
G01 X-18.6979 Y-15.0050
G01 X-19.7050 Y-14.8118
G01 X-19.5884 Y-14.8053
G01 X-19.4032 Y-14.7684
G01 X-19.2929 Y-14.7298
G01 X-19.1877 Y-14.6792
G01 X-19.0307 Y-14.5742
G01 X-18.9436 Y-14.4964
G01 X-18.8658 Y-14.4093
G01 X-18.7608 Y-14.2523
G01 X-18.7102 Y-14.1471
G01 X-18.6716 Y-14.0368
G01 X-18.6347 Y-13.8516
G01 X-18.6282 Y-13.7350
G01 X-18.6347 Y-13.6184
G01 X-18.6716 Y-13.4332
G01 X-18.7102 Y-13.3229
G01 X-18.7608 Y-13.2177
G01 X-18.8726 Y-13.0519
G01 X-18.9436 Y-12.9736
G01 X-19.0219 Y-12.9026
G01 X-19.1068 Y-12.8397
G01 X-19.1974 Y-12.7853
G01 X-19.2929 Y-12.7402
G01 X-19.3924 Y-12.7046
G01 X-19.4949 Y-12.6789
G01 X-19.5995 Y-12.6634
G01 X-19.7050 Y-12.6582
G01 X-19.8105 Y-12.6634
G01 X-19.9151 Y-12.6789
G01 X-20.0176 Y-12.7046
G01 X-20.2027 Y-12.7803
G01 X-20.3123 Y-12.8461
G01 X-20.3881 Y-12.9026
G01 X-20.4741 Y-12.9816
G01 X-20.6003 Y-13.1368
G01 X-20.6953 Y-13.3127
G01 X-20.7384 Y-13.4332
G01 X-20.7766 Y-13.6295
G01 X-20.7774 Y-13.8294
G01 X-20.7587 Y-13.9559
G01 X-20.6998 Y-14.1471
G01 X-20.6063 Y-14.3238
G01 X-20.5301 Y-14.4265
G01 X-20.3881 Y-14.5674
G01 X-20.3032 Y-14.6303
G01 X-20.2126 Y-14.6847
G01 X-20.0281 Y-14.7619
G01 X-19.9041 Y-14.7930
G01 X-19.7050 Y-14.8118
G00 X-19.7050 Y-14.8118
G01 F90.00
G01 Z-0.0500
G01 F120.00
G01 X-19.9041 Y-14.7930
G01 X-20.0281 Y-14.7619
G01 X-20.2126 Y-14.6847
G01 X-20.3032 Y-14.6303
G01 X-20.3881 Y-14.5674
G01 X-20.5301 Y-14.4265
G01 X-20.6063 Y-14.3238
G01 X-20.6998 Y-14.1471
G01 X-20.7587 Y-13.9559
G01 X-20.7774 Y-13.8294
G01 X-20.7766 Y-13.6295
G01 X-20.7384 Y-13.4332
G01 X-20.6953 Y-13.3127
G01 X-20.6003 Y-13.1368
G01 X-20.4741 Y-12.9816
G01 X-20.3881 Y-12.9026
G01 X-20.3123 Y-12.8461
G01 X-20.2027 Y-12.7803
G01 X-20.0176 Y-12.7046
G01 X-19.9151 Y-12.6789
G01 X-19.8105 Y-12.6634
G01 X-19.7050 Y-12.6582
G01 X-19.5995 Y-12.6634
G01 X-19.4949 Y-12.6789
G01 X-19.3924 Y-12.7046
G01 X-19.2929 Y-12.7402
G01 X-19.1974 Y-12.7853
G01 X-19.1068 Y-12.8397
G01 X-19.0219 Y-12.9026
G01 X-18.9436 Y-12.9736
G01 X-18.8726 Y-13.0519
G01 X-18.7608 Y-13.2177
G01 X-18.7102 Y-13.3229
G01 X-18.6716 Y-13.4332
G01 X-18.6347 Y-13.6184
G01 X-18.6282 Y-13.7350
G01 X-18.6347 Y-13.8516
G01 X-18.6716 Y-14.0368
G01 X-18.7102 Y-14.1471
G01 X-18.7608 Y-14.2523
G01 X-18.8658 Y-14.4093
G01 X-18.9436 Y-14.4964
G01 X-19.0307 Y-14.5742
G01 X-19.1877 Y-14.6792
G01 X-19.2929 Y-14.7298
G01 X-19.4032 Y-14.7684
G01 X-19.5884 Y-14.8053
G01 X-19.7050 Y-14.8118
G01 X-18.6979 Y-15.0050
G01 X-18.5635 Y-15.1240
G01 X-18.4350 Y-15.2679
G01 X-18.3160 Y-15.1335
G01 X-18.1721 Y-15.0050
G01 X-18.3065 Y-14.8860
G01 X-18.4350 Y-14.7421
G01 X-18.5540 Y-14.8765
G01 X-18.6979 Y-15.0050
G01 X-18.4350 Y-14.1867
G01 X-18.5072 Y-14.3550
G01 X-18.5738 Y-14.4694
G01 X-18.6581 Y-14.5856
G01 X-18.7465 Y-14.6841
G01 X-18.8544 Y-14.7819
G01 X-18.9706 Y-14.8662
G01 X-19.0536 Y-14.9160
G01 X-19.0750 Y-14.9278
G01 X-19.0850 Y-14.9328
G01 X-19.2533 Y-15.0050
G01 X-19.0850 Y-15.0772
G01 X-18.9706 Y-15.1438
G01 X-18.8544 Y-15.2281
G01 X-18.7559 Y-15.3165
G01 X-18.6581 Y-15.4244
G01 X-18.5738 Y-15.5406
G01 X-18.5072 Y-15.6550
G01 X-18.4350 Y-15.8233
G01 X-18.3628 Y-15.6550
G01 X-18.2962 Y-15.5406
G01 X-18.2119 Y-15.4244
G01 X-18.1235 Y-15.3259
G01 X-18.0156 Y-15.2281
G01 X-17.8994 Y-15.1438
G01 X-17.7850 Y-15.0772
G01 X-17.6167 Y-15.0050
G01 X-17.7850 Y-14.9328
G01 X-17.8994 Y-14.8662
G01 X-18.0156 Y-14.7819
G01 X-18.1141 Y-14.6935
G01 X-18.2119 Y-14.5856
G01 X-18.2962 Y-14.4694
G01 X-18.3628 Y-14.3550
G01 X-18.4350 Y-14.1867
G00 X-18.4350 Y-14.1867
G01 F90.00
G01 Z-0.0750
G01 F120.00
G01 X-18.3628 Y-14.3550
G01 X-18.2962 Y-14.4694
G01 X-18.2119 Y-14.5856
G01 X-18.1141 Y-14.6935
G01 X-18.0156 Y-14.7819
G01 X-17.8994 Y-14.8662
G01 X-17.7850 Y-14.9328
G01 X-17.6167 Y-15.0050
G01 X-17.7850 Y-15.0772
G01 X-17.8994 Y-15.1438
G01 X-18.0156 Y-15.2281
G01 X-18.1235 Y-15.3259
G01 X-18.2119 Y-15.4244
G01 X-18.2962 Y-15.5406
G01 X-18.3628 Y-15.6550
G01 X-18.4350 Y-15.8233
G01 X-18.5072 Y-15.6550
G01 X-18.5738 Y-15.5406
G01 X-18.6581 Y-15.4244
G01 X-18.7559 Y-15.3165
G01 X-18.8544 Y-15.2281
G01 X-18.9706 Y-15.1438
G01 X-19.0850 Y-15.0772
G01 X-19.2533 Y-15.0050
G01 X-19.0850 Y-14.9328
G01 X-19.0750 Y-14.9278
G01 X-19.0536 Y-14.9160
G01 X-18.9706 Y-14.8662
G01 X-18.8544 Y-14.7819
G01 X-18.7465 Y-14.6841
G01 X-18.6581 Y-14.5856
G01 X-18.5738 Y-14.4694
G01 X-18.5072 Y-14.3550
G01 X-18.4350 Y-14.1867
G01 X-18.6979 Y-15.0050
G01 X-18.5540 Y-14.8765
G01 X-18.4350 Y-14.7421
G01 X-18.3065 Y-14.8860
G01 X-18.1721 Y-15.0050
G01 X-18.3160 Y-15.1335
G01 X-18.4350 Y-15.2679
G01 X-18.5635 Y-15.1240
G01 X-18.6979 Y-15.0050
G01 X-19.7050 Y-14.8118
G01 X-19.5884 Y-14.8053
G01 X-19.4032 Y-14.7684
G01 X-19.2929 Y-14.7298
G01 X-19.1877 Y-14.6792
G01 X-19.0307 Y-14.5742
G01 X-18.9436 Y-14.4964
G01 X-18.8658 Y-14.4093
G01 X-18.7608 Y-14.2523
G01 X-18.7102 Y-14.1471
G01 X-18.6716 Y-14.0368
G01 X-18.6347 Y-13.8516
G01 X-18.6282 Y-13.7350
G01 X-18.6347 Y-13.6184
G01 X-18.6716 Y-13.4332
G01 X-18.7102 Y-13.3229
G01 X-18.7608 Y-13.2177
G01 X-18.8726 Y-13.0519
G01 X-18.9436 Y-12.9736
G01 X-19.0219 Y-12.9026
G01 X-19.1068 Y-12.8397
G01 X-19.1974 Y-12.7853
G01 X-19.2929 Y-12.7402
G01 X-19.3924 Y-12.7046
G01 X-19.4949 Y-12.6789
G01 X-19.5995 Y-12.6634
G01 X-19.7050 Y-12.6582
G01 X-19.8105 Y-12.6634
G01 X-19.9151 Y-12.6789
G01 X-20.0176 Y-12.7046
G01 X-20.2027 Y-12.7803
G01 X-20.3123 Y-12.8461
G01 X-20.3881 Y-12.9026
G01 X-20.4741 Y-12.9816
G01 X-20.6003 Y-13.1368
G01 X-20.6953 Y-13.3127
G01 X-20.7384 Y-13.4332
G01 X-20.7766 Y-13.6295
G01 X-20.7774 Y-13.8294
G01 X-20.7587 Y-13.9559
G01 X-20.6998 Y-14.1471
G01 X-20.6063 Y-14.3238
G01 X-20.5301 Y-14.4265
G01 X-20.3881 Y-14.5674
G01 X-20.3032 Y-14.6303
G01 X-20.2126 Y-14.6847
G01 X-20.0281 Y-14.7619
G01 X-19.9041 Y-14.7930
G01 X-19.7050 Y-14.8118
G00 X-19.7050 Y-14.8118
G01 F90.00
G01 Z-0.1000
G01 F120.00
G01 X-19.9041 Y-14.7930
G01 X-20.0281 Y-14.7619
G01 X-20.2126 Y-14.6847
G01 X-20.3032 Y-14.6303
G01 X-20.3881 Y-14.5674
G01 X-20.5301 Y-14.4265
G01 X-20.6063 Y-14.3238
G01 X-20.6998 Y-14.1471
G01 X-20.7587 Y-13.9559
G01 X-20.7774 Y-13.8294
G01 X-20.7766 Y-13.6295
G01 X-20.7384 Y-13.4332
G01 X-20.6953 Y-13.3127
G01 X-20.6003 Y-13.1368
G01 X-20.4741 Y-12.9816
G01 X-20.3881 Y-12.9026
G01 X-20.3123 Y-12.8461
G01 X-20.2027 Y-12.7803
G01 X-20.0176 Y-12.7046
G01 X-19.9151 Y-12.6789
G01 X-19.8105 Y-12.6634
G01 X-19.7050 Y-12.6582
G01 X-19.5995 Y-12.6634
G01 X-19.4949 Y-12.6789
G01 X-19.3924 Y-12.7046
G01 X-19.2929 Y-12.7402
G01 X-19.1974 Y-12.7853
G01 X-19.1068 Y-12.8397
G01 X-19.0219 Y-12.9026
G01 X-18.9436 Y-12.9736
G01 X-18.8726 Y-13.0519
G01 X-18.7608 Y-13.2177
G01 X-18.7102 Y-13.3229
G01 X-18.6716 Y-13.4332
G01 X-18.6347 Y-13.6184
G01 X-18.6282 Y-13.7350
G01 X-18.6347 Y-13.8516
G01 X-18.6716 Y-14.0368
G01 X-18.7102 Y-14.1471
G01 X-18.7608 Y-14.2523
G01 X-18.8658 Y-14.4093
G01 X-18.9436 Y-14.4964
G01 X-19.0307 Y-14.5742
G01 X-19.1877 Y-14.6792
G01 X-19.2929 Y-14.7298
G01 X-19.4032 Y-14.7684
G01 X-19.5884 Y-14.8053
G01 X-19.7050 Y-14.8118
G01 X-18.6979 Y-15.0050
G01 X-18.5635 Y-15.1240
G01 X-18.4350 Y-15.2679
G01 X-18.3160 Y-15.1335
G01 X-18.1721 Y-15.0050
G01 X-18.3065 Y-14.8860
G01 X-18.4350 Y-14.7421
G01 X-18.5540 Y-14.8765
G01 X-18.6979 Y-15.0050
G01 X-18.4350 Y-14.1867
G01 X-18.5072 Y-14.3550
G01 X-18.5738 Y-14.4694
G01 X-18.6581 Y-14.5856
G01 X-18.7465 Y-14.6841
G01 X-18.8544 Y-14.7819
G01 X-18.9706 Y-14.8662
G01 X-19.0536 Y-14.9160
G01 X-19.0750 Y-14.9278
G01 X-19.0850 Y-14.9328
G01 X-19.2533 Y-15.0050
G01 X-19.0850 Y-15.0772
G01 X-18.9706 Y-15.1438
G01 X-18.8544 Y-15.2281
G01 X-18.7559 Y-15.3165
G01 X-18.6581 Y-15.4244
G01 X-18.5738 Y-15.5406
G01 X-18.5072 Y-15.6550
G01 X-18.4350 Y-15.8233
G01 X-18.3628 Y-15.6550
G01 X-18.2962 Y-15.5406
G01 X-18.2119 Y-15.4244
G01 X-18.1235 Y-15.3259
G01 X-18.0156 Y-15.2281
G01 X-17.8994 Y-15.1438
G01 X-17.7850 Y-15.0772
G01 X-17.6167 Y-15.0050
G01 X-17.7850 Y-14.9328
G01 X-17.8994 Y-14.8662
G01 X-18.0156 Y-14.7819
G01 X-18.1141 Y-14.6935
G01 X-18.2119 Y-14.5856
G01 X-18.2962 Y-14.4694
G01 X-18.3628 Y-14.3550
G01 X-18.4350 Y-14.1867
G00 Z2.0000
(Block-name: block)
(Block-expand: 0)
(Block-enable: 1)
G00 X-20.7293 Y-16.7558
G01 F90.00
G01 Z-0.0250
G01 F120.00
G01 X-20.6676 Y-16.7558
G01 X-20.5939 Y-16.8823
G01 X-20.4664 Y-17.0364
G01 X-20.3123 Y-17.1639
G01 X-20.1858 Y-17.2376
G01 X-20.1858 Y-17.2992
G01 X-20.2862 Y-17.2500
G01 X-20.4377 Y-17.1420
G01 X-20.5694 Y-17.0107
G01 X-20.6780 Y-16.8596
G01 X-20.7293 Y-16.7558
G00 X-20.7293 Y-16.7558
G01 F90.00
G01 Z-0.0500
G01 F120.00
G01 X-20.6780 Y-16.8596
G01 X-20.5694 Y-17.0107
G01 X-20.4377 Y-17.1420
G01 X-20.2862 Y-17.2500
G01 X-20.1858 Y-17.2992
G01 X-20.1858 Y-17.2376
G01 X-20.3123 Y-17.1639
G01 X-20.4664 Y-17.0364
G01 X-20.5939 Y-16.8823
G01 X-20.6676 Y-16.7558
G01 X-20.7293 Y-16.7558
G00 X-20.7293 Y-16.7558
G01 F90.00
G01 Z-0.0750
G01 F120.00
G01 X-20.6676 Y-16.7558
G01 X-20.5939 Y-16.8823
G01 X-20.4664 Y-17.0364
G01 X-20.3123 Y-17.1639
G01 X-20.1858 Y-17.2376
G01 X-20.1858 Y-17.2992
G01 X-20.2862 Y-17.2500
G01 X-20.4377 Y-17.1420
G01 X-20.5694 Y-17.0107
G01 X-20.6780 Y-16.8596
G01 X-20.7293 Y-16.7558
G00 X-20.7293 Y-16.7558
G01 F90.00
G01 Z-0.1000
G01 F120.00
G01 X-20.6780 Y-16.8596
G01 X-20.5694 Y-17.0107
G01 X-20.4377 Y-17.1420
G01 X-20.2862 Y-17.2500
G01 X-20.1858 Y-17.2992
G01 X-20.1858 Y-17.2376
G01 X-20.3123 Y-17.1639
G01 X-20.4664 Y-17.0364
G01 X-20.5939 Y-16.8823
G01 X-20.6676 Y-16.7558
G01 X-20.7293 Y-16.7558
G00 Z2.0000
(Block-name: block)
(Block-expand: 0)
(Block-enable: 1)
G00 X-17.8921 Y-17.0679
G01 F90.00
G01 Z-0.0250
G01 F120.00
G01 X-17.8921 Y-25.9850
G01 X-17.8781 Y-26.1268
G01 X-17.8407 Y-26.2528
G01 X-17.8062 Y-26.3277
G01 X-17.7631 Y-26.3980
G01 X-17.6830 Y-26.4951
G01 X-15.4171 Y-28.7612
G01 X-15.4171 Y-34.2071
G01 X-15.5151 Y-34.3085
G01 X-15.5853 Y-34.4018
G01 X-15.6397 Y-34.4924
G01 X-15.6888 Y-34.5983
G01 X-15.7437 Y-34.7791
G01 X-15.7603 Y-34.8834
G01 X-15.7668 Y-35.0000
G01 X-15.7603 Y-35.1166
G01 X-15.7461 Y-35.2101
G01 X-15.7169 Y-35.3231
G01 X-15.6803 Y-35.4223
G01 X-15.5913 Y-35.5888
G01 X-15.5224 Y-35.6831
G01 X-15.4514 Y-35.7614
G01 X-15.2973 Y-35.8889
G01 X-15.1976 Y-35.9497
G01 X-15.1021 Y-35.9948
G01 X-15.0026 Y-36.0304
G01 X-14.9001 Y-36.0561
G01 X-14.7955 Y-36.0716
G01 X-14.6900 Y-36.0768
G01 X-14.5845 Y-36.0716
G01 X-14.4799 Y-36.0561
G01 X-14.2883 Y-35.9988
G01 X-14.1727 Y-35.9442
G01 X-14.0069 Y-35.8324
G01 X-13.8649 Y-35.6915
G01 X-13.7887 Y-35.5888
G01 X-13.6952 Y-35.4121
G01 X-13.6363 Y-35.2209
G01 X-13.6176 Y-35.0944
G01 X-13.6176 Y-34.9056
G01 X-13.6320 Y-34.8009
G01 X-13.6596 Y-34.6874
G01 X-13.6952 Y-34.5879
G01 X-13.7403 Y-34.4924
G01 X-13.7947 Y-34.4018
G01 X-13.8649 Y-34.3085
G01 X-13.9629 Y-34.2071
G01 X-13.9665 Y-28.3887
G01 X-13.9913 Y-28.2597
G01 X-14.0228 Y-28.1716
G01 X-14.0855 Y-28.0561
G01 X-14.1682 Y-27.9540
G01 X-16.4379 Y-25.6838
G01 X-16.4379 Y-17.0679
G01 X-16.3399 Y-16.9665
G01 X-16.2697 Y-16.8732
G01 X-16.2153 Y-16.7826
G01 X-16.1702 Y-16.6871
G01 X-16.1346 Y-16.5876
G01 X-16.1089 Y-16.4851
G01 X-16.0934 Y-16.3805
G01 X-16.0882 Y-16.2750
G01 X-16.0934 Y-16.1695
G01 X-16.1089 Y-16.0649
G01 X-16.1346 Y-15.9624
G01 X-16.1702 Y-15.8629
G01 X-16.2153 Y-15.7674
G01 X-16.2697 Y-15.6768
G01 X-16.3326 Y-15.5919
G01 X-16.4036 Y-15.5136
G01 X-16.4819 Y-15.4426
G01 X-16.5668 Y-15.3797
G01 X-16.6574 Y-15.3253
G01 X-16.7529 Y-15.2802
G01 X-16.8524 Y-15.2446
G01 X-16.9549 Y-15.2189
G01 X-17.0595 Y-15.2034
G01 X-17.1650 Y-15.1982
G01 X-17.2705 Y-15.2034
G01 X-17.3751 Y-15.2189
G01 X-17.4776 Y-15.2446
G01 X-17.5771 Y-15.2802
G01 X-17.6726 Y-15.3253
G01 X-17.7632 Y-15.3797
G01 X-17.8481 Y-15.4426
G01 X-17.9264 Y-15.5136
G01 X-17.9974 Y-15.5919
G01 X-18.0603 Y-15.6768
G01 X-18.1147 Y-15.7674
G01 X-18.1598 Y-15.8629
G01 X-18.1954 Y-15.9624
G01 X-18.2211 Y-16.0649
G01 X-18.2366 Y-16.1695
G01 X-18.2418 Y-16.2750
G01 X-18.2366 Y-16.3805
G01 X-18.2211 Y-16.4851
G01 X-18.1954 Y-16.5876
G01 X-18.1598 Y-16.6871
G01 X-18.1147 Y-16.7826
G01 X-18.0603 Y-16.8732
G01 X-17.9901 Y-16.9665
G01 X-17.8921 Y-17.0679
G00 X-17.8921 Y-17.0679
G01 F90.00
G01 Z-0.0500
G01 F120.00
G01 X-17.9901 Y-16.9665
G01 X-18.0603 Y-16.8732
G01 X-18.1147 Y-16.7826
G01 X-18.1598 Y-16.6871
G01 X-18.1954 Y-16.5876
G01 X-18.2211 Y-16.4851
G01 X-18.2366 Y-16.3805
G01 X-18.2418 Y-16.2750
G01 X-18.2366 Y-16.1695
G01 X-18.2211 Y-16.0649
G01 X-18.1954 Y-15.9624
G01 X-18.1598 Y-15.8629
G01 X-18.1147 Y-15.7674
G01 X-18.0603 Y-15.6768
G01 X-17.9974 Y-15.5919
G01 X-17.9264 Y-15.5136
G01 X-17.8481 Y-15.4426
G01 X-17.7632 Y-15.3797
G01 X-17.6726 Y-15.3253
G01 X-17.5771 Y-15.2802
G01 X-17.4776 Y-15.2446
G01 X-17.3751 Y-15.2189
G01 X-17.2705 Y-15.2034
G01 X-17.1650 Y-15.1982
G01 X-17.0595 Y-15.2034
G01 X-16.9549 Y-15.2189
G01 X-16.8524 Y-15.2446
G01 X-16.7529 Y-15.2802
G01 X-16.6574 Y-15.3253
G01 X-16.5668 Y-15.3797
G01 X-16.4819 Y-15.4426
G01 X-16.4036 Y-15.5136
G01 X-16.3326 Y-15.5919
G01 X-16.2697 Y-15.6768
G01 X-16.2153 Y-15.7674
G01 X-16.1702 Y-15.8629
G01 X-16.1346 Y-15.9624
G01 X-16.1089 Y-16.0649
G01 X-16.0934 Y-16.1695
G01 X-16.0882 Y-16.2750
G01 X-16.0934 Y-16.3805
G01 X-16.1089 Y-16.4851
G01 X-16.1346 Y-16.5876
G01 X-16.1702 Y-16.6871
G01 X-16.2153 Y-16.7826
G01 X-16.2697 Y-16.8732
G01 X-16.3399 Y-16.9665
G01 X-16.4379 Y-17.0679
G01 X-16.4379 Y-25.6838
G01 X-14.1682 Y-27.9540
G01 X-14.0855 Y-28.0561
G01 X-14.0228 Y-28.1716
G01 X-13.9913 Y-28.2597
G01 X-13.9665 Y-28.3887
G01 X-13.9629 Y-34.2071
G01 X-13.8649 Y-34.3085
G01 X-13.7947 Y-34.4018
G01 X-13.7403 Y-34.4924
G01 X-13.6952 Y-34.5879
G01 X-13.6596 Y-34.6874
G01 X-13.6320 Y-34.8009
G01 X-13.6176 Y-34.9056
G01 X-13.6176 Y-35.0944
G01 X-13.6363 Y-35.2209
G01 X-13.6952 Y-35.4121
G01 X-13.7887 Y-35.5888
G01 X-13.8649 Y-35.6915
G01 X-14.0069 Y-35.8324
G01 X-14.1727 Y-35.9442
G01 X-14.2883 Y-35.9988
G01 X-14.4799 Y-36.0561
G01 X-14.5845 Y-36.0716
G01 X-14.6900 Y-36.0768
G01 X-14.7955 Y-36.0716
G01 X-14.9001 Y-36.0561
G01 X-15.0026 Y-36.0304
G01 X-15.1021 Y-35.9948
G01 X-15.1976 Y-35.9497
G01 X-15.2973 Y-35.8889
G01 X-15.4514 Y-35.7614
G01 X-15.5224 Y-35.6831
G01 X-15.5913 Y-35.5888
G01 X-15.6803 Y-35.4223
G01 X-15.7169 Y-35.3231
G01 X-15.7461 Y-35.2101
G01 X-15.7603 Y-35.1166
G01 X-15.7668 Y-35.0000
G01 X-15.7603 Y-34.8834
G01 X-15.7437 Y-34.7791
G01 X-15.6888 Y-34.5983
G01 X-15.6397 Y-34.4924
G01 X-15.5853 Y-34.4018
G01 X-15.5151 Y-34.3085
G01 X-15.4171 Y-34.2071
G01 X-15.4171 Y-28.7612
G01 X-17.6830 Y-26.4951
G01 X-17.7631 Y-26.3980
G01 X-17.8062 Y-26.3277
G01 X-17.8407 Y-26.2528
G01 X-17.8781 Y-26.1268
G01 X-17.8921 Y-25.9850
G01 X-17.8921 Y-17.0679
G00 X-17.8921 Y-17.0679
G01 F90.00
G01 Z-0.0750
G01 F120.00
G01 X-17.8921 Y-25.9850
G01 X-17.8781 Y-26.1268
G01 X-17.8407 Y-26.2528
G01 X-17.8062 Y-26.3277
G01 X-17.7631 Y-26.3980
G01 X-17.6830 Y-26.4951
G01 X-15.4171 Y-28.7612
G01 X-15.4171 Y-34.2071
G01 X-15.5151 Y-34.3085
G01 X-15.5853 Y-34.4018
G01 X-15.6397 Y-34.4924
G01 X-15.6888 Y-34.5983
G01 X-15.7437 Y-34.7791
G01 X-15.7603 Y-34.8834
G01 X-15.7668 Y-35.0000
G01 X-15.7603 Y-35.1166
G01 X-15.7461 Y-35.2101
G01 X-15.7169 Y-35.3231
G01 X-15.6803 Y-35.4223
G01 X-15.5913 Y-35.5888
G01 X-15.5224 Y-35.6831
G01 X-15.4514 Y-35.7614
G01 X-15.2973 Y-35.8889
G01 X-15.1976 Y-35.9497
G01 X-15.1021 Y-35.9948
G01 X-15.0026 Y-36.0304
G01 X-14.9001 Y-36.0561
G01 X-14.7955 Y-36.0716
G01 X-14.6900 Y-36.0768
G01 X-14.5845 Y-36.0716
G01 X-14.4799 Y-36.0561
G01 X-14.2883 Y-35.9988
G01 X-14.1727 Y-35.9442
G01 X-14.0069 Y-35.8324
G01 X-13.8649 Y-35.6915
G01 X-13.7887 Y-35.5888
G01 X-13.6952 Y-35.4121
G01 X-13.6363 Y-35.2209
G01 X-13.6176 Y-35.0944
G01 X-13.6176 Y-34.9056
G01 X-13.6320 Y-34.8009
G01 X-13.6596 Y-34.6874
G01 X-13.6952 Y-34.5879
G01 X-13.7403 Y-34.4924
G01 X-13.7947 Y-34.4018
G01 X-13.8649 Y-34.3085
G01 X-13.9629 Y-34.2071
G01 X-13.9665 Y-28.3887
G01 X-13.9913 Y-28.2597
G01 X-14.0228 Y-28.1716
G01 X-14.0855 Y-28.0561
G01 X-14.1682 Y-27.9540
G01 X-16.4379 Y-25.6838
G01 X-16.4379 Y-17.0679
G01 X-16.3399 Y-16.9665
G01 X-16.2697 Y-16.8732
G01 X-16.2153 Y-16.7826
G01 X-16.1702 Y-16.6871
G01 X-16.1346 Y-16.5876
G01 X-16.1089 Y-16.4851
G01 X-16.0934 Y-16.3805
G01 X-16.0882 Y-16.2750
G01 X-16.0934 Y-16.1695
G01 X-16.1089 Y-16.0649
G01 X-16.1346 Y-15.9624
G01 X-16.1702 Y-15.8629
G01 X-16.2153 Y-15.7674
G01 X-16.2697 Y-15.6768
G01 X-16.3326 Y-15.5919
G01 X-16.4036 Y-15.5136
G01 X-16.4819 Y-15.4426
G01 X-16.5668 Y-15.3797
G01 X-16.6574 Y-15.3253
G01 X-16.7529 Y-15.2802
G01 X-16.8524 Y-15.2446
G01 X-16.9549 Y-15.2189
G01 X-17.0595 Y-15.2034
G01 X-17.1650 Y-15.1982
G01 X-17.2705 Y-15.2034
G01 X-17.3751 Y-15.2189
G01 X-17.4776 Y-15.2446
G01 X-17.5771 Y-15.2802
G01 X-17.6726 Y-15.3253
G01 X-17.7632 Y-15.3797
G01 X-17.8481 Y-15.4426
G01 X-17.9264 Y-15.5136
G01 X-17.9974 Y-15.5919
G01 X-18.0603 Y-15.6768
G01 X-18.1147 Y-15.7674
G01 X-18.1598 Y-15.8629
G01 X-18.1954 Y-15.9624
G01 X-18.2211 Y-16.0649
G01 X-18.2366 Y-16.1695
G01 X-18.2418 Y-16.2750
G01 X-18.2366 Y-16.3805
G01 X-18.2211 Y-16.4851
G01 X-18.1954 Y-16.5876
G01 X-18.1598 Y-16.6871
G01 X-18.1147 Y-16.7826
G01 X-18.0603 Y-16.8732
G01 X-17.9901 Y-16.9665
G01 X-17.8921 Y-17.0679
G00 X-17.8921 Y-17.0679
G01 F90.00
G01 Z-0.1000
G01 F120.00
G01 X-17.9901 Y-16.9665
G01 X-18.0603 Y-16.8732
G01 X-18.1147 Y-16.7826
G01 X-18.1598 Y-16.6871
G01 X-18.1954 Y-16.5876
G01 X-18.2211 Y-16.4851
G01 X-18.2366 Y-16.3805
G01 X-18.2418 Y-16.2750
G01 X-18.2366 Y-16.1695
G01 X-18.2211 Y-16.0649
G01 X-18.1954 Y-15.9624
G01 X-18.1598 Y-15.8629
G01 X-18.1147 Y-15.7674
G01 X-18.0603 Y-15.6768
G01 X-17.9974 Y-15.5919
G01 X-17.9264 Y-15.5136
G01 X-17.8481 Y-15.4426
G01 X-17.7632 Y-15.3797
G01 X-17.6726 Y-15.3253
G01 X-17.5771 Y-15.2802
G01 X-17.4776 Y-15.2446
G01 X-17.3751 Y-15.2189
G01 X-17.2705 Y-15.2034
G01 X-17.1650 Y-15.1982
G01 X-17.0595 Y-15.2034
G01 X-16.9549 Y-15.2189
G01 X-16.8524 Y-15.2446
G01 X-16.7529 Y-15.2802
G01 X-16.6574 Y-15.3253
G01 X-16.5668 Y-15.3797
G01 X-16.4819 Y-15.4426
G01 X-16.4036 Y-15.5136
G01 X-16.3326 Y-15.5919
G01 X-16.2697 Y-15.6768
G01 X-16.2153 Y-15.7674
G01 X-16.1702 Y-15.8629
G01 X-16.1346 Y-15.9624
G01 X-16.1089 Y-16.0649
G01 X-16.0934 Y-16.1695
G01 X-16.0882 Y-16.2750
G01 X-16.0934 Y-16.3805
G01 X-16.1089 Y-16.4851
G01 X-16.1346 Y-16.5876
G01 X-16.1702 Y-16.6871
G01 X-16.2153 Y-16.7826
G01 X-16.2697 Y-16.8732
G01 X-16.3399 Y-16.9665
G01 X-16.4379 Y-17.0679
G01 X-16.4379 Y-25.6838
G01 X-14.1682 Y-27.9540
G01 X-14.0855 Y-28.0561
G01 X-14.0228 Y-28.1716
G01 X-13.9913 Y-28.2597
G01 X-13.9665 Y-28.3887
G01 X-13.9629 Y-34.2071
G01 X-13.8649 Y-34.3085
G01 X-13.7947 Y-34.4018
G01 X-13.7403 Y-34.4924
G01 X-13.6952 Y-34.5879
G01 X-13.6596 Y-34.6874
G01 X-13.6320 Y-34.8009
G01 X-13.6176 Y-34.9056
G01 X-13.6176 Y-35.0944
G01 X-13.6363 Y-35.2209
G01 X-13.6952 Y-35.4121
G01 X-13.7887 Y-35.5888
G01 X-13.8649 Y-35.6915
G01 X-14.0069 Y-35.8324
G01 X-14.1727 Y-35.9442
G01 X-14.2883 Y-35.9988
G01 X-14.4799 Y-36.0561
G01 X-14.5845 Y-36.0716
G01 X-14.6900 Y-36.0768
G01 X-14.7955 Y-36.0716
G01 X-14.9001 Y-36.0561
G01 X-15.0026 Y-36.0304
G01 X-15.1021 Y-35.9948
G01 X-15.1976 Y-35.9497
G01 X-15.2973 Y-35.8889
G01 X-15.4514 Y-35.7614
G01 X-15.5224 Y-35.6831
G01 X-15.5913 Y-35.5888
G01 X-15.6803 Y-35.4223
G01 X-15.7169 Y-35.3231
G01 X-15.7461 Y-35.2101
G01 X-15.7603 Y-35.1166
G01 X-15.7668 Y-35.0000
G01 X-15.7603 Y-34.8834
G01 X-15.7437 Y-34.7791
G01 X-15.6888 Y-34.5983
G01 X-15.6397 Y-34.4924
G01 X-15.5853 Y-34.4018
G01 X-15.5151 Y-34.3085
G01 X-15.4171 Y-34.2071
G01 X-15.4171 Y-28.7612
G01 X-17.6830 Y-26.4951
G01 X-17.7631 Y-26.3980
G01 X-17.8062 Y-26.3277
G01 X-17.8407 Y-26.2528
G01 X-17.8781 Y-26.1268
G01 X-17.8921 Y-25.9850
G01 X-17.8921 Y-17.0679
G00 Z2.0000
(Block-name: block)
(Block-expand: 0)
(Block-enable: 1)
G00 X-15.9740 Y-16.9082
G01 F90.00
G01 Z-0.0250
G01 F120.00
G01 X-15.9675 Y-17.2048
G01 X-15.9425 Y-17.2994
G01 X-15.8995 Y-17.3872
G01 X-15.8325 Y-17.4730
G01 X-15.8150 Y-17.4902
G01 X-15.8051 Y-17.4991
G01 X-15.7863 Y-17.5149
G01 X-15.7372 Y-17.5495
G01 X-15.6368 Y-17.5970
G01 X-15.5306 Y-17.6208
G01 X-13.7750 Y-17.6240
G01 X-13.6842 Y-17.6156
G01 X-13.6006 Y-17.5925
G01 X-13.5339 Y-17.5618
G01 X-13.5243 Y-17.5563
G01 X-13.5128 Y-17.5495
G01 X-13.5034 Y-17.5435
G01 X-13.4725 Y-17.5217
G01 X-13.4098 Y-17.4650
G01 X-13.3565 Y-17.3966
G01 X-13.3212 Y-17.3323
G01 X-13.2927 Y-17.2527
G01 X-13.2792 Y-17.1805
G01 X-13.2760 Y-15.4250
G01 X-13.2825 Y-15.3452
G01 X-13.2995 Y-15.2738
G01 X-13.3382 Y-15.1839
G01 X-13.3936 Y-15.1034
G01 X-13.4637 Y-15.0351
G01 X-13.5557 Y-14.9769
G01 X-13.6366 Y-14.9457
G01 X-13.7195 Y-14.9292
G01 X-13.9918 Y-14.9260
G01 X-13.8812 Y-14.8603
G01 X-13.7744 Y-14.7819
G01 X-13.6759 Y-14.6935
G01 X-13.5865 Y-14.5959
G01 X-13.5072 Y-14.4900
G01 X-13.4385 Y-14.3767
G01 X-13.3814 Y-14.2574
G01 X-13.3361 Y-14.1330
G01 X-13.3033 Y-14.0047
G01 X-13.2833 Y-13.8739
G01 X-13.2761 Y-13.7417
G01 X-13.2820 Y-13.6094
G01 X-13.3007 Y-13.4784
G01 X-13.3323 Y-13.3498
G01 X-13.3762 Y-13.2250
G01 X-13.4243 Y-13.1210
G01 X-13.5136 Y-12.9709
G01 X-13.5865 Y-12.8741
G01 X-13.6665 Y-12.7859
G01 X-13.7885 Y-12.6772
G01 X-13.8812 Y-12.6097
G01 X-13.9833 Y-12.5485
G01 X-14.1316 Y-12.4799
G01 X-14.2398 Y-12.4423
G01 X-14.3553 Y-12.4133
G01 X-14.5172 Y-12.3907
G01 X-14.7395 Y-12.3911
G01 X-14.9121 Y-12.4173
G01 X-15.0230 Y-12.4461
G01 X-15.1350 Y-12.4862
G01 X-15.2822 Y-12.5574
G01 X-15.4668 Y-12.6812
G01 X-15.5912 Y-12.7940
G01 X-15.6635 Y-12.8741
G01 X-15.7364 Y-12.9709
G01 X-15.8178 Y-13.1050
G01 X-15.8950 Y-13.2833
G01 X-15.9874 Y-13.0778
G01 X-16.0536 Y-12.9709
G01 X-16.1658 Y-12.8303
G01 X-16.1658 Y-12.4289
G01 X-15.7361 Y-11.9992
G01 X-12.5639 Y-11.9992
G01 X-9.9992 Y-14.5639
G01 X-9.9992 Y-35.4361
G01 X-11.5639 Y-37.0008
G01 X-15.7361 Y-37.0008
G01 X-16.2308 Y-36.5061
G01 X-16.2308 Y-35.9047
G01 X-16.1186 Y-35.7641
G01 X-16.0524 Y-35.6572
G01 X-15.9600 Y-35.4517
G01 X-15.8828 Y-35.6300
G01 X-15.8014 Y-35.7641
G01 X-15.7369 Y-35.8506
G01 X-15.6562 Y-35.9410
G01 X-15.5318 Y-36.0538
G01 X-15.3472 Y-36.1776
G01 X-15.2000 Y-36.2488
G01 X-15.0880 Y-36.2889
G01 X-14.9771 Y-36.3177
G01 X-14.8156 Y-36.3430
G01 X-14.6967 Y-36.3489
G01 X-14.5822 Y-36.3443
G01 X-14.4203 Y-36.3217
G01 X-14.3048 Y-36.2927
G01 X-14.1966 Y-36.2551
G01 X-14.0483 Y-36.1865
G01 X-13.9462 Y-36.1253
G01 X-13.8535 Y-36.0578
G01 X-13.7315 Y-35.9491
G01 X-13.6515 Y-35.8609
G01 X-13.5825 Y-35.7695
G01 X-13.4990 Y-35.6332
G01 X-13.4925 Y-35.9298
G01 X-13.4675 Y-36.0244
G01 X-13.4245 Y-36.1122
G01 X-13.3575 Y-36.1980
G01 X-13.2716 Y-36.2685
G01 X-13.1618 Y-36.3220
G01 X-13.0555 Y-36.3458
G01 X-11.3000 Y-36.3490
G01 X-11.2092 Y-36.3406
G01 X-11.1382 Y-36.3220
G01 X-11.0589 Y-36.2868
G01 X-10.9887 Y-36.2399
G01 X-10.9348 Y-36.1900
G01 X-10.8889 Y-36.1327
G01 X-10.8462 Y-36.0573
G01 X-10.8207 Y-35.9884
G01 X-10.8042 Y-35.9055
G01 X-10.8042 Y-34.0945
G01 X-10.8325 Y-33.9756
G01 X-10.8815 Y-33.8784
G01 X-10.9520 Y-33.7925
G01 X-11.0378 Y-33.7255
G01 X-11.1488 Y-33.6745
G01 X-11.2822 Y-33.6514
G01 X-13.0666 Y-33.6555
G01 X-13.1744 Y-33.6825
G01 X-13.2716 Y-33.7315
G01 X-13.3575 Y-33.8020
G01 X-13.4245 Y-33.8878
G01 X-13.4675 Y-33.9756
G01 X-13.4925 Y-34.0702
G01 X-13.4990 Y-34.3668
G01 X-13.5786 Y-34.2359
G01 X-13.6908 Y-34.0953
G01 X-13.6908 Y-28.4567
G01 X-13.6986 Y-28.3378
G01 X-13.7320 Y-28.1764
G01 X-13.7695 Y-28.0715
G01 X-13.8208 Y-27.9677
G01 X-13.9025 Y-27.8454
G01 X-13.9726 Y-27.7647
G01 X-16.1658 Y-25.5711
G01 X-16.1658 Y-17.1797
G01 X-16.0536 Y-17.0391
G01 X-15.9740 Y-16.9082
G01 X-15.6215 Y-18.1579
G01 X-15.4767 Y-18.1683
G01 X-13.7750 Y-18.1683
G01 X-13.6120 Y-18.1554
G01 X-13.5118 Y-18.1345
G01 X-13.4626 Y-18.1203
G01 X-13.4530 Y-18.1173
G01 X-13.4425 Y-18.1138
G01 X-13.4393 Y-18.1127
G01 X-13.4141 Y-18.1038
G01 X-13.3199 Y-18.0637
G01 X-13.2301 Y-18.0146
G01 X-13.1455 Y-17.9569
G01 X-13.0670 Y-17.8912
G01 X-12.9953 Y-17.8181
G01 X-12.9311 Y-17.7384
G01 X-12.8581 Y-17.6226
G01 X-12.7962 Y-17.4859
G01 X-12.7559 Y-17.3481
G01 X-12.7353 Y-17.2106
G01 X-12.7322 Y-15.3938
G01 X-12.7538 Y-15.2117
G01 X-12.8087 Y-15.0320
G01 X-12.8966 Y-14.8622
G01 X-13.0080 Y-14.7179
G01 X-12.9476 Y-14.6127
G01 X-12.8837 Y-14.4779
G01 X-12.8034 Y-14.2498
G01 X-12.7669 Y-14.0978
G01 X-12.7444 Y-13.9515
G01 X-12.7328 Y-13.6888
G01 X-12.7419 Y-13.5395
G01 X-12.7669 Y-13.3722
G01 X-12.8086 Y-13.2014
G01 X-12.8591 Y-13.0535
G01 X-12.9729 Y-12.8109
G01 X-13.0546 Y-12.6776
G01 X-13.1538 Y-12.5435
G01 X-12.7894 Y-12.5435
G01 X-10.5435 Y-14.7894
G01 X-10.5435 Y-33.4316
G01 X-10.6839 Y-33.3081
G01 X-10.8359 Y-33.2157
G01 X-11.0036 Y-33.1498
G01 X-11.1778 Y-33.1140
G01 X-11.2983 Y-33.1067
G01 X-13.0000 Y-33.1067
G01 X-13.1452 Y-33.1169
G01 X-13.1466 Y-28.4444
G01 X-13.1684 Y-28.2027
G01 X-13.2180 Y-27.9960
G01 X-13.2719 Y-27.8509
G01 X-13.3506 Y-27.6936
G01 X-13.4361 Y-27.5606
G01 X-13.5633 Y-27.4056
G01 X-15.6215 Y-25.3456
G01 X-15.6215 Y-18.1579
G01 X-15.3493 Y-18.4404
G01 X-13.7717 Y-18.4404
G01 X-13.6245 Y-18.4317
G01 X-13.4797 Y-18.4068
G01 X-13.4124 Y-18.3894
G01 X-13.4060 Y-18.3876
G01 X-13.4044 Y-18.3871
G01 X-13.3996 Y-18.3857
G01 X-13.3740 Y-18.3778
G01 X-13.3397 Y-18.3663
G01 X-13.2020 Y-18.3090
G01 X-13.0760 Y-18.2393
G01 X-12.9509 Y-18.1502
G01 X-12.8402 Y-18.0504
G01 X-12.7425 Y-17.9400
G01 X-12.6581 Y-17.8198
G01 X-12.5754 Y-17.6646
G01 X-12.5143 Y-17.5004
G01 X-12.4759 Y-17.3312
G01 X-12.4602 Y-17.1637
G01 X-12.4596 Y-15.4242
G01 X-12.4649 Y-15.3077
G01 X-12.4893 Y-15.1471
G01 X-12.5337 Y-14.9897
G01 X-12.5976 Y-14.8386
G01 X-12.6831 Y-14.6915
G01 X-12.6151 Y-14.5404
G01 X-12.5472 Y-14.3444
G01 X-12.4999 Y-14.1509
G01 X-12.4707 Y-13.9539
G01 X-12.4597 Y-13.7467
G01 X-12.4678 Y-13.5477
G01 X-12.4963 Y-13.3388
G01 X-12.5311 Y-13.1867
G01 X-10.8157 Y-14.9021
G01 X-10.8157 Y-32.9270
G01 X-11.0238 Y-32.8639
G01 X-11.2438 Y-32.8358
G01 X-12.8712 Y-32.8346
G01 X-12.8745 Y-28.4377
G01 X-12.8820 Y-28.2937
G01 X-12.9008 Y-28.1529
G01 X-12.9600 Y-27.9091
G01 X-13.0204 Y-27.7467
G01 X-13.1016 Y-27.5807
G01 X-13.1954 Y-27.4292
G01 X-13.3242 Y-27.2642
G01 X-15.3493 Y-25.2329
G01 X-15.3493 Y-18.4404
G01 X-15.0771 Y-18.7126
G01 X-13.7629 Y-18.7125
G01 X-13.5553 Y-18.6973
G01 X-13.3965 Y-18.6668
G01 X-13.3828 Y-18.6633
G01 X-13.3820 Y-18.6631
G01 X-13.3803 Y-18.6627
G01 X-13.3763 Y-18.6617
G01 X-13.3594 Y-18.6572
G01 X-13.3205 Y-18.6461
G01 X-13.2339 Y-18.6175
G01 X-13.0842 Y-18.5544
G01 X-12.9446 Y-18.4780
G01 X-12.8100 Y-18.3856
G01 X-12.6862 Y-18.2803
G01 X-12.5693 Y-18.1577
G01 X-12.4719 Y-18.0318
G01 X-12.3610 Y-17.8467
G01 X-12.2758 Y-17.6472
G01 X-12.2198 Y-17.4437
G01 X-12.1908 Y-17.2279
G01 X-12.1914 Y-15.3138
G01 X-12.2122 Y-15.1456
G01 X-12.2492 Y-14.9866
G01 X-12.3032 Y-14.8298
G01 X-12.3759 Y-14.6748
G01 X-12.2994 Y-14.4649
G01 X-12.2466 Y-14.2671
G01 X-12.2085 Y-14.0500
G01 X-12.1941 Y-13.9086
G01 X-11.0879 Y-15.0148
G01 X-11.0879 Y-32.5767
G01 X-11.2883 Y-32.5625
G01 X-12.5992 Y-32.5624
G01 X-12.6025 Y-28.4256
G01 X-12.6114 Y-28.2645
G01 X-12.6335 Y-28.1010
G01 X-12.6593 Y-27.9767
G01 X-12.7062 Y-27.8099
G01 X-12.7739 Y-27.6311
G01 X-12.8703 Y-27.4368
G01 X-12.9729 Y-27.2725
G01 X-13.1128 Y-27.0924
G01 X-13.2123 Y-26.9850
G01 X-15.0771 Y-25.1202
G01 X-15.0771 Y-18.7126
G01 X-14.8050 Y-18.9848
G01 X-13.7374 Y-18.9843
G01 X-13.5861 Y-18.9751
G01 X-13.4470 Y-18.9556
G01 X-13.3576 Y-18.9373
G01 X-13.3527 Y-18.9361
G01 X-13.3523 Y-18.9360
G01 X-13.3507 Y-18.9357
G01 X-13.3495 Y-18.9354
G01 X-13.3377 Y-18.9326
G01 X-13.3122 Y-18.9262
G01 X-13.2700 Y-18.9148
G01 X-13.1001 Y-18.8579
G01 X-12.9438 Y-18.7886
G01 X-12.7858 Y-18.6998
G01 X-12.6392 Y-18.5976
G01 X-12.5028 Y-18.4814
G01 X-12.3770 Y-18.3515
G01 X-12.2653 Y-18.2109
G01 X-12.1294 Y-17.9913
G01 X-12.0263 Y-17.7578
G01 X-11.9547 Y-17.5058
G01 X-11.9192 Y-17.2456
G01 X-11.9164 Y-15.3609
G01 X-11.9313 Y-15.1819
G01 X-11.9639 Y-15.0027
G01 X-12.0137 Y-14.8280
G01 X-12.0794 Y-14.6611
G01 X-12.0174 Y-14.4709
G01 X-11.3600 Y-15.1276
G01 X-11.3600 Y-32.2902
G01 X-12.3273 Y-32.2902
G01 X-12.3346 Y-28.3197
G01 X-12.3634 Y-28.0658
G01 X-12.4109 Y-27.8485
G01 X-12.4854 Y-27.6185
G01 X-12.5676 Y-27.4290
G01 X-12.6408 Y-27.2898
G01 X-12.7430 Y-27.1264
G01 X-12.8541 Y-26.9771
G01 X-12.9695 Y-26.8450
G01 X-14.8050 Y-25.0075
G01 X-14.8050 Y-18.9848
G01 X-14.5328 Y-19.2569
G01 X-13.7106 Y-19.2559
G01 X-13.5494 Y-19.2449
G01 X-13.3945 Y-19.2226
G01 X-13.3462 Y-19.2133
G01 X-13.3249 Y-19.2088
G01 X-13.3233 Y-19.2085
G01 X-13.3198 Y-19.2077
G01 X-13.3192 Y-19.2076
G01 X-13.3152 Y-19.2067
G01 X-13.3018 Y-19.2037
G01 X-13.2166 Y-19.1824
G01 X-13.0395 Y-19.1260
G01 X-12.8735 Y-19.0569
G01 X-12.7092 Y-18.9713
G01 X-12.5556 Y-18.8737
G01 X-12.4084 Y-18.7612
G01 X-12.2754 Y-18.6402
G01 X-12.1491 Y-18.5039
G01 X-11.9782 Y-18.2723
G01 X-11.9040 Y-18.1468
G01 X-11.8380 Y-18.0155
G01 X-11.7802 Y-17.8771
G01 X-11.7330 Y-17.7374
G01 X-11.6694 Y-17.4586
G01 X-11.6503 Y-17.2992
G01 X-11.6431 Y-17.1380
G01 X-11.6431 Y-15.4171
G01 X-11.6531 Y-15.2199
G01 X-11.6322 Y-15.2407
G01 X-11.6322 Y-32.0181
G01 X-12.0553 Y-32.0181
G01 X-12.0599 Y-28.3654
G01 X-12.0756 Y-28.1564
G01 X-12.1150 Y-27.9148
G01 X-12.1744 Y-27.6856
G01 X-12.2532 Y-27.4651
G01 X-12.3524 Y-27.2503
G01 X-12.4604 Y-27.0615
G01 X-12.5927 Y-26.8703
G01 X-12.7117 Y-26.7243
G01 X-12.8265 Y-26.6011
G01 X-14.5328 Y-24.8947
G01 X-14.5328 Y-19.2569
G01 X-14.2607 Y-19.5291
G01 X-13.6237 Y-19.5243
G01 X-13.4293 Y-19.5040
G01 X-13.3265 Y-19.4868
G01 X-13.2966 Y-19.4809
G01 X-13.2917 Y-19.4799
G01 X-13.2880 Y-19.4792
G01 X-13.2851 Y-19.4786
G01 X-13.2725 Y-19.4759
G01 X-13.2237 Y-19.4650
G01 X-13.0321 Y-19.4114
G01 X-12.8442 Y-19.3415
G01 X-12.6654 Y-19.2576
G01 X-12.4964 Y-19.1608
G01 X-12.3312 Y-19.0472
G01 X-12.1783 Y-18.9222
G01 X-12.0380 Y-18.7870
G01 X-11.9043 Y-18.6349
G01 X-11.9043 Y-27.6386
G01 X-12.0014 Y-27.3617
G01 X-12.1243 Y-27.0991
G01 X-12.2789 Y-26.8409
G01 X-12.4511 Y-26.6102
G01 X-12.6289 Y-26.4138
G01 X-14.2607 Y-24.7820
G01 X-14.2607 Y-19.5291
G01 X-13.9885 Y-19.8012
G01 X-13.6713 Y-19.7992
G01 X-13.4419 Y-19.7804
G01 X-13.2733 Y-19.7537
G01 X-13.2626 Y-19.7517
G01 X-13.2611 Y-19.7514
G01 X-13.2601 Y-19.7512
G01 X-13.2454 Y-19.7482
G01 X-13.2276 Y-19.7446
G01 X-13.1832 Y-19.7349
G01 X-13.1029 Y-19.7154
G01 X-12.9415 Y-19.6681
G01 X-12.7764 Y-19.6079
G01 X-12.6173 Y-19.5378
G01 X-12.4673 Y-19.4600
G01 X-12.3203 Y-19.3713
G01 X-12.1772 Y-19.2718
G01 X-12.1766 Y-26.5181
G01 X-12.2875 Y-26.3824
G01 X-12.4259 Y-26.2320
G01 X-13.9885 Y-24.6693
G01 X-13.9885 Y-19.8012
G01 X-13.7163 Y-20.0728
G01 X-13.6905 Y-20.0721
G01 X-13.3677 Y-20.0451
G01 X-13.2880 Y-20.0328
G01 X-13.2479 Y-20.0258
G01 X-13.2401 Y-20.0244
G01 X-13.2326 Y-20.0230
G01 X-13.2315 Y-20.0228
G01 X-13.2286 Y-20.0223
G01 X-13.2102 Y-20.0187
G01 X-13.0482 Y-19.9824
G01 X-12.7414 Y-19.8862
G01 X-12.4493 Y-19.7585
G01 X-12.4488 Y-25.8241
G01 X-13.7163 Y-24.5565
G01 X-13.7163 Y-20.0728
G01 X-13.4442 Y-20.3285
G01 X-13.2583 Y-20.3038
G01 X-13.2116 Y-20.2958
G01 X-13.2070 Y-20.2950
G01 X-13.2025 Y-20.2942
G01 X-13.2013 Y-20.2940
G01 X-13.1920 Y-20.2923
G01 X-13.1709 Y-20.2883
G01 X-13.0806 Y-20.2698
G01 X-12.8990 Y-20.2241
G01 X-12.7214 Y-20.1683
G01 X-12.7210 Y-25.1670
G01 X-13.4442 Y-24.4438
G01 X-13.4442 Y-20.3285
G01 X-13.1720 Y-20.5652
G01 X-12.9966 Y-20.5298
G01 X-12.9937 Y-24.5094
G01 X-13.1720 Y-24.3311
G01 X-13.1720 Y-20.5652
G01 X-13.5485 Y-17.1361
G01 X-13.5482 Y-15.4250
G01 X-13.5580 Y-15.3592
G01 X-13.5864 Y-15.2990
G01 X-13.6311 Y-15.2497
G01 X-13.6986 Y-15.2115
G01 X-13.7639 Y-15.1985
G01 X-15.4861 Y-15.1985
G01 X-15.5720 Y-15.2200
G01 X-15.6430 Y-15.2727
G01 X-15.6845 Y-15.3382
G01 X-15.7015 Y-15.4139
G01 X-15.7018 Y-17.1250
G01 X-15.6950 Y-17.1801
G01 X-15.6800 Y-17.2220
G01 X-15.6273 Y-17.2930
G01 X-15.5618 Y-17.3345
G01 X-15.4861 Y-17.3515
G01 X-13.7528 Y-17.3507
G01 X-13.6681 Y-17.3250
G01 X-13.6070 Y-17.2773
G01 X-13.5655 Y-17.2118
G01 X-13.5485 Y-17.1361
G00 X-13.5485 Y-17.1361
G01 F90.00
G01 Z-0.0500
G01 F120.00
G01 X-13.5655 Y-17.2118
G01 X-13.6070 Y-17.2773
G01 X-13.6681 Y-17.3250
G01 X-13.7528 Y-17.3507
G01 X-15.4861 Y-17.3515
G01 X-15.5618 Y-17.3345
G01 X-15.6273 Y-17.2930
G01 X-15.6800 Y-17.2220
G01 X-15.6950 Y-17.1801
G01 X-15.7018 Y-17.1250
G01 X-15.7015 Y-15.4139
G01 X-15.6845 Y-15.3382
G01 X-15.6430 Y-15.2727
G01 X-15.5720 Y-15.2200
G01 X-15.4861 Y-15.1985
G01 X-13.7639 Y-15.1985
G01 X-13.6986 Y-15.2115
G01 X-13.6311 Y-15.2497
G01 X-13.5864 Y-15.2990
G01 X-13.5580 Y-15.3592
G01 X-13.5482 Y-15.4250
G01 X-13.5485 Y-17.1361
G01 X-13.1720 Y-20.5652
G01 X-13.1720 Y-24.3311
G01 X-12.9937 Y-24.5094
G01 X-12.9966 Y-20.5298
G01 X-13.1720 Y-20.5652
G01 X-13.4442 Y-20.3285
G01 X-13.4442 Y-24.4438
G01 X-12.7210 Y-25.1670
G01 X-12.7214 Y-20.1683
G01 X-12.8990 Y-20.2241
G01 X-13.0806 Y-20.2698
G01 X-13.1709 Y-20.2883
G01 X-13.1920 Y-20.2923
G01 X-13.2013 Y-20.2940
G01 X-13.2025 Y-20.2942
G01 X-13.2070 Y-20.2950
G01 X-13.2116 Y-20.2958
G01 X-13.2583 Y-20.3038
G01 X-13.4442 Y-20.3285
G01 X-13.7163 Y-20.0728
G01 X-13.7163 Y-24.5565
G01 X-12.4488 Y-25.8241
G01 X-12.4493 Y-19.7585
G01 X-12.7414 Y-19.8862
G01 X-13.0482 Y-19.9824
G01 X-13.2102 Y-20.0187
G01 X-13.2286 Y-20.0223
G01 X-13.2315 Y-20.0228
G01 X-13.2326 Y-20.0230
G01 X-13.2401 Y-20.0244
G01 X-13.2479 Y-20.0258
G01 X-13.2880 Y-20.0328
G01 X-13.3677 Y-20.0451
G01 X-13.6905 Y-20.0721
G01 X-13.7163 Y-20.0728
G01 X-13.9885 Y-19.8012
G01 X-13.9885 Y-24.6693
G01 X-12.4259 Y-26.2320
G01 X-12.2875 Y-26.3824
G01 X-12.1766 Y-26.5181
G01 X-12.1772 Y-19.2718
G01 X-12.3203 Y-19.3713
G01 X-12.4673 Y-19.4600
G01 X-12.6173 Y-19.5378
G01 X-12.7764 Y-19.6079
G01 X-12.9415 Y-19.6681
G01 X-13.1029 Y-19.7154
G01 X-13.1832 Y-19.7349
G01 X-13.2276 Y-19.7446
G01 X-13.2454 Y-19.7482
G01 X-13.2601 Y-19.7512
G01 X-13.2611 Y-19.7514
G01 X-13.2626 Y-19.7517
G01 X-13.2733 Y-19.7537
G01 X-13.4419 Y-19.7804
G01 X-13.6713 Y-19.7992
G01 X-13.9885 Y-19.8012
G01 X-14.2607 Y-19.5291
G01 X-14.2607 Y-24.7820
G01 X-12.6289 Y-26.4138
G01 X-12.4511 Y-26.6102
G01 X-12.2789 Y-26.8409
G01 X-12.1243 Y-27.0991
G01 X-12.0014 Y-27.3617
G01 X-11.9043 Y-27.6386
G01 X-11.9043 Y-18.6349
G01 X-12.0380 Y-18.7870
G01 X-12.1783 Y-18.9222
G01 X-12.3312 Y-19.0472
G01 X-12.4964 Y-19.1608
G01 X-12.6654 Y-19.2576
G01 X-12.8442 Y-19.3415
G01 X-13.0321 Y-19.4114
G01 X-13.2237 Y-19.4650
G01 X-13.2725 Y-19.4759
G01 X-13.2851 Y-19.4786
G01 X-13.2880 Y-19.4792
G01 X-13.2917 Y-19.4799
G01 X-13.2966 Y-19.4809
G01 X-13.3265 Y-19.4868
G01 X-13.4293 Y-19.5040
G01 X-13.6237 Y-19.5243
G01 X-14.2607 Y-19.5291
G01 X-14.5328 Y-19.2569
G01 X-14.5328 Y-24.8947
G01 X-12.8265 Y-26.6011
G01 X-12.7117 Y-26.7243
G01 X-12.5927 Y-26.8703
G01 X-12.4604 Y-27.0615
G01 X-12.3524 Y-27.2503
G01 X-12.2532 Y-27.4651
G01 X-12.1744 Y-27.6856
G01 X-12.1150 Y-27.9148
G01 X-12.0756 Y-28.1564
G01 X-12.0599 Y-28.3654
G01 X-12.0553 Y-32.0181
G01 X-11.6322 Y-32.0181
G01 X-11.6322 Y-15.2407
G01 X-11.6531 Y-15.2199
G01 X-11.6431 Y-15.4171
G01 X-11.6431 Y-17.1380
G01 X-11.6503 Y-17.2992
G01 X-11.6694 Y-17.4586
G01 X-11.7330 Y-17.7374
G01 X-11.7802 Y-17.8771
G01 X-11.8380 Y-18.0155
G01 X-11.9040 Y-18.1468
G01 X-11.9782 Y-18.2723
G01 X-12.1491 Y-18.5039
G01 X-12.2754 Y-18.6402
G01 X-12.4084 Y-18.7612
G01 X-12.5556 Y-18.8737
G01 X-12.7092 Y-18.9713
G01 X-12.8735 Y-19.0569
G01 X-13.0395 Y-19.1260
G01 X-13.2166 Y-19.1824
G01 X-13.3018 Y-19.2037
G01 X-13.3152 Y-19.2067
G01 X-13.3192 Y-19.2076
G01 X-13.3198 Y-19.2077
G01 X-13.3233 Y-19.2085
G01 X-13.3249 Y-19.2088
G01 X-13.3462 Y-19.2133
G01 X-13.3945 Y-19.2226
G01 X-13.5494 Y-19.2449
G01 X-13.7106 Y-19.2559
G01 X-14.5328 Y-19.2569
G01 X-14.8050 Y-18.9848
G01 X-14.8050 Y-25.0075
G01 X-12.9695 Y-26.8450
G01 X-12.8541 Y-26.9771
G01 X-12.7430 Y-27.1264
G01 X-12.6408 Y-27.2898
G01 X-12.5676 Y-27.4290
G01 X-12.4854 Y-27.6185
G01 X-12.4109 Y-27.8485
G01 X-12.3634 Y-28.0658
G01 X-12.3346 Y-28.3197
G01 X-12.3273 Y-32.2902
G01 X-11.3600 Y-32.2902
G01 X-11.3600 Y-15.1276
G01 X-12.0174 Y-14.4709
G01 X-12.0794 Y-14.6611
G01 X-12.0137 Y-14.8280
G01 X-11.9639 Y-15.0027
G01 X-11.9313 Y-15.1819
G01 X-11.9164 Y-15.3609
G01 X-11.9192 Y-17.2456
G01 X-11.9547 Y-17.5058
G01 X-12.0263 Y-17.7578
G01 X-12.1294 Y-17.9913
G01 X-12.2653 Y-18.2109
G01 X-12.3770 Y-18.3515
G01 X-12.5028 Y-18.4814
G01 X-12.6392 Y-18.5976
G01 X-12.7858 Y-18.6998
G01 X-12.9438 Y-18.7886
G01 X-13.1001 Y-18.8579
G01 X-13.2700 Y-18.9148
G01 X-13.3122 Y-18.9262
G01 X-13.3377 Y-18.9326
G01 X-13.3495 Y-18.9354
G01 X-13.3507 Y-18.9357
G01 X-13.3523 Y-18.9360
G01 X-13.3527 Y-18.9361
G01 X-13.3576 Y-18.9373
G01 X-13.4470 Y-18.9556
G01 X-13.5861 Y-18.9751
G01 X-13.7374 Y-18.9843
G01 X-14.8050 Y-18.9848
G01 X-15.0771 Y-18.7126
G01 X-15.0771 Y-25.1202
G01 X-13.2123 Y-26.9850
G01 X-13.1128 Y-27.0924
G01 X-12.9729 Y-27.2725
G01 X-12.8703 Y-27.4368
G01 X-12.7739 Y-27.6311
G01 X-12.7062 Y-27.8099
G01 X-12.6593 Y-27.9767
G01 X-12.6335 Y-28.1010
G01 X-12.6114 Y-28.2645
G01 X-12.6025 Y-28.4256
G01 X-12.5992 Y-32.5624
G01 X-11.2883 Y-32.5625
G01 X-11.0879 Y-32.5767
G01 X-11.0879 Y-15.0148
G01 X-12.1941 Y-13.9086
G01 X-12.2085 Y-14.0500
G01 X-12.2466 Y-14.2671
G01 X-12.2994 Y-14.4649
G01 X-12.3759 Y-14.6748
G01 X-12.3032 Y-14.8298
G01 X-12.2492 Y-14.9866
G01 X-12.2122 Y-15.1456
G01 X-12.1914 Y-15.3138
G01 X-12.1908 Y-17.2279
G01 X-12.2198 Y-17.4437
G01 X-12.2758 Y-17.6472
G01 X-12.3610 Y-17.8467
G01 X-12.4719 Y-18.0318
G01 X-12.5693 Y-18.1577
G01 X-12.6862 Y-18.2803
G01 X-12.8100 Y-18.3856
G01 X-12.9446 Y-18.4780
G01 X-13.0842 Y-18.5544
G01 X-13.2339 Y-18.6175
G01 X-13.3205 Y-18.6461
G01 X-13.3594 Y-18.6572
G01 X-13.3763 Y-18.6617
G01 X-13.3803 Y-18.6627
G01 X-13.3820 Y-18.6631
G01 X-13.3828 Y-18.6633
G01 X-13.3965 Y-18.6668
G01 X-13.5553 Y-18.6973
G01 X-13.7629 Y-18.7125
G01 X-15.0771 Y-18.7126
G01 X-15.3493 Y-18.4404
G01 X-15.3493 Y-25.2329
G01 X-13.3242 Y-27.2642
G01 X-13.1954 Y-27.4292
G01 X-13.1016 Y-27.5807
G01 X-13.0204 Y-27.7467
G01 X-12.9600 Y-27.9091
G01 X-12.9008 Y-28.1529
G01 X-12.8820 Y-28.2937
G01 X-12.8745 Y-28.4377
G01 X-12.8712 Y-32.8346
G01 X-11.2438 Y-32.8358
G01 X-11.0238 Y-32.8639
G01 X-10.8157 Y-32.9270
G01 X-10.8157 Y-14.9021
G01 X-12.5311 Y-13.1867
G01 X-12.4963 Y-13.3388
G01 X-12.4678 Y-13.5477
G01 X-12.4597 Y-13.7467
G01 X-12.4707 Y-13.9539
G01 X-12.4999 Y-14.1509
G01 X-12.5472 Y-14.3444
G01 X-12.6151 Y-14.5404
G01 X-12.6831 Y-14.6915
G01 X-12.5976 Y-14.8386
G01 X-12.5337 Y-14.9897
G01 X-12.4893 Y-15.1471
G01 X-12.4649 Y-15.3077
G01 X-12.4596 Y-15.4242
G01 X-12.4602 Y-17.1637
G01 X-12.4759 Y-17.3312
G01 X-12.5143 Y-17.5004
G01 X-12.5754 Y-17.6646
G01 X-12.6581 Y-17.8198
G01 X-12.7425 Y-17.9400
G01 X-12.8402 Y-18.0504
G01 X-12.9509 Y-18.1502
G01 X-13.0760 Y-18.2393
G01 X-13.2020 Y-18.3090
G01 X-13.3397 Y-18.3663
G01 X-13.3740 Y-18.3778
G01 X-13.3996 Y-18.3857
G01 X-13.4044 Y-18.3871
G01 X-13.4060 Y-18.3876
G01 X-13.4124 Y-18.3894
G01 X-13.4797 Y-18.4068
G01 X-13.6245 Y-18.4317
G01 X-13.7717 Y-18.4404
G01 X-15.3493 Y-18.4404
G01 X-15.6215 Y-18.1579
G01 X-15.6215 Y-25.3456
G01 X-13.5633 Y-27.4056
G01 X-13.4361 Y-27.5606
G01 X-13.3506 Y-27.6936
G01 X-13.2719 Y-27.8509
G01 X-13.2180 Y-27.9960
G01 X-13.1684 Y-28.2027
G01 X-13.1466 Y-28.4444
G01 X-13.1452 Y-33.1169
G01 X-13.0000 Y-33.1067
G01 X-11.2983 Y-33.1067
G01 X-11.1778 Y-33.1140
G01 X-11.0036 Y-33.1498
G01 X-10.8359 Y-33.2157
G01 X-10.6839 Y-33.3081
G01 X-10.5435 Y-33.4316
G01 X-10.5435 Y-14.7894
G01 X-12.7894 Y-12.5435
G01 X-13.1538 Y-12.5435
G01 X-13.0546 Y-12.6776
G01 X-12.9729 Y-12.8109
G01 X-12.8591 Y-13.0535
G01 X-12.8086 Y-13.2014
G01 X-12.7669 Y-13.3722
G01 X-12.7419 Y-13.5395
G01 X-12.7328 Y-13.6888
G01 X-12.7444 Y-13.9515
G01 X-12.7669 Y-14.0978
G01 X-12.8034 Y-14.2498
G01 X-12.8837 Y-14.4779
G01 X-12.9476 Y-14.6127
G01 X-13.0080 Y-14.7179
G01 X-12.8966 Y-14.8622
G01 X-12.8087 Y-15.0320
G01 X-12.7538 Y-15.2117
G01 X-12.7322 Y-15.3938
G01 X-12.7353 Y-17.2106
G01 X-12.7559 Y-17.3481
G01 X-12.7962 Y-17.4859
G01 X-12.8581 Y-17.6226
G01 X-12.9311 Y-17.7384
G01 X-12.9953 Y-17.8181
G01 X-13.0670 Y-17.8912
G01 X-13.1455 Y-17.9569
G01 X-13.2301 Y-18.0146
G01 X-13.3199 Y-18.0637
G01 X-13.4141 Y-18.1038
G01 X-13.4393 Y-18.1127
G01 X-13.4425 Y-18.1138
G01 X-13.4530 Y-18.1173
G01 X-13.4626 Y-18.1203
G01 X-13.5118 Y-18.1345
G01 X-13.6120 Y-18.1554
G01 X-13.7750 Y-18.1683
G01 X-15.4767 Y-18.1683
G01 X-15.6215 Y-18.1579
G01 X-15.9740 Y-16.9082
G01 X-16.0536 Y-17.0391
G01 X-16.1658 Y-17.1797
G01 X-16.1658 Y-25.5711
G01 X-13.9726 Y-27.7647
G01 X-13.9025 Y-27.8454
G01 X-13.8208 Y-27.9677
G01 X-13.7695 Y-28.0715
G01 X-13.7320 Y-28.1764
G01 X-13.6986 Y-28.3378
G01 X-13.6908 Y-28.4567
G01 X-13.6908 Y-34.0953
G01 X-13.5786 Y-34.2359
G01 X-13.4990 Y-34.3668
G01 X-13.4925 Y-34.0702
G01 X-13.4675 Y-33.9756
G01 X-13.4245 Y-33.8878
G01 X-13.3575 Y-33.8020
G01 X-13.2716 Y-33.7315
G01 X-13.1744 Y-33.6825
G01 X-13.0666 Y-33.6555
G01 X-11.2822 Y-33.6514
G01 X-11.1488 Y-33.6745
G01 X-11.0378 Y-33.7255
G01 X-10.9520 Y-33.7925
G01 X-10.8815 Y-33.8784
G01 X-10.8325 Y-33.9756
G01 X-10.8042 Y-34.0945
G01 X-10.8042 Y-35.9055
G01 X-10.8207 Y-35.9884
G01 X-10.8462 Y-36.0573
G01 X-10.8889 Y-36.1327
G01 X-10.9348 Y-36.1900
G01 X-10.9887 Y-36.2399
G01 X-11.0589 Y-36.2868
G01 X-11.1382 Y-36.3220
G01 X-11.2092 Y-36.3406
G01 X-11.3000 Y-36.3490
G01 X-13.0555 Y-36.3458
G01 X-13.1618 Y-36.3220
G01 X-13.2716 Y-36.2685
G01 X-13.3575 Y-36.1980
G01 X-13.4245 Y-36.1122
G01 X-13.4675 Y-36.0244
G01 X-13.4925 Y-35.9298
G01 X-13.4990 Y-35.6332
G01 X-13.5825 Y-35.7695
G01 X-13.6515 Y-35.8609
G01 X-13.7315 Y-35.9491
G01 X-13.8535 Y-36.0578
G01 X-13.9462 Y-36.1253
G01 X-14.0483 Y-36.1865
G01 X-14.1966 Y-36.2551
G01 X-14.3048 Y-36.2927
G01 X-14.4203 Y-36.3217
G01 X-14.5822 Y-36.3443
G01 X-14.6967 Y-36.3489
G01 X-14.8156 Y-36.3430
G01 X-14.9771 Y-36.3177
G01 X-15.0880 Y-36.2889
G01 X-15.2000 Y-36.2488
G01 X-15.3472 Y-36.1776
G01 X-15.5318 Y-36.0538
G01 X-15.6562 Y-35.9410
G01 X-15.7369 Y-35.8506
G01 X-15.8014 Y-35.7641
G01 X-15.8828 Y-35.6300
G01 X-15.9600 Y-35.4517
G01 X-16.0524 Y-35.6572
G01 X-16.1186 Y-35.7641
G01 X-16.2308 Y-35.9047
G01 X-16.2308 Y-36.5061
G01 X-15.7361 Y-37.0008
G01 X-11.5639 Y-37.0008
G01 X-9.9992 Y-35.4361
G01 X-9.9992 Y-14.5639
G01 X-12.5639 Y-11.9992
G01 X-15.7361 Y-11.9992
G01 X-16.1658 Y-12.4289
G01 X-16.1658 Y-12.8303
G01 X-16.0536 Y-12.9709
G01 X-15.9874 Y-13.0778
G01 X-15.8950 Y-13.2833
G01 X-15.8178 Y-13.1050
G01 X-15.7364 Y-12.9709
G01 X-15.6635 Y-12.8741
G01 X-15.5912 Y-12.7940
G01 X-15.4668 Y-12.6812
G01 X-15.2822 Y-12.5574
G01 X-15.1350 Y-12.4862
G01 X-15.0230 Y-12.4461
G01 X-14.9121 Y-12.4173
G01 X-14.7395 Y-12.3911
G01 X-14.5172 Y-12.3907
G01 X-14.3553 Y-12.4133
G01 X-14.2398 Y-12.4423
G01 X-14.1316 Y-12.4799
G01 X-13.9833 Y-12.5485
G01 X-13.8812 Y-12.6097
G01 X-13.7885 Y-12.6772
G01 X-13.6665 Y-12.7859
G01 X-13.5865 Y-12.8741
G01 X-13.5136 Y-12.9709
G01 X-13.4243 Y-13.1210
G01 X-13.3762 Y-13.2250
G01 X-13.3323 Y-13.3498
G01 X-13.3007 Y-13.4784
G01 X-13.2820 Y-13.6094
G01 X-13.2761 Y-13.7417
G01 X-13.2833 Y-13.8739
G01 X-13.3033 Y-14.0047
G01 X-13.3361 Y-14.1330
G01 X-13.3814 Y-14.2574
G01 X-13.4385 Y-14.3767
G01 X-13.5072 Y-14.4900
G01 X-13.5865 Y-14.5959
G01 X-13.6759 Y-14.6935
G01 X-13.7744 Y-14.7819
G01 X-13.8812 Y-14.8603
G01 X-13.9918 Y-14.9260
G01 X-13.7195 Y-14.9292
G01 X-13.6366 Y-14.9457
G01 X-13.5557 Y-14.9769
G01 X-13.4637 Y-15.0351
G01 X-13.3936 Y-15.1034
G01 X-13.3382 Y-15.1839
G01 X-13.2995 Y-15.2738
G01 X-13.2825 Y-15.3452
G01 X-13.2760 Y-15.4250
G01 X-13.2792 Y-17.1805
G01 X-13.2927 Y-17.2527
G01 X-13.3212 Y-17.3323
G01 X-13.3565 Y-17.3966
G01 X-13.4098 Y-17.4650
G01 X-13.4725 Y-17.5217
G01 X-13.5034 Y-17.5435
G01 X-13.5128 Y-17.5495
G01 X-13.5243 Y-17.5563
G01 X-13.5339 Y-17.5618
G01 X-13.6006 Y-17.5925
G01 X-13.6842 Y-17.6156
G01 X-13.7750 Y-17.6240
G01 X-15.5306 Y-17.6208
G01 X-15.6368 Y-17.5970
G01 X-15.7372 Y-17.5495
G01 X-15.7863 Y-17.5149
G01 X-15.8051 Y-17.4991
G01 X-15.8150 Y-17.4902
G01 X-15.8325 Y-17.4730
G01 X-15.8995 Y-17.3872
G01 X-15.9425 Y-17.2994
G01 X-15.9675 Y-17.2048
G01 X-15.9740 Y-16.9082
G00 X-15.9740 Y-16.9082
G01 F90.00
G01 Z-0.0750
G01 F120.00
G01 X-15.9675 Y-17.2048
G01 X-15.9425 Y-17.2994
G01 X-15.8995 Y-17.3872
G01 X-15.8325 Y-17.4730
G01 X-15.8150 Y-17.4902
G01 X-15.8051 Y-17.4991
G01 X-15.7863 Y-17.5149
G01 X-15.7372 Y-17.5495
G01 X-15.6368 Y-17.5970
G01 X-15.5306 Y-17.6208
G01 X-13.7750 Y-17.6240
G01 X-13.6842 Y-17.6156
G01 X-13.6006 Y-17.5925
G01 X-13.5339 Y-17.5618
G01 X-13.5243 Y-17.5563
G01 X-13.5128 Y-17.5495
G01 X-13.5034 Y-17.5435
G01 X-13.4725 Y-17.5217
G01 X-13.4098 Y-17.4650
G01 X-13.3565 Y-17.3966
G01 X-13.3212 Y-17.3323
G01 X-13.2927 Y-17.2527
G01 X-13.2792 Y-17.1805
G01 X-13.2760 Y-15.4250
G01 X-13.2825 Y-15.3452
G01 X-13.2995 Y-15.2738
G01 X-13.3382 Y-15.1839
G01 X-13.3936 Y-15.1034
G01 X-13.4637 Y-15.0351
G01 X-13.5557 Y-14.9769
G01 X-13.6366 Y-14.9457
G01 X-13.7195 Y-14.9292
G01 X-13.9918 Y-14.9260
G01 X-13.8812 Y-14.8603
G01 X-13.7744 Y-14.7819
G01 X-13.6759 Y-14.6935
G01 X-13.5865 Y-14.5959
G01 X-13.5072 Y-14.4900
G01 X-13.4385 Y-14.3767
G01 X-13.3814 Y-14.2574
G01 X-13.3361 Y-14.1330
G01 X-13.3033 Y-14.0047
G01 X-13.2833 Y-13.8739
G01 X-13.2761 Y-13.7417
G01 X-13.2820 Y-13.6094
G01 X-13.3007 Y-13.4784
G01 X-13.3323 Y-13.3498
G01 X-13.3762 Y-13.2250
G01 X-13.4243 Y-13.1210
G01 X-13.5136 Y-12.9709
G01 X-13.5865 Y-12.8741
G01 X-13.6665 Y-12.7859
G01 X-13.7885 Y-12.6772
G01 X-13.8812 Y-12.6097
G01 X-13.9833 Y-12.5485
G01 X-14.1316 Y-12.4799
G01 X-14.2398 Y-12.4423
G01 X-14.3553 Y-12.4133
G01 X-14.5172 Y-12.3907
G01 X-14.7395 Y-12.3911
G01 X-14.9121 Y-12.4173
G01 X-15.0230 Y-12.4461
G01 X-15.1350 Y-12.4862
G01 X-15.2822 Y-12.5574
G01 X-15.4668 Y-12.6812
G01 X-15.5912 Y-12.7940
G01 X-15.6635 Y-12.8741
G01 X-15.7364 Y-12.9709
G01 X-15.8178 Y-13.1050
G01 X-15.8950 Y-13.2833
G01 X-15.9874 Y-13.0778
G01 X-16.0536 Y-12.9709
G01 X-16.1658 Y-12.8303
G01 X-16.1658 Y-12.4289
G01 X-15.7361 Y-11.9992
G01 X-12.5639 Y-11.9992
G01 X-9.9992 Y-14.5639
G01 X-9.9992 Y-35.4361
G01 X-11.5639 Y-37.0008
G01 X-15.7361 Y-37.0008
G01 X-16.2308 Y-36.5061
G01 X-16.2308 Y-35.9047
G01 X-16.1186 Y-35.7641
G01 X-16.0524 Y-35.6572
G01 X-15.9600 Y-35.4517
G01 X-15.8828 Y-35.6300
G01 X-15.8014 Y-35.7641
G01 X-15.7369 Y-35.8506
G01 X-15.6562 Y-35.9410
G01 X-15.5318 Y-36.0538
G01 X-15.3472 Y-36.1776
G01 X-15.2000 Y-36.2488
G01 X-15.0880 Y-36.2889
G01 X-14.9771 Y-36.3177
G01 X-14.8156 Y-36.3430
G01 X-14.6967 Y-36.3489
G01 X-14.5822 Y-36.3443
G01 X-14.4203 Y-36.3217
G01 X-14.3048 Y-36.2927
G01 X-14.1966 Y-36.2551
G01 X-14.0483 Y-36.1865
G01 X-13.9462 Y-36.1253
G01 X-13.8535 Y-36.0578
G01 X-13.7315 Y-35.9491
G01 X-13.6515 Y-35.8609
G01 X-13.5825 Y-35.7695
G01 X-13.4990 Y-35.6332
G01 X-13.4925 Y-35.9298
G01 X-13.4675 Y-36.0244
G01 X-13.4245 Y-36.1122
G01 X-13.3575 Y-36.1980
G01 X-13.2716 Y-36.2685
G01 X-13.1618 Y-36.3220
G01 X-13.0555 Y-36.3458
G01 X-11.3000 Y-36.3490
G01 X-11.2092 Y-36.3406
G01 X-11.1382 Y-36.3220
G01 X-11.0589 Y-36.2868
G01 X-10.9887 Y-36.2399
G01 X-10.9348 Y-36.1900
G01 X-10.8889 Y-36.1327
G01 X-10.8462 Y-36.0573
G01 X-10.8207 Y-35.9884
G01 X-10.8042 Y-35.9055
G01 X-10.8042 Y-34.0945
G01 X-10.8325 Y-33.9756
G01 X-10.8815 Y-33.8784
G01 X-10.9520 Y-33.7925
G01 X-11.0378 Y-33.7255
G01 X-11.1488 Y-33.6745
G01 X-11.2822 Y-33.6514
G01 X-13.0666 Y-33.6555
G01 X-13.1744 Y-33.6825
G01 X-13.2716 Y-33.7315
G01 X-13.3575 Y-33.8020
G01 X-13.4245 Y-33.8878
G01 X-13.4675 Y-33.9756
G01 X-13.4925 Y-34.0702
G01 X-13.4990 Y-34.3668
G01 X-13.5786 Y-34.2359
G01 X-13.6908 Y-34.0953
G01 X-13.6908 Y-28.4567
G01 X-13.6986 Y-28.3378
G01 X-13.7320 Y-28.1764
G01 X-13.7695 Y-28.0715
G01 X-13.8208 Y-27.9677
G01 X-13.9025 Y-27.8454
G01 X-13.9726 Y-27.7647
G01 X-16.1658 Y-25.5711
G01 X-16.1658 Y-17.1797
G01 X-16.0536 Y-17.0391
G01 X-15.9740 Y-16.9082
G01 X-15.6215 Y-18.1579
G01 X-15.4767 Y-18.1683
G01 X-13.7750 Y-18.1683
G01 X-13.6120 Y-18.1554
G01 X-13.5118 Y-18.1345
G01 X-13.4626 Y-18.1203
G01 X-13.4530 Y-18.1173
G01 X-13.4425 Y-18.1138
G01 X-13.4393 Y-18.1127
G01 X-13.4141 Y-18.1038
G01 X-13.3199 Y-18.0637
G01 X-13.2301 Y-18.0146
G01 X-13.1455 Y-17.9569
G01 X-13.0670 Y-17.8912
G01 X-12.9953 Y-17.8181
G01 X-12.9311 Y-17.7384
G01 X-12.8581 Y-17.6226
G01 X-12.7962 Y-17.4859
G01 X-12.7559 Y-17.3481
G01 X-12.7353 Y-17.2106
G01 X-12.7322 Y-15.3938
G01 X-12.7538 Y-15.2117
G01 X-12.8087 Y-15.0320
G01 X-12.8966 Y-14.8622
G01 X-13.0080 Y-14.7179
G01 X-12.9476 Y-14.6127
G01 X-12.8837 Y-14.4779
G01 X-12.8034 Y-14.2498
G01 X-12.7669 Y-14.0978
G01 X-12.7444 Y-13.9515
G01 X-12.7328 Y-13.6888
G01 X-12.7419 Y-13.5395
G01 X-12.7669 Y-13.3722
G01 X-12.8086 Y-13.2014
G01 X-12.8591 Y-13.0535
G01 X-12.9729 Y-12.8109
G01 X-13.0546 Y-12.6776
G01 X-13.1538 Y-12.5435
G01 X-12.7894 Y-12.5435
G01 X-10.5435 Y-14.7894
G01 X-10.5435 Y-33.4316
G01 X-10.6839 Y-33.3081
G01 X-10.8359 Y-33.2157
G01 X-11.0036 Y-33.1498
G01 X-11.1778 Y-33.1140
G01 X-11.2983 Y-33.1067
G01 X-13.0000 Y-33.1067
G01 X-13.1452 Y-33.1169
G01 X-13.1466 Y-28.4444
G01 X-13.1684 Y-28.2027
G01 X-13.2180 Y-27.9960
G01 X-13.2719 Y-27.8509
G01 X-13.3506 Y-27.6936
G01 X-13.4361 Y-27.5606
G01 X-13.5633 Y-27.4056
G01 X-15.6215 Y-25.3456
G01 X-15.6215 Y-18.1579
G01 X-15.3493 Y-18.4404
G01 X-13.7717 Y-18.4404
G01 X-13.6245 Y-18.4317
G01 X-13.4797 Y-18.4068
G01 X-13.4124 Y-18.3894
G01 X-13.4060 Y-18.3876
G01 X-13.4044 Y-18.3871
G01 X-13.3996 Y-18.3857
G01 X-13.3740 Y-18.3778
G01 X-13.3397 Y-18.3663
G01 X-13.2020 Y-18.3090
G01 X-13.0760 Y-18.2393
G01 X-12.9509 Y-18.1502
G01 X-12.8402 Y-18.0504
G01 X-12.7425 Y-17.9400
G01 X-12.6581 Y-17.8198
G01 X-12.5754 Y-17.6646
G01 X-12.5143 Y-17.5004
G01 X-12.4759 Y-17.3312
G01 X-12.4602 Y-17.1637
G01 X-12.4596 Y-15.4242
G01 X-12.4649 Y-15.3077
G01 X-12.4893 Y-15.1471
G01 X-12.5337 Y-14.9897
G01 X-12.5976 Y-14.8386
G01 X-12.6831 Y-14.6915
G01 X-12.6151 Y-14.5404
G01 X-12.5472 Y-14.3444
G01 X-12.4999 Y-14.1509
G01 X-12.4707 Y-13.9539
G01 X-12.4597 Y-13.7467
G01 X-12.4678 Y-13.5477
G01 X-12.4963 Y-13.3388
G01 X-12.5311 Y-13.1867
G01 X-10.8157 Y-14.9021
G01 X-10.8157 Y-32.9270
G01 X-11.0238 Y-32.8639
G01 X-11.2438 Y-32.8358
G01 X-12.8712 Y-32.8346
G01 X-12.8745 Y-28.4377
G01 X-12.8820 Y-28.2937
G01 X-12.9008 Y-28.1529
G01 X-12.9600 Y-27.9091
G01 X-13.0204 Y-27.7467
G01 X-13.1016 Y-27.5807
G01 X-13.1954 Y-27.4292
G01 X-13.3242 Y-27.2642
G01 X-15.3493 Y-25.2329
G01 X-15.3493 Y-18.4404
G01 X-15.0771 Y-18.7126
G01 X-13.7629 Y-18.7125
G01 X-13.5553 Y-18.6973
G01 X-13.3965 Y-18.6668
G01 X-13.3828 Y-18.6633
G01 X-13.3820 Y-18.6631
G01 X-13.3803 Y-18.6627
G01 X-13.3763 Y-18.6617
G01 X-13.3594 Y-18.6572
G01 X-13.3205 Y-18.6461
G01 X-13.2339 Y-18.6175
G01 X-13.0842 Y-18.5544
G01 X-12.9446 Y-18.4780
G01 X-12.8100 Y-18.3856
G01 X-12.6862 Y-18.2803
G01 X-12.5693 Y-18.1577
G01 X-12.4719 Y-18.0318
G01 X-12.3610 Y-17.8467
G01 X-12.2758 Y-17.6472
G01 X-12.2198 Y-17.4437
G01 X-12.1908 Y-17.2279
G01 X-12.1914 Y-15.3138
G01 X-12.2122 Y-15.1456
G01 X-12.2492 Y-14.9866
G01 X-12.3032 Y-14.8298
G01 X-12.3759 Y-14.6748
G01 X-12.2994 Y-14.4649
G01 X-12.2466 Y-14.2671
G01 X-12.2085 Y-14.0500
G01 X-12.1941 Y-13.9086
G01 X-11.0879 Y-15.0148
G01 X-11.0879 Y-32.5767
G01 X-11.2883 Y-32.5625
G01 X-12.5992 Y-32.5624
G01 X-12.6025 Y-28.4256
G01 X-12.6114 Y-28.2645
G01 X-12.6335 Y-28.1010
G01 X-12.6593 Y-27.9767
G01 X-12.7062 Y-27.8099
G01 X-12.7739 Y-27.6311
G01 X-12.8703 Y-27.4368
G01 X-12.9729 Y-27.2725
G01 X-13.1128 Y-27.0924
G01 X-13.2123 Y-26.9850
G01 X-15.0771 Y-25.1202
G01 X-15.0771 Y-18.7126
G01 X-14.8050 Y-18.9848
G01 X-13.7374 Y-18.9843
G01 X-13.5861 Y-18.9751
G01 X-13.4470 Y-18.9556
G01 X-13.3576 Y-18.9373
G01 X-13.3527 Y-18.9361
G01 X-13.3523 Y-18.9360
G01 X-13.3507 Y-18.9357
G01 X-13.3495 Y-18.9354
G01 X-13.3377 Y-18.9326
G01 X-13.3122 Y-18.9262
G01 X-13.2700 Y-18.9148
G01 X-13.1001 Y-18.8579
G01 X-12.9438 Y-18.7886
G01 X-12.7858 Y-18.6998
G01 X-12.6392 Y-18.5976
G01 X-12.5028 Y-18.4814
G01 X-12.3770 Y-18.3515
G01 X-12.2653 Y-18.2109
G01 X-12.1294 Y-17.9913
G01 X-12.0263 Y-17.7578
G01 X-11.9547 Y-17.5058
G01 X-11.9192 Y-17.2456
G01 X-11.9164 Y-15.3609
G01 X-11.9313 Y-15.1819
G01 X-11.9639 Y-15.0027
G01 X-12.0137 Y-14.8280
G01 X-12.0794 Y-14.6611
G01 X-12.0174 Y-14.4709
G01 X-11.3600 Y-15.1276
G01 X-11.3600 Y-32.2902
G01 X-12.3273 Y-32.2902
G01 X-12.3346 Y-28.3197
G01 X-12.3634 Y-28.0658
G01 X-12.4109 Y-27.8485
G01 X-12.4854 Y-27.6185
G01 X-12.5676 Y-27.4290
G01 X-12.6408 Y-27.2898
G01 X-12.7430 Y-27.1264
G01 X-12.8541 Y-26.9771
G01 X-12.9695 Y-26.8450
G01 X-14.8050 Y-25.0075
G01 X-14.8050 Y-18.9848
G01 X-14.5328 Y-19.2569
G01 X-13.7106 Y-19.2559
G01 X-13.5494 Y-19.2449
G01 X-13.3945 Y-19.2226
G01 X-13.3462 Y-19.2133
G01 X-13.3249 Y-19.2088
G01 X-13.3233 Y-19.2085
G01 X-13.3198 Y-19.2077
G01 X-13.3192 Y-19.2076
G01 X-13.3152 Y-19.2067
G01 X-13.3018 Y-19.2037
G01 X-13.2166 Y-19.1824
G01 X-13.0395 Y-19.1260
G01 X-12.8735 Y-19.0569
G01 X-12.7092 Y-18.9713
G01 X-12.5556 Y-18.8737
G01 X-12.4084 Y-18.7612
G01 X-12.2754 Y-18.6402
G01 X-12.1491 Y-18.5039
G01 X-11.9782 Y-18.2723
G01 X-11.9040 Y-18.1468
G01 X-11.8380 Y-18.0155
G01 X-11.7802 Y-17.8771
G01 X-11.7330 Y-17.7374
G01 X-11.6694 Y-17.4586
G01 X-11.6503 Y-17.2992
G01 X-11.6431 Y-17.1380
G01 X-11.6431 Y-15.4171
G01 X-11.6531 Y-15.2199
G01 X-11.6322 Y-15.2407
G01 X-11.6322 Y-32.0181
G01 X-12.0553 Y-32.0181
G01 X-12.0599 Y-28.3654
G01 X-12.0756 Y-28.1564
G01 X-12.1150 Y-27.9148
G01 X-12.1744 Y-27.6856
G01 X-12.2532 Y-27.4651
G01 X-12.3524 Y-27.2503
G01 X-12.4604 Y-27.0615
G01 X-12.5927 Y-26.8703
G01 X-12.7117 Y-26.7243
G01 X-12.8265 Y-26.6011
G01 X-14.5328 Y-24.8947
G01 X-14.5328 Y-19.2569
G01 X-14.2607 Y-19.5291
G01 X-13.6237 Y-19.5243
G01 X-13.4293 Y-19.5040
G01 X-13.3265 Y-19.4868
G01 X-13.2966 Y-19.4809
G01 X-13.2917 Y-19.4799
G01 X-13.2880 Y-19.4792
G01 X-13.2851 Y-19.4786
G01 X-13.2725 Y-19.4759
G01 X-13.2237 Y-19.4650
G01 X-13.0321 Y-19.4114
G01 X-12.8442 Y-19.3415
G01 X-12.6654 Y-19.2576
G01 X-12.4964 Y-19.1608
G01 X-12.3312 Y-19.0472
G01 X-12.1783 Y-18.9222
G01 X-12.0380 Y-18.7870
G01 X-11.9043 Y-18.6349
G01 X-11.9043 Y-27.6386
G01 X-12.0014 Y-27.3617
G01 X-12.1243 Y-27.0991
G01 X-12.2789 Y-26.8409
G01 X-12.4511 Y-26.6102
G01 X-12.6289 Y-26.4138
G01 X-14.2607 Y-24.7820
G01 X-14.2607 Y-19.5291
G01 X-13.9885 Y-19.8012
G01 X-13.6713 Y-19.7992
G01 X-13.4419 Y-19.7804
G01 X-13.2733 Y-19.7537
G01 X-13.2626 Y-19.7517
G01 X-13.2611 Y-19.7514
G01 X-13.2601 Y-19.7512
G01 X-13.2454 Y-19.7482
G01 X-13.2276 Y-19.7446
G01 X-13.1832 Y-19.7349
G01 X-13.1029 Y-19.7154
G01 X-12.9415 Y-19.6681
G01 X-12.7764 Y-19.6079
G01 X-12.6173 Y-19.5378
G01 X-12.4673 Y-19.4600
G01 X-12.3203 Y-19.3713
G01 X-12.1772 Y-19.2718
G01 X-12.1766 Y-26.5181
G01 X-12.2875 Y-26.3824
G01 X-12.4259 Y-26.2320
G01 X-13.9885 Y-24.6693
G01 X-13.9885 Y-19.8012
G01 X-13.7163 Y-20.0728
G01 X-13.6905 Y-20.0721
G01 X-13.3677 Y-20.0451
G01 X-13.2880 Y-20.0328
G01 X-13.2479 Y-20.0258
G01 X-13.2401 Y-20.0244
G01 X-13.2326 Y-20.0230
G01 X-13.2315 Y-20.0228
G01 X-13.2286 Y-20.0223
G01 X-13.2102 Y-20.0187
G01 X-13.0482 Y-19.9824
G01 X-12.7414 Y-19.8862
G01 X-12.4493 Y-19.7585
G01 X-12.4488 Y-25.8241
G01 X-13.7163 Y-24.5565
G01 X-13.7163 Y-20.0728
G01 X-13.4442 Y-20.3285
G01 X-13.2583 Y-20.3038
G01 X-13.2116 Y-20.2958
G01 X-13.2070 Y-20.2950
G01 X-13.2025 Y-20.2942
G01 X-13.2013 Y-20.2940
G01 X-13.1920 Y-20.2923
G01 X-13.1709 Y-20.2883
G01 X-13.0806 Y-20.2698
G01 X-12.8990 Y-20.2241
G01 X-12.7214 Y-20.1683
G01 X-12.7210 Y-25.1670
G01 X-13.4442 Y-24.4438
G01 X-13.4442 Y-20.3285
G01 X-13.1720 Y-20.5652
G01 X-12.9966 Y-20.5298
G01 X-12.9937 Y-24.5094
G01 X-13.1720 Y-24.3311
G01 X-13.1720 Y-20.5652
G01 X-13.5485 Y-17.1361
G01 X-13.5482 Y-15.4250
G01 X-13.5580 Y-15.3592
G01 X-13.5864 Y-15.2990
G01 X-13.6311 Y-15.2497
G01 X-13.6986 Y-15.2115
G01 X-13.7639 Y-15.1985
G01 X-15.4861 Y-15.1985
G01 X-15.5720 Y-15.2200
G01 X-15.6430 Y-15.2727
G01 X-15.6845 Y-15.3382
G01 X-15.7015 Y-15.4139
G01 X-15.7018 Y-17.1250
G01 X-15.6950 Y-17.1801
G01 X-15.6800 Y-17.2220
G01 X-15.6273 Y-17.2930
G01 X-15.5618 Y-17.3345
G01 X-15.4861 Y-17.3515
G01 X-13.7528 Y-17.3507
G01 X-13.6681 Y-17.3250
G01 X-13.6070 Y-17.2773
G01 X-13.5655 Y-17.2118
G01 X-13.5485 Y-17.1361
G00 X-13.5485 Y-17.1361
G01 F90.00
G01 Z-0.1000
G01 F120.00
G01 X-13.5655 Y-17.2118
G01 X-13.6070 Y-17.2773
G01 X-13.6681 Y-17.3250
G01 X-13.7528 Y-17.3507
G01 X-15.4861 Y-17.3515
G01 X-15.5618 Y-17.3345
G01 X-15.6273 Y-17.2930
G01 X-15.6800 Y-17.2220
G01 X-15.6950 Y-17.1801
G01 X-15.7018 Y-17.1250
G01 X-15.7015 Y-15.4139
G01 X-15.6845 Y-15.3382
G01 X-15.6430 Y-15.2727
G01 X-15.5720 Y-15.2200
G01 X-15.4861 Y-15.1985
G01 X-13.7639 Y-15.1985
G01 X-13.6986 Y-15.2115
G01 X-13.6311 Y-15.2497
G01 X-13.5864 Y-15.2990
G01 X-13.5580 Y-15.3592
G01 X-13.5482 Y-15.4250
G01 X-13.5485 Y-17.1361
G01 X-13.1720 Y-20.5652
G01 X-13.1720 Y-24.3311
G01 X-12.9937 Y-24.5094
G01 X-12.9966 Y-20.5298
G01 X-13.1720 Y-20.5652
G01 X-13.4442 Y-20.3285
G01 X-13.4442 Y-24.4438
G01 X-12.7210 Y-25.1670
G01 X-12.7214 Y-20.1683
G01 X-12.8990 Y-20.2241
G01 X-13.0806 Y-20.2698
G01 X-13.1709 Y-20.2883
G01 X-13.1920 Y-20.2923
G01 X-13.2013 Y-20.2940
G01 X-13.2025 Y-20.2942
G01 X-13.2070 Y-20.2950
G01 X-13.2116 Y-20.2958
G01 X-13.2583 Y-20.3038
G01 X-13.4442 Y-20.3285
G01 X-13.7163 Y-20.0728
G01 X-13.7163 Y-24.5565
G01 X-12.4488 Y-25.8241
G01 X-12.4493 Y-19.7585
G01 X-12.7414 Y-19.8862
G01 X-13.0482 Y-19.9824
G01 X-13.2102 Y-20.0187
G01 X-13.2286 Y-20.0223
G01 X-13.2315 Y-20.0228
G01 X-13.2326 Y-20.0230
G01 X-13.2401 Y-20.0244
G01 X-13.2479 Y-20.0258
G01 X-13.2880 Y-20.0328
G01 X-13.3677 Y-20.0451
G01 X-13.6905 Y-20.0721
G01 X-13.7163 Y-20.0728
G01 X-13.9885 Y-19.8012
G01 X-13.9885 Y-24.6693
G01 X-12.4259 Y-26.2320
G01 X-12.2875 Y-26.3824
G01 X-12.1766 Y-26.5181
G01 X-12.1772 Y-19.2718
G01 X-12.3203 Y-19.3713
G01 X-12.4673 Y-19.4600
G01 X-12.6173 Y-19.5378
G01 X-12.7764 Y-19.6079
G01 X-12.9415 Y-19.6681
G01 X-13.1029 Y-19.7154
G01 X-13.1832 Y-19.7349
G01 X-13.2276 Y-19.7446
G01 X-13.2454 Y-19.7482
G01 X-13.2601 Y-19.7512
G01 X-13.2611 Y-19.7514
G01 X-13.2626 Y-19.7517
G01 X-13.2733 Y-19.7537
G01 X-13.4419 Y-19.7804
G01 X-13.6713 Y-19.7992
G01 X-13.9885 Y-19.8012
G01 X-14.2607 Y-19.5291
G01 X-14.2607 Y-24.7820
G01 X-12.6289 Y-26.4138
G01 X-12.4511 Y-26.6102
G01 X-12.2789 Y-26.8409
G01 X-12.1243 Y-27.0991
G01 X-12.0014 Y-27.3617
G01 X-11.9043 Y-27.6386
G01 X-11.9043 Y-18.6349
G01 X-12.0380 Y-18.7870
G01 X-12.1783 Y-18.9222
G01 X-12.3312 Y-19.0472
G01 X-12.4964 Y-19.1608
G01 X-12.6654 Y-19.2576
G01 X-12.8442 Y-19.3415
G01 X-13.0321 Y-19.4114
G01 X-13.2237 Y-19.4650
G01 X-13.2725 Y-19.4759
G01 X-13.2851 Y-19.4786
G01 X-13.2880 Y-19.4792
G01 X-13.2917 Y-19.4799
G01 X-13.2966 Y-19.4809
G01 X-13.3265 Y-19.4868
G01 X-13.4293 Y-19.5040
G01 X-13.6237 Y-19.5243
G01 X-14.2607 Y-19.5291
G01 X-14.5328 Y-19.2569
G01 X-14.5328 Y-24.8947
G01 X-12.8265 Y-26.6011
G01 X-12.7117 Y-26.7243
G01 X-12.5927 Y-26.8703
G01 X-12.4604 Y-27.0615
G01 X-12.3524 Y-27.2503
G01 X-12.2532 Y-27.4651
G01 X-12.1744 Y-27.6856
G01 X-12.1150 Y-27.9148
G01 X-12.0756 Y-28.1564
G01 X-12.0599 Y-28.3654
G01 X-12.0553 Y-32.0181
G01 X-11.6322 Y-32.0181
G01 X-11.6322 Y-15.2407
G01 X-11.6531 Y-15.2199
G01 X-11.6431 Y-15.4171
G01 X-11.6431 Y-17.1380
G01 X-11.6503 Y-17.2992
G01 X-11.6694 Y-17.4586
G01 X-11.7330 Y-17.7374
G01 X-11.7802 Y-17.8771
G01 X-11.8380 Y-18.0155
G01 X-11.9040 Y-18.1468
G01 X-11.9782 Y-18.2723
G01 X-12.1491 Y-18.5039
G01 X-12.2754 Y-18.6402
G01 X-12.4084 Y-18.7612
G01 X-12.5556 Y-18.8737
G01 X-12.7092 Y-18.9713
G01 X-12.8735 Y-19.0569
G01 X-13.0395 Y-19.1260
G01 X-13.2166 Y-19.1824
G01 X-13.3018 Y-19.2037
G01 X-13.3152 Y-19.2067
G01 X-13.3192 Y-19.2076
G01 X-13.3198 Y-19.2077
G01 X-13.3233 Y-19.2085
G01 X-13.3249 Y-19.2088
G01 X-13.3462 Y-19.2133
G01 X-13.3945 Y-19.2226
G01 X-13.5494 Y-19.2449
G01 X-13.7106 Y-19.2559
G01 X-14.5328 Y-19.2569
G01 X-14.8050 Y-18.9848
G01 X-14.8050 Y-25.0075
G01 X-12.9695 Y-26.8450
G01 X-12.8541 Y-26.9771
G01 X-12.7430 Y-27.1264
G01 X-12.6408 Y-27.2898
G01 X-12.5676 Y-27.4290
G01 X-12.4854 Y-27.6185
G01 X-12.4109 Y-27.8485
G01 X-12.3634 Y-28.0658
G01 X-12.3346 Y-28.3197
G01 X-12.3273 Y-32.2902
G01 X-11.3600 Y-32.2902
G01 X-11.3600 Y-15.1276
G01 X-12.0174 Y-14.4709
G01 X-12.0794 Y-14.6611
G01 X-12.0137 Y-14.8280
G01 X-11.9639 Y-15.0027
G01 X-11.9313 Y-15.1819
G01 X-11.9164 Y-15.3609
G01 X-11.9192 Y-17.2456
G01 X-11.9547 Y-17.5058
G01 X-12.0263 Y-17.7578
G01 X-12.1294 Y-17.9913
G01 X-12.2653 Y-18.2109
G01 X-12.3770 Y-18.3515
G01 X-12.5028 Y-18.4814
G01 X-12.6392 Y-18.5976
G01 X-12.7858 Y-18.6998
G01 X-12.9438 Y-18.7886
G01 X-13.1001 Y-18.8579
G01 X-13.2700 Y-18.9148
G01 X-13.3122 Y-18.9262
G01 X-13.3377 Y-18.9326
G01 X-13.3495 Y-18.9354
G01 X-13.3507 Y-18.9357
G01 X-13.3523 Y-18.9360
G01 X-13.3527 Y-18.9361
G01 X-13.3576 Y-18.9373
G01 X-13.4470 Y-18.9556
G01 X-13.5861 Y-18.9751
G01 X-13.7374 Y-18.9843
G01 X-14.8050 Y-18.9848
G01 X-15.0771 Y-18.7126
G01 X-15.0771 Y-25.1202
G01 X-13.2123 Y-26.9850
G01 X-13.1128 Y-27.0924
G01 X-12.9729 Y-27.2725
G01 X-12.8703 Y-27.4368
G01 X-12.7739 Y-27.6311
G01 X-12.7062 Y-27.8099
G01 X-12.6593 Y-27.9767
G01 X-12.6335 Y-28.1010
G01 X-12.6114 Y-28.2645
G01 X-12.6025 Y-28.4256
G01 X-12.5992 Y-32.5624
G01 X-11.2883 Y-32.5625
G01 X-11.0879 Y-32.5767
G01 X-11.0879 Y-15.0148
G01 X-12.1941 Y-13.9086
G01 X-12.2085 Y-14.0500
G01 X-12.2466 Y-14.2671
G01 X-12.2994 Y-14.4649
G01 X-12.3759 Y-14.6748
G01 X-12.3032 Y-14.8298
G01 X-12.2492 Y-14.9866
G01 X-12.2122 Y-15.1456
G01 X-12.1914 Y-15.3138
G01 X-12.1908 Y-17.2279
G01 X-12.2198 Y-17.4437
G01 X-12.2758 Y-17.6472
G01 X-12.3610 Y-17.8467
G01 X-12.4719 Y-18.0318
G01 X-12.5693 Y-18.1577
G01 X-12.6862 Y-18.2803
G01 X-12.8100 Y-18.3856
G01 X-12.9446 Y-18.4780
G01 X-13.0842 Y-18.5544
G01 X-13.2339 Y-18.6175
G01 X-13.3205 Y-18.6461
G01 X-13.3594 Y-18.6572
G01 X-13.3763 Y-18.6617
G01 X-13.3803 Y-18.6627
G01 X-13.3820 Y-18.6631
G01 X-13.3828 Y-18.6633
G01 X-13.3965 Y-18.6668
G01 X-13.5553 Y-18.6973
G01 X-13.7629 Y-18.7125
G01 X-15.0771 Y-18.7126
G01 X-15.3493 Y-18.4404
G01 X-15.3493 Y-25.2329
G01 X-13.3242 Y-27.2642
G01 X-13.1954 Y-27.4292
G01 X-13.1016 Y-27.5807
G01 X-13.0204 Y-27.7467
G01 X-12.9600 Y-27.9091
G01 X-12.9008 Y-28.1529
G01 X-12.8820 Y-28.2937
G01 X-12.8745 Y-28.4377
G01 X-12.8712 Y-32.8346
G01 X-11.2438 Y-32.8358
G01 X-11.0238 Y-32.8639
G01 X-10.8157 Y-32.9270
G01 X-10.8157 Y-14.9021
G01 X-12.5311 Y-13.1867
G01 X-12.4963 Y-13.3388
G01 X-12.4678 Y-13.5477
G01 X-12.4597 Y-13.7467
G01 X-12.4707 Y-13.9539
G01 X-12.4999 Y-14.1509
G01 X-12.5472 Y-14.3444
G01 X-12.6151 Y-14.5404
G01 X-12.6831 Y-14.6915
G01 X-12.5976 Y-14.8386
G01 X-12.5337 Y-14.9897
G01 X-12.4893 Y-15.1471
G01 X-12.4649 Y-15.3077
G01 X-12.4596 Y-15.4242
G01 X-12.4602 Y-17.1637
G01 X-12.4759 Y-17.3312
G01 X-12.5143 Y-17.5004
G01 X-12.5754 Y-17.6646
G01 X-12.6581 Y-17.8198
G01 X-12.7425 Y-17.9400
G01 X-12.8402 Y-18.0504
G01 X-12.9509 Y-18.1502
G01 X-13.0760 Y-18.2393
G01 X-13.2020 Y-18.3090
G01 X-13.3397 Y-18.3663
G01 X-13.3740 Y-18.3778
G01 X-13.3996 Y-18.3857
G01 X-13.4044 Y-18.3871
G01 X-13.4060 Y-18.3876
G01 X-13.4124 Y-18.3894
G01 X-13.4797 Y-18.4068
G01 X-13.6245 Y-18.4317
G01 X-13.7717 Y-18.4404
G01 X-15.3493 Y-18.4404
G01 X-15.6215 Y-18.1579
G01 X-15.6215 Y-25.3456
G01 X-13.5633 Y-27.4056
G01 X-13.4361 Y-27.5606
G01 X-13.3506 Y-27.6936
G01 X-13.2719 Y-27.8509
G01 X-13.2180 Y-27.9960
G01 X-13.1684 Y-28.2027
G01 X-13.1466 Y-28.4444
G01 X-13.1452 Y-33.1169
G01 X-13.0000 Y-33.1067
G01 X-11.2983 Y-33.1067
G01 X-11.1778 Y-33.1140
G01 X-11.0036 Y-33.1498
G01 X-10.8359 Y-33.2157
G01 X-10.6839 Y-33.3081
G01 X-10.5435 Y-33.4316
G01 X-10.5435 Y-14.7894
G01 X-12.7894 Y-12.5435
G01 X-13.1538 Y-12.5435
G01 X-13.0546 Y-12.6776
G01 X-12.9729 Y-12.8109
G01 X-12.8591 Y-13.0535
G01 X-12.8086 Y-13.2014
G01 X-12.7669 Y-13.3722
G01 X-12.7419 Y-13.5395
G01 X-12.7328 Y-13.6888
G01 X-12.7444 Y-13.9515
G01 X-12.7669 Y-14.0978
G01 X-12.8034 Y-14.2498
G01 X-12.8837 Y-14.4779
G01 X-12.9476 Y-14.6127
G01 X-13.0080 Y-14.7179
G01 X-12.8966 Y-14.8622
G01 X-12.8087 Y-15.0320
G01 X-12.7538 Y-15.2117
G01 X-12.7322 Y-15.3938
G01 X-12.7353 Y-17.2106
G01 X-12.7559 Y-17.3481
G01 X-12.7962 Y-17.4859
G01 X-12.8581 Y-17.6226
G01 X-12.9311 Y-17.7384
G01 X-12.9953 Y-17.8181
G01 X-13.0670 Y-17.8912
G01 X-13.1455 Y-17.9569
G01 X-13.2301 Y-18.0146
G01 X-13.3199 Y-18.0637
G01 X-13.4141 Y-18.1038
G01 X-13.4393 Y-18.1127
G01 X-13.4425 Y-18.1138
G01 X-13.4530 Y-18.1173
G01 X-13.4626 Y-18.1203
G01 X-13.5118 Y-18.1345
G01 X-13.6120 Y-18.1554
G01 X-13.7750 Y-18.1683
G01 X-15.4767 Y-18.1683
G01 X-15.6215 Y-18.1579
G01 X-15.9740 Y-16.9082
G01 X-16.0536 Y-17.0391
G01 X-16.1658 Y-17.1797
G01 X-16.1658 Y-25.5711
G01 X-13.9726 Y-27.7647
G01 X-13.9025 Y-27.8454
G01 X-13.8208 Y-27.9677
G01 X-13.7695 Y-28.0715
G01 X-13.7320 Y-28.1764
G01 X-13.6986 Y-28.3378
G01 X-13.6908 Y-28.4567
G01 X-13.6908 Y-34.0953
G01 X-13.5786 Y-34.2359
G01 X-13.4990 Y-34.3668
G01 X-13.4925 Y-34.0702
G01 X-13.4675 Y-33.9756
G01 X-13.4245 Y-33.8878
G01 X-13.3575 Y-33.8020
G01 X-13.2716 Y-33.7315
G01 X-13.1744 Y-33.6825
G01 X-13.0666 Y-33.6555
G01 X-11.2822 Y-33.6514
G01 X-11.1488 Y-33.6745
G01 X-11.0378 Y-33.7255
G01 X-10.9520 Y-33.7925
G01 X-10.8815 Y-33.8784
G01 X-10.8325 Y-33.9756
G01 X-10.8042 Y-34.0945
G01 X-10.8042 Y-35.9055
G01 X-10.8207 Y-35.9884
G01 X-10.8462 Y-36.0573
G01 X-10.8889 Y-36.1327
G01 X-10.9348 Y-36.1900
G01 X-10.9887 Y-36.2399
G01 X-11.0589 Y-36.2868
G01 X-11.1382 Y-36.3220
G01 X-11.2092 Y-36.3406
G01 X-11.3000 Y-36.3490
G01 X-13.0555 Y-36.3458
G01 X-13.1618 Y-36.3220
G01 X-13.2716 Y-36.2685
G01 X-13.3575 Y-36.1980
G01 X-13.4245 Y-36.1122
G01 X-13.4675 Y-36.0244
G01 X-13.4925 Y-35.9298
G01 X-13.4990 Y-35.6332
G01 X-13.5825 Y-35.7695
G01 X-13.6515 Y-35.8609
G01 X-13.7315 Y-35.9491
G01 X-13.8535 Y-36.0578
G01 X-13.9462 Y-36.1253
G01 X-14.0483 Y-36.1865
G01 X-14.1966 Y-36.2551
G01 X-14.3048 Y-36.2927
G01 X-14.4203 Y-36.3217
G01 X-14.5822 Y-36.3443
G01 X-14.6967 Y-36.3489
G01 X-14.8156 Y-36.3430
G01 X-14.9771 Y-36.3177
G01 X-15.0880 Y-36.2889
G01 X-15.2000 Y-36.2488
G01 X-15.3472 Y-36.1776
G01 X-15.5318 Y-36.0538
G01 X-15.6562 Y-35.9410
G01 X-15.7369 Y-35.8506
G01 X-15.8014 Y-35.7641
G01 X-15.8828 Y-35.6300
G01 X-15.9600 Y-35.4517
G01 X-16.0524 Y-35.6572
G01 X-16.1186 Y-35.7641
G01 X-16.2308 Y-35.9047
G01 X-16.2308 Y-36.5061
G01 X-15.7361 Y-37.0008
G01 X-11.5639 Y-37.0008
G01 X-9.9992 Y-35.4361
G01 X-9.9992 Y-14.5639
G01 X-12.5639 Y-11.9992
G01 X-15.7361 Y-11.9992
G01 X-16.1658 Y-12.4289
G01 X-16.1658 Y-12.8303
G01 X-16.0536 Y-12.9709
G01 X-15.9874 Y-13.0778
G01 X-15.8950 Y-13.2833
G01 X-15.8178 Y-13.1050
G01 X-15.7364 Y-12.9709
G01 X-15.6635 Y-12.8741
G01 X-15.5912 Y-12.7940
G01 X-15.4668 Y-12.6812
G01 X-15.2822 Y-12.5574
G01 X-15.1350 Y-12.4862
G01 X-15.0230 Y-12.4461
G01 X-14.9121 Y-12.4173
G01 X-14.7395 Y-12.3911
G01 X-14.5172 Y-12.3907
G01 X-14.3553 Y-12.4133
G01 X-14.2398 Y-12.4423
G01 X-14.1316 Y-12.4799
G01 X-13.9833 Y-12.5485
G01 X-13.8812 Y-12.6097
G01 X-13.7885 Y-12.6772
G01 X-13.6665 Y-12.7859
G01 X-13.5865 Y-12.8741
G01 X-13.5136 Y-12.9709
G01 X-13.4243 Y-13.1210
G01 X-13.3762 Y-13.2250
G01 X-13.3323 Y-13.3498
G01 X-13.3007 Y-13.4784
G01 X-13.2820 Y-13.6094
G01 X-13.2761 Y-13.7417
G01 X-13.2833 Y-13.8739
G01 X-13.3033 Y-14.0047
G01 X-13.3361 Y-14.1330
G01 X-13.3814 Y-14.2574
G01 X-13.4385 Y-14.3767
G01 X-13.5072 Y-14.4900
G01 X-13.5865 Y-14.5959
G01 X-13.6759 Y-14.6935
G01 X-13.7744 Y-14.7819
G01 X-13.8812 Y-14.8603
G01 X-13.9918 Y-14.9260
G01 X-13.7195 Y-14.9292
G01 X-13.6366 Y-14.9457
G01 X-13.5557 Y-14.9769
G01 X-13.4637 Y-15.0351
G01 X-13.3936 Y-15.1034
G01 X-13.3382 Y-15.1839
G01 X-13.2995 Y-15.2738
G01 X-13.2825 Y-15.3452
G01 X-13.2760 Y-15.4250
G01 X-13.2792 Y-17.1805
G01 X-13.2927 Y-17.2527
G01 X-13.3212 Y-17.3323
G01 X-13.3565 Y-17.3966
G01 X-13.4098 Y-17.4650
G01 X-13.4725 Y-17.5217
G01 X-13.5034 Y-17.5435
G01 X-13.5128 Y-17.5495
G01 X-13.5243 Y-17.5563
G01 X-13.5339 Y-17.5618
G01 X-13.6006 Y-17.5925
G01 X-13.6842 Y-17.6156
G01 X-13.7750 Y-17.6240
G01 X-15.5306 Y-17.6208
G01 X-15.6368 Y-17.5970
G01 X-15.7372 Y-17.5495
G01 X-15.7863 Y-17.5149
G01 X-15.8051 Y-17.4991
G01 X-15.8150 Y-17.4902
G01 X-15.8325 Y-17.4730
G01 X-15.8995 Y-17.3872
G01 X-15.9425 Y-17.2994
G01 X-15.9675 Y-17.2048
G01 X-15.9740 Y-16.9082
G00 Z2.0000
(Block-name: block)
(Block-expand: 0)
(Block-enable: 1)
G00 X-10.5289 Y-35.5809
G01 F90.00
G01 Z-0.0250
G01 F120.00
G01 X-10.5289 Y-34.1500
G01 X-10.5383 Y-34.0303
G01 X-10.5786 Y-33.8777
G01 X-10.6456 Y-33.7422
G01 X-10.7377 Y-33.6224
G01 X-10.8515 Y-33.5228
G01 X-10.9484 Y-33.4638
G01 X-11.0634 Y-33.4161
G01 X-11.1803 Y-33.3883
G01 X-11.2967 Y-33.3789
G01 X-13.0445 Y-33.3802
G01 X-13.1439 Y-33.3925
G01 X-13.2366 Y-33.4161
G01 X-13.3357 Y-33.4558
G01 X-13.4186 Y-33.5025
G01 X-13.4187 Y-28.4533
G01 X-13.4366 Y-28.2493
G01 X-13.4754 Y-28.0846
G01 X-13.5207 Y-27.9612
G01 X-13.5857 Y-27.8306
G01 X-13.6839 Y-27.6833
G01 X-13.7683 Y-27.5847
G01 X-15.8936 Y-25.4584
G01 X-15.8936 Y-17.7725
G01 X-15.8107 Y-17.8192
G01 X-15.7116 Y-17.8589
G01 X-15.6189 Y-17.8825
G01 X-15.5195 Y-17.8948
G01 X-13.7750 Y-17.8961
G01 X-13.6377 Y-17.8837
G01 X-13.5278 Y-17.8554
G01 X-13.4174 Y-17.8081
G01 X-13.3103 Y-17.7403
G01 X-13.2251 Y-17.6655
G01 X-13.1478 Y-17.5735
G01 X-13.0838 Y-17.4667
G01 X-13.0411 Y-17.3616
G01 X-13.0133 Y-17.2447
G01 X-13.0039 Y-17.1250
G01 X-13.0039 Y-15.4250
G01 X-13.0113 Y-15.3185
G01 X-13.0536 Y-15.1527
G01 X-13.1302 Y-15.0022
G01 X-13.2393 Y-14.8704
G01 X-13.3743 Y-14.7663
G01 X-13.2734 Y-14.6300
G01 X-13.1922 Y-14.4933
G01 X-13.1223 Y-14.3430
G01 X-13.0636 Y-14.1691
G01 X-13.0163 Y-13.9315
G01 X-13.0047 Y-13.7695
G01 X-13.0105 Y-13.5894
G01 X-13.0326 Y-13.4319
G01 X-13.0757 Y-13.2580
G01 X-13.1412 Y-13.0831
G01 X-13.1922 Y-12.9767
G01 X-13.2568 Y-12.8663
G01 X-13.3567 Y-12.7258
G01 X-13.4740 Y-12.5935
G01 X-13.6070 Y-12.4735
G01 X-13.7450 Y-12.3738
G01 X-13.9304 Y-12.2714
G01 X-12.6766 Y-12.2714
G01 X-10.2714 Y-14.6766
G01 X-10.2714 Y-35.3234
G01 X-10.5289 Y-35.5809
G01 X-11.0735 Y-35.8611
G01 X-11.0735 Y-34.1389
G01 X-11.0830 Y-34.0842
G01 X-11.1114 Y-34.0240
G01 X-11.1561 Y-33.9747
G01 X-11.2132 Y-33.9405
G01 X-11.3000 Y-33.9232
G01 X-13.0222 Y-33.9243
G01 X-13.1069 Y-33.9500
G01 X-13.1680 Y-33.9977
G01 X-13.2095 Y-34.0632
G01 X-13.2265 Y-34.1389
G01 X-13.2265 Y-35.8611
G01 X-13.2050 Y-35.9470
G01 X-13.1753 Y-35.9939
G01 X-13.1439 Y-36.0253
G01 X-13.0764 Y-36.0635
G01 X-13.0111 Y-36.0765
G01 X-11.2778 Y-36.0757
G01 X-11.1931 Y-36.0500
G01 X-11.1320 Y-36.0023
G01 X-11.0905 Y-35.9368
G01 X-11.0735 Y-35.8611
G00 X-11.0735 Y-35.8611
G01 F90.00
G01 Z-0.0500
G01 F120.00
G01 X-11.0905 Y-35.9368
G01 X-11.1320 Y-36.0023
G01 X-11.1931 Y-36.0500
G01 X-11.2778 Y-36.0757
G01 X-13.0111 Y-36.0765
G01 X-13.0764 Y-36.0635
G01 X-13.1439 Y-36.0253
G01 X-13.1753 Y-35.9939
G01 X-13.2050 Y-35.9470
G01 X-13.2265 Y-35.8611
G01 X-13.2265 Y-34.1389
G01 X-13.2095 Y-34.0632
G01 X-13.1680 Y-33.9977
G01 X-13.1069 Y-33.9500
G01 X-13.0222 Y-33.9243
G01 X-11.3000 Y-33.9232
G01 X-11.2132 Y-33.9405
G01 X-11.1561 Y-33.9747
G01 X-11.1114 Y-34.0240
G01 X-11.0830 Y-34.0842
G01 X-11.0735 Y-34.1389
G01 X-11.0735 Y-35.8611
G01 X-10.5289 Y-35.5809
G01 X-10.2714 Y-35.3234
G01 X-10.2714 Y-14.6766
G01 X-12.6766 Y-12.2714
G01 X-13.9304 Y-12.2714
G01 X-13.7450 Y-12.3738
G01 X-13.6070 Y-12.4735
G01 X-13.4740 Y-12.5935
G01 X-13.3567 Y-12.7258
G01 X-13.2568 Y-12.8663
G01 X-13.1922 Y-12.9767
G01 X-13.1412 Y-13.0831
G01 X-13.0757 Y-13.2580
G01 X-13.0326 Y-13.4319
G01 X-13.0105 Y-13.5894
G01 X-13.0047 Y-13.7695
G01 X-13.0163 Y-13.9315
G01 X-13.0636 Y-14.1691
G01 X-13.1223 Y-14.3430
G01 X-13.1922 Y-14.4933
G01 X-13.2734 Y-14.6300
G01 X-13.3743 Y-14.7663
G01 X-13.2393 Y-14.8704
G01 X-13.1302 Y-15.0022
G01 X-13.0536 Y-15.1527
G01 X-13.0113 Y-15.3185
G01 X-13.0039 Y-15.4250
G01 X-13.0039 Y-17.1250
G01 X-13.0133 Y-17.2447
G01 X-13.0411 Y-17.3616
G01 X-13.0838 Y-17.4667
G01 X-13.1478 Y-17.5735
G01 X-13.2251 Y-17.6655
G01 X-13.3103 Y-17.7403
G01 X-13.4174 Y-17.8081
G01 X-13.5278 Y-17.8554
G01 X-13.6377 Y-17.8837
G01 X-13.7750 Y-17.8961
G01 X-15.5195 Y-17.8948
G01 X-15.6189 Y-17.8825
G01 X-15.7116 Y-17.8589
G01 X-15.8107 Y-17.8192
G01 X-15.8936 Y-17.7725
G01 X-15.8936 Y-25.4584
G01 X-13.7683 Y-27.5847
G01 X-13.6839 Y-27.6833
G01 X-13.5857 Y-27.8306
G01 X-13.5207 Y-27.9612
G01 X-13.4754 Y-28.0846
G01 X-13.4366 Y-28.2493
G01 X-13.4187 Y-28.4533
G01 X-13.4186 Y-33.5025
G01 X-13.3357 Y-33.4558
G01 X-13.2366 Y-33.4161
G01 X-13.1439 Y-33.3925
G01 X-13.0445 Y-33.3802
G01 X-11.2967 Y-33.3789
G01 X-11.1803 Y-33.3883
G01 X-11.0634 Y-33.4161
G01 X-10.9484 Y-33.4638
G01 X-10.8515 Y-33.5228
G01 X-10.7377 Y-33.6224
G01 X-10.6456 Y-33.7422
G01 X-10.5786 Y-33.8777
G01 X-10.5383 Y-34.0303
G01 X-10.5289 Y-34.1500
G01 X-10.5289 Y-35.5809
G00 X-10.5289 Y-35.5809
G01 F90.00
G01 Z-0.0750
G01 F120.00
G01 X-10.5289 Y-34.1500
G01 X-10.5383 Y-34.0303
G01 X-10.5786 Y-33.8777
G01 X-10.6456 Y-33.7422
G01 X-10.7377 Y-33.6224
G01 X-10.8515 Y-33.5228
G01 X-10.9484 Y-33.4638
G01 X-11.0634 Y-33.4161
G01 X-11.1803 Y-33.3883
G01 X-11.2967 Y-33.3789
G01 X-13.0445 Y-33.3802
G01 X-13.1439 Y-33.3925
G01 X-13.2366 Y-33.4161
G01 X-13.3357 Y-33.4558
G01 X-13.4186 Y-33.5025
G01 X-13.4187 Y-28.4533
G01 X-13.4366 Y-28.2493
G01 X-13.4754 Y-28.0846
G01 X-13.5207 Y-27.9612
G01 X-13.5857 Y-27.8306
G01 X-13.6839 Y-27.6833
G01 X-13.7683 Y-27.5847
G01 X-15.8936 Y-25.4584
G01 X-15.8936 Y-17.7725
G01 X-15.8107 Y-17.8192
G01 X-15.7116 Y-17.8589
G01 X-15.6189 Y-17.8825
G01 X-15.5195 Y-17.8948
G01 X-13.7750 Y-17.8961
G01 X-13.6377 Y-17.8837
G01 X-13.5278 Y-17.8554
G01 X-13.4174 Y-17.8081
G01 X-13.3103 Y-17.7403
G01 X-13.2251 Y-17.6655
G01 X-13.1478 Y-17.5735
G01 X-13.0838 Y-17.4667
G01 X-13.0411 Y-17.3616
G01 X-13.0133 Y-17.2447
G01 X-13.0039 Y-17.1250
G01 X-13.0039 Y-15.4250
G01 X-13.0113 Y-15.3185
G01 X-13.0536 Y-15.1527
G01 X-13.1302 Y-15.0022
G01 X-13.2393 Y-14.8704
G01 X-13.3743 Y-14.7663
G01 X-13.2734 Y-14.6300
G01 X-13.1922 Y-14.4933
G01 X-13.1223 Y-14.3430
G01 X-13.0636 Y-14.1691
G01 X-13.0163 Y-13.9315
G01 X-13.0047 Y-13.7695
G01 X-13.0105 Y-13.5894
G01 X-13.0326 Y-13.4319
G01 X-13.0757 Y-13.2580
G01 X-13.1412 Y-13.0831
G01 X-13.1922 Y-12.9767
G01 X-13.2568 Y-12.8663
G01 X-13.3567 Y-12.7258
G01 X-13.4740 Y-12.5935
G01 X-13.6070 Y-12.4735
G01 X-13.7450 Y-12.3738
G01 X-13.9304 Y-12.2714
G01 X-12.6766 Y-12.2714
G01 X-10.2714 Y-14.6766
G01 X-10.2714 Y-35.3234
G01 X-10.5289 Y-35.5809
G01 X-11.0735 Y-35.8611
G01 X-11.0735 Y-34.1389
G01 X-11.0830 Y-34.0842
G01 X-11.1114 Y-34.0240
G01 X-11.1561 Y-33.9747
G01 X-11.2132 Y-33.9405
G01 X-11.3000 Y-33.9232
G01 X-13.0222 Y-33.9243
G01 X-13.1069 Y-33.9500
G01 X-13.1680 Y-33.9977
G01 X-13.2095 Y-34.0632
G01 X-13.2265 Y-34.1389
G01 X-13.2265 Y-35.8611
G01 X-13.2050 Y-35.9470
G01 X-13.1753 Y-35.9939
G01 X-13.1439 Y-36.0253
G01 X-13.0764 Y-36.0635
G01 X-13.0111 Y-36.0765
G01 X-11.2778 Y-36.0757
G01 X-11.1931 Y-36.0500
G01 X-11.1320 Y-36.0023
G01 X-11.0905 Y-35.9368
G01 X-11.0735 Y-35.8611
G00 X-11.0735 Y-35.8611
G01 F90.00
G01 Z-0.1000
G01 F120.00
G01 X-11.0905 Y-35.9368
G01 X-11.1320 Y-36.0023
G01 X-11.1931 Y-36.0500
G01 X-11.2778 Y-36.0757
G01 X-13.0111 Y-36.0765
G01 X-13.0764 Y-36.0635
G01 X-13.1439 Y-36.0253
G01 X-13.1753 Y-35.9939
G01 X-13.2050 Y-35.9470
G01 X-13.2265 Y-35.8611
G01 X-13.2265 Y-34.1389
G01 X-13.2095 Y-34.0632
G01 X-13.1680 Y-33.9977
G01 X-13.1069 Y-33.9500
G01 X-13.0222 Y-33.9243
G01 X-11.3000 Y-33.9232
G01 X-11.2132 Y-33.9405
G01 X-11.1561 Y-33.9747
G01 X-11.1114 Y-34.0240
G01 X-11.0830 Y-34.0842
G01 X-11.0735 Y-34.1389
G01 X-11.0735 Y-35.8611
G01 X-10.5289 Y-35.5809
G01 X-10.2714 Y-35.3234
G01 X-10.2714 Y-14.6766
G01 X-12.6766 Y-12.2714
G01 X-13.9304 Y-12.2714
G01 X-13.7450 Y-12.3738
G01 X-13.6070 Y-12.4735
G01 X-13.4740 Y-12.5935
G01 X-13.3567 Y-12.7258
G01 X-13.2568 Y-12.8663
G01 X-13.1922 Y-12.9767
G01 X-13.1412 Y-13.0831
G01 X-13.0757 Y-13.2580
G01 X-13.0326 Y-13.4319
G01 X-13.0105 Y-13.5894
G01 X-13.0047 Y-13.7695
G01 X-13.0163 Y-13.9315
G01 X-13.0636 Y-14.1691
G01 X-13.1223 Y-14.3430
G01 X-13.1922 Y-14.4933
G01 X-13.2734 Y-14.6300
G01 X-13.3743 Y-14.7663
G01 X-13.2393 Y-14.8704
G01 X-13.1302 Y-15.0022
G01 X-13.0536 Y-15.1527
G01 X-13.0113 Y-15.3185
G01 X-13.0039 Y-15.4250
G01 X-13.0039 Y-17.1250
G01 X-13.0133 Y-17.2447
G01 X-13.0411 Y-17.3616
G01 X-13.0838 Y-17.4667
G01 X-13.1478 Y-17.5735
G01 X-13.2251 Y-17.6655
G01 X-13.3103 Y-17.7403
G01 X-13.4174 Y-17.8081
G01 X-13.5278 Y-17.8554
G01 X-13.6377 Y-17.8837
G01 X-13.7750 Y-17.8961
G01 X-15.5195 Y-17.8948
G01 X-15.6189 Y-17.8825
G01 X-15.7116 Y-17.8589
G01 X-15.8107 Y-17.8192
G01 X-15.8936 Y-17.7725
G01 X-15.8936 Y-25.4584
G01 X-13.7683 Y-27.5847
G01 X-13.6839 Y-27.6833
G01 X-13.5857 Y-27.8306
G01 X-13.5207 Y-27.9612
G01 X-13.4754 Y-28.0846
G01 X-13.4366 Y-28.2493
G01 X-13.4187 Y-28.4533
G01 X-13.4186 Y-33.5025
G01 X-13.3357 Y-33.4558
G01 X-13.2366 Y-33.4161
G01 X-13.1439 Y-33.3925
G01 X-13.0445 Y-33.3802
G01 X-11.2967 Y-33.3789
G01 X-11.1803 Y-33.3883
G01 X-11.0634 Y-33.4161
G01 X-10.9484 Y-33.4638
G01 X-10.8515 Y-33.5228
G01 X-10.7377 Y-33.6224
G01 X-10.6456 Y-33.7422
G01 X-10.5786 Y-33.8777
G01 X-10.5383 Y-34.0303
G01 X-10.5289 Y-34.1500
G01 X-10.5289 Y-35.5809
G00 Z2.0000
(Block-name: block)
(Block-expand: 0)
(Block-enable: 1)
G00 X-15.9586 Y-36.0088
G01 F90.00
G01 Z-0.0250
G01 F120.00
G01 X-15.8410 Y-36.1415
G01 X-15.7235 Y-36.2488
G01 X-15.5962 Y-36.3441
G01 X-15.4659 Y-36.4233
G01 X-15.3165 Y-36.4951
G01 X-15.1733 Y-36.5473
G01 X-15.0193 Y-36.5872
G01 X-14.8832 Y-36.6092
G01 X-14.7034 Y-36.6210
G01 X-14.5444 Y-36.6145
G01 X-14.3803 Y-36.5912
G01 X-14.2258 Y-36.5532
G01 X-14.0758 Y-36.5002
G01 X-13.9317 Y-36.4328
G01 X-13.7950 Y-36.3516
G01 X-13.6587 Y-36.2507
G01 X-13.5623 Y-36.3776
G01 X-13.4394 Y-36.4836
G01 X-13.3012 Y-36.5598
G01 X-13.1373 Y-36.6087
G01 X-13.0033 Y-36.6211
G01 X-11.5691 Y-36.6211
G01 X-11.6766 Y-36.7286
G01 X-15.6234 Y-36.7286
G01 X-15.9586 Y-36.3934
G01 X-15.9586 Y-36.0088
G00 X-15.9586 Y-36.0088
G01 F90.00
G01 Z-0.0500
G01 F120.00
G01 X-15.9586 Y-36.3934
G01 X-15.6234 Y-36.7286
G01 X-11.6766 Y-36.7286
G01 X-11.5691 Y-36.6211
G01 X-13.0033 Y-36.6211
G01 X-13.1373 Y-36.6087
G01 X-13.3012 Y-36.5598
G01 X-13.4394 Y-36.4836
G01 X-13.5623 Y-36.3776
G01 X-13.6587 Y-36.2507
G01 X-13.7950 Y-36.3516
G01 X-13.9317 Y-36.4328
G01 X-14.0758 Y-36.5002
G01 X-14.2258 Y-36.5532
G01 X-14.3803 Y-36.5912
G01 X-14.5444 Y-36.6145
G01 X-14.7034 Y-36.6210
G01 X-14.8832 Y-36.6092
G01 X-15.0193 Y-36.5872
G01 X-15.1733 Y-36.5473
G01 X-15.3165 Y-36.4951
G01 X-15.4659 Y-36.4233
G01 X-15.5962 Y-36.3441
G01 X-15.7235 Y-36.2488
G01 X-15.8410 Y-36.1415
G01 X-15.9586 Y-36.0088
G00 X-15.9586 Y-36.0088
G01 F90.00
G01 Z-0.0750
G01 F120.00
G01 X-15.8410 Y-36.1415
G01 X-15.7235 Y-36.2488
G01 X-15.5962 Y-36.3441
G01 X-15.4659 Y-36.4233
G01 X-15.3165 Y-36.4951
G01 X-15.1733 Y-36.5473
G01 X-15.0193 Y-36.5872
G01 X-14.8832 Y-36.6092
G01 X-14.7034 Y-36.6210
G01 X-14.5444 Y-36.6145
G01 X-14.3803 Y-36.5912
G01 X-14.2258 Y-36.5532
G01 X-14.0758 Y-36.5002
G01 X-13.9317 Y-36.4328
G01 X-13.7950 Y-36.3516
G01 X-13.6587 Y-36.2507
G01 X-13.5623 Y-36.3776
G01 X-13.4394 Y-36.4836
G01 X-13.3012 Y-36.5598
G01 X-13.1373 Y-36.6087
G01 X-13.0033 Y-36.6211
G01 X-11.5691 Y-36.6211
G01 X-11.6766 Y-36.7286
G01 X-15.6234 Y-36.7286
G01 X-15.9586 Y-36.3934
G01 X-15.9586 Y-36.0088
G00 X-15.9586 Y-36.0088
G01 F90.00
G01 Z-0.1000
G01 F120.00
G01 X-15.9586 Y-36.3934
G01 X-15.6234 Y-36.7286
G01 X-11.6766 Y-36.7286
G01 X-11.5691 Y-36.6211
G01 X-13.0033 Y-36.6211
G01 X-13.1373 Y-36.6087
G01 X-13.3012 Y-36.5598
G01 X-13.4394 Y-36.4836
G01 X-13.5623 Y-36.3776
G01 X-13.6587 Y-36.2507
G01 X-13.7950 Y-36.3516
G01 X-13.9317 Y-36.4328
G01 X-14.0758 Y-36.5002
G01 X-14.2258 Y-36.5532
G01 X-14.3803 Y-36.5912
G01 X-14.5444 Y-36.6145
G01 X-14.7034 Y-36.6210
G01 X-14.8832 Y-36.6092
G01 X-15.0193 Y-36.5872
G01 X-15.1733 Y-36.5473
G01 X-15.3165 Y-36.4951
G01 X-15.4659 Y-36.4233
G01 X-15.5962 Y-36.3441
G01 X-15.7235 Y-36.2488
G01 X-15.8410 Y-36.1415
G01 X-15.9586 Y-36.0088
G00 Z2.0000
(Block-name: block)
(Block-expand: 0)
(Block-enable: 1)
G00 X-17.9571 Y-35.7929
G01 F90.00
G01 Z-0.0250
G01 F120.00
G01 X-17.9535 Y-36.9913
G01 X-17.9223 Y-37.1416
G01 X-17.8972 Y-37.2084
G01 X-17.8405 Y-37.3145
G01 X-17.7441 Y-37.4341
G01 X-16.6112 Y-38.5620
G01 X-16.5024 Y-38.6357
G01 X-16.4178 Y-38.6757
G01 X-16.2918 Y-38.7131
G01 X-16.1556 Y-38.7270
G01 X-11.1500 Y-38.7271
G01 X-11.0191 Y-38.7150
G01 X-10.9284 Y-38.6923
G01 X-10.8172 Y-38.6462
G01 X-10.7555 Y-38.6105
G01 X-10.6399 Y-38.5180
G01 X-8.4859 Y-36.3641
G01 X-8.4311 Y-36.3025
G01 X-8.3588 Y-36.1927
G01 X-8.3243 Y-36.1178
G01 X-8.2894 Y-36.0027
G01 X-8.2729 Y-35.8500
G01 X-8.2778 Y-14.0677
G01 X-8.3043 Y-13.9389
G01 X-8.3538 Y-13.8172
G01 X-8.4019 Y-13.7370
G01 X-8.4859 Y-13.6359
G01 X-11.6399 Y-10.4820
G01 X-11.7370 Y-10.4019
G01 X-11.8073 Y-10.3588
G01 X-11.8822 Y-10.3243
G01 X-11.9973 Y-10.2894
G01 X-12.1500 Y-10.2729
G01 X-16.1556 Y-10.2730
G01 X-16.2323 Y-10.2778
G01 X-16.3503 Y-10.3013
G01 X-16.5024 Y-10.3643
G01 X-16.6025 Y-10.4311
G01 X-16.6601 Y-10.4820
G01 X-17.6791 Y-11.5009
G01 X-17.7631 Y-11.6020
G01 X-17.8112 Y-11.6822
G01 X-17.8607 Y-11.8039
G01 X-17.8894 Y-11.9548
G01 X-17.8921 Y-12.9421
G01 X-17.9901 Y-13.0435
G01 X-18.0603 Y-13.1368
G01 X-18.1147 Y-13.2274
G01 X-18.1638 Y-13.3333
G01 X-18.1984 Y-13.4332
G01 X-18.2353 Y-13.6184
G01 X-18.2418 Y-13.7350
G01 X-18.2366 Y-13.8405
G01 X-18.2211 Y-13.9451
G01 X-18.1919 Y-14.0581
G01 X-18.1553 Y-14.1573
G01 X-18.0663 Y-14.3238
G01 X-17.9974 Y-14.4181
G01 X-17.9264 Y-14.4964
G01 X-17.8481 Y-14.5674
G01 X-17.7538 Y-14.6363
G01 X-17.6627 Y-14.6897
G01 X-17.4881 Y-14.7619
G01 X-17.3751 Y-14.7911
G01 X-17.2705 Y-14.8066
G01 X-17.1650 Y-14.8118
G01 X-17.0484 Y-14.8053
G01 X-16.8632 Y-14.7684
G01 X-16.7633 Y-14.7338
G01 X-16.6574 Y-14.6847
G01 X-16.5668 Y-14.6303
G01 X-16.4819 Y-14.5674
G01 X-16.3959 Y-14.4884
G01 X-16.3258 Y-14.4093
G01 X-16.2208 Y-14.2523
G01 X-16.1702 Y-14.1471
G01 X-16.1346 Y-14.0476
G01 X-16.1070 Y-13.9341
G01 X-16.0885 Y-13.7461
G01 X-16.0934 Y-13.6295
G01 X-16.1089 Y-13.5249
G01 X-16.1662 Y-13.3333
G01 X-16.2153 Y-13.2274
G01 X-16.3258 Y-13.0607
G01 X-16.4379 Y-12.9421
G01 X-16.4379 Y-12.3162
G01 X-15.8488 Y-11.7271
G01 X-12.4512 Y-11.7271
G01 X-9.7271 Y-14.4512
G01 X-9.7271 Y-35.5488
G01 X-11.4512 Y-37.2729
G01 X-15.8488 Y-37.2729
G01 X-16.5029 Y-36.6188
G01 X-16.5029 Y-35.7929
G01 X-16.3908 Y-35.6743
G01 X-16.2803 Y-35.5076
G01 X-16.2352 Y-35.4121
G01 X-16.1996 Y-35.3126
G01 X-16.1597 Y-35.1166
G01 X-16.1532 Y-35.0000
G01 X-16.1597 Y-34.8834
G01 X-16.1966 Y-34.6982
G01 X-16.2352 Y-34.5879
G01 X-16.3287 Y-34.4112
G01 X-16.3976 Y-34.3169
G01 X-16.4766 Y-34.2309
G01 X-16.6318 Y-34.1047
G01 X-16.7323 Y-34.0453
G01 X-16.9174 Y-33.9696
G01 X-17.1134 Y-33.9297
G01 X-17.2411 Y-33.9235
G01 X-17.4291 Y-33.9420
G01 X-17.5426 Y-33.9696
G01 X-17.7277 Y-34.0453
G01 X-17.8282 Y-34.1047
G01 X-17.9834 Y-34.2309
G01 X-18.0624 Y-34.3169
G01 X-18.1742 Y-34.4827
G01 X-18.2288 Y-34.5983
G01 X-18.2837 Y-34.7791
G01 X-18.3016 Y-34.8945
G01 X-18.3024 Y-35.0944
G01 X-18.2837 Y-35.2209
G01 X-18.2288 Y-35.4017
G01 X-18.1742 Y-35.5173
G01 X-18.0624 Y-35.6831
G01 X-17.9571 Y-35.7929
G00 X-17.9571 Y-35.7929
G01 F90.00
G01 Z-0.0500
G01 F120.00
G01 X-18.0624 Y-35.6831
G01 X-18.1742 Y-35.5173
G01 X-18.2288 Y-35.4017
G01 X-18.2837 Y-35.2209
G01 X-18.3024 Y-35.0944
G01 X-18.3016 Y-34.8945
G01 X-18.2837 Y-34.7791
G01 X-18.2288 Y-34.5983
G01 X-18.1742 Y-34.4827
G01 X-18.0624 Y-34.3169
G01 X-17.9834 Y-34.2309
G01 X-17.8282 Y-34.1047
G01 X-17.7277 Y-34.0453
G01 X-17.5426 Y-33.9696
G01 X-17.4291 Y-33.9420
G01 X-17.2411 Y-33.9235
G01 X-17.1134 Y-33.9297
G01 X-16.9174 Y-33.9696
G01 X-16.7323 Y-34.0453
G01 X-16.6318 Y-34.1047
G01 X-16.4766 Y-34.2309
G01 X-16.3976 Y-34.3169
G01 X-16.3287 Y-34.4112
G01 X-16.2352 Y-34.5879
G01 X-16.1966 Y-34.6982
G01 X-16.1597 Y-34.8834
G01 X-16.1532 Y-35.0000
G01 X-16.1597 Y-35.1166
G01 X-16.1996 Y-35.3126
G01 X-16.2352 Y-35.4121
G01 X-16.2803 Y-35.5076
G01 X-16.3908 Y-35.6743
G01 X-16.5029 Y-35.7929
G01 X-16.5029 Y-36.6188
G01 X-15.8488 Y-37.2729
G01 X-11.4512 Y-37.2729
G01 X-9.7271 Y-35.5488
G01 X-9.7271 Y-14.4512
G01 X-12.4512 Y-11.7271
G01 X-15.8488 Y-11.7271
G01 X-16.4379 Y-12.3162
G01 X-16.4379 Y-12.9421
G01 X-16.3258 Y-13.0607
G01 X-16.2153 Y-13.2274
G01 X-16.1662 Y-13.3333
G01 X-16.1089 Y-13.5249
G01 X-16.0934 Y-13.6295
G01 X-16.0885 Y-13.7461
G01 X-16.1070 Y-13.9341
G01 X-16.1346 Y-14.0476
G01 X-16.1702 Y-14.1471
G01 X-16.2208 Y-14.2523
G01 X-16.3258 Y-14.4093
G01 X-16.3959 Y-14.4884
G01 X-16.4819 Y-14.5674
G01 X-16.5668 Y-14.6303
G01 X-16.6574 Y-14.6847
G01 X-16.7633 Y-14.7338
G01 X-16.8632 Y-14.7684
G01 X-17.0484 Y-14.8053
G01 X-17.1650 Y-14.8118
G01 X-17.2705 Y-14.8066
G01 X-17.3751 Y-14.7911
G01 X-17.4881 Y-14.7619
G01 X-17.6627 Y-14.6897
G01 X-17.7538 Y-14.6363
G01 X-17.8481 Y-14.5674
G01 X-17.9264 Y-14.4964
G01 X-17.9974 Y-14.4181
G01 X-18.0663 Y-14.3238
G01 X-18.1553 Y-14.1573
G01 X-18.1919 Y-14.0581
G01 X-18.2211 Y-13.9451
G01 X-18.2366 Y-13.8405
G01 X-18.2418 Y-13.7350
G01 X-18.2353 Y-13.6184
G01 X-18.1984 Y-13.4332
G01 X-18.1638 Y-13.3333
G01 X-18.1147 Y-13.2274
G01 X-18.0603 Y-13.1368
G01 X-17.9901 Y-13.0435
G01 X-17.8921 Y-12.9421
G01 X-17.8894 Y-11.9548
G01 X-17.8607 Y-11.8039
G01 X-17.8112 Y-11.6822
G01 X-17.7631 Y-11.6020
G01 X-17.6791 Y-11.5009
G01 X-16.6601 Y-10.4820
G01 X-16.6025 Y-10.4311
G01 X-16.5024 Y-10.3643
G01 X-16.3503 Y-10.3013
G01 X-16.2323 Y-10.2778
G01 X-16.1556 Y-10.2730
G01 X-12.1500 Y-10.2729
G01 X-11.9973 Y-10.2894
G01 X-11.8822 Y-10.3243
G01 X-11.8073 Y-10.3588
G01 X-11.7370 Y-10.4019
G01 X-11.6399 Y-10.4820
G01 X-8.4859 Y-13.6359
G01 X-8.4019 Y-13.7370
G01 X-8.3538 Y-13.8172
G01 X-8.3043 Y-13.9389
G01 X-8.2778 Y-14.0677
G01 X-8.2729 Y-35.8500
G01 X-8.2894 Y-36.0027
G01 X-8.3243 Y-36.1178
G01 X-8.3588 Y-36.1927
G01 X-8.4311 Y-36.3025
G01 X-8.4859 Y-36.3641
G01 X-10.6399 Y-38.5180
G01 X-10.7555 Y-38.6105
G01 X-10.8172 Y-38.6462
G01 X-10.9284 Y-38.6923
G01 X-11.0191 Y-38.7150
G01 X-11.1500 Y-38.7271
G01 X-16.1556 Y-38.7270
G01 X-16.2918 Y-38.7131
G01 X-16.4178 Y-38.6757
G01 X-16.5024 Y-38.6357
G01 X-16.6112 Y-38.5620
G01 X-17.7441 Y-37.4341
G01 X-17.8405 Y-37.3145
G01 X-17.8972 Y-37.2084
G01 X-17.9223 Y-37.1416
G01 X-17.9535 Y-36.9913
G01 X-17.9571 Y-35.7929
G00 X-17.9571 Y-35.7929
G01 F90.00
G01 Z-0.0750
G01 F120.00
G01 X-17.9535 Y-36.9913
G01 X-17.9223 Y-37.1416
G01 X-17.8972 Y-37.2084
G01 X-17.8405 Y-37.3145
G01 X-17.7441 Y-37.4341
G01 X-16.6112 Y-38.5620
G01 X-16.5024 Y-38.6357
G01 X-16.4178 Y-38.6757
G01 X-16.2918 Y-38.7131
G01 X-16.1556 Y-38.7270
G01 X-11.1500 Y-38.7271
G01 X-11.0191 Y-38.7150
G01 X-10.9284 Y-38.6923
G01 X-10.8172 Y-38.6462
G01 X-10.7555 Y-38.6105
G01 X-10.6399 Y-38.5180
G01 X-8.4859 Y-36.3641
G01 X-8.4311 Y-36.3025
G01 X-8.3588 Y-36.1927
G01 X-8.3243 Y-36.1178
G01 X-8.2894 Y-36.0027
G01 X-8.2729 Y-35.8500
G01 X-8.2778 Y-14.0677
G01 X-8.3043 Y-13.9389
G01 X-8.3538 Y-13.8172
G01 X-8.4019 Y-13.7370
G01 X-8.4859 Y-13.6359
G01 X-11.6399 Y-10.4820
G01 X-11.7370 Y-10.4019
G01 X-11.8073 Y-10.3588
G01 X-11.8822 Y-10.3243
G01 X-11.9973 Y-10.2894
G01 X-12.1500 Y-10.2729
G01 X-16.1556 Y-10.2730
G01 X-16.2323 Y-10.2778
G01 X-16.3503 Y-10.3013
G01 X-16.5024 Y-10.3643
G01 X-16.6025 Y-10.4311
G01 X-16.6601 Y-10.4820
G01 X-17.6791 Y-11.5009
G01 X-17.7631 Y-11.6020
G01 X-17.8112 Y-11.6822
G01 X-17.8607 Y-11.8039
G01 X-17.8894 Y-11.9548
G01 X-17.8921 Y-12.9421
G01 X-17.9901 Y-13.0435
