(Block-name: Header)
(Block-expand: 0)
(Block-enable: 1)
(G-CODE GENERATED BY FLATCAM vUnstable - www.flatcam.org - Version Date: 2021/2/7)

(Name: drill_1.0mm.drl_cnc)
(Type: G-code from Excellon)
(Units: MM)

(Created on Sunday, 13 February 2022 at 11:39)

(This preprocessor is the default preprocessor used by FlatCAM.)
(It is made to work with MACH3 compatible motion controllers.)


(TOOLS DIAMETER: )
(Tool: 1 -> Dia: 1.0007599999999999)

(FEEDRATE Z: )
(Tool: 1 -> Feedrate: 90.0)

(FEEDRATE RAPIDS: )
(Tool: 1 -> Feedrate Rapids: 1500)

(Z_CUT: )
(Tool: 1 -> Z_Cut: -2.0)

(Tools Offset: )
(Tool: 1 -> Offset Z: 0.0)

(Z_MOVE: )
(Tool: 1 -> Z_Move: 2.0)

(Z Start: None mm)
(Z End: 15.0 mm)
(X,Y End: None mm)
(Steps per circle: 16)
(Preprocessor Excellon: default)

(X range:  -66.2000 ...  -11.6484  mm)
(Y range:  -35.5016 ...  -13.2334  mm)

(Spindle Speed: 300 RPM)
G21
G90
G94

G01 F90.00
G00 Z2.0000
(Block-name: block)
(Block-expand: 0)
(Block-enable: 1)
M03 S300
G00 X-14.6253 Y-13.7338
G01 Z-2.0000
G01 Z0
G00 Z2.0000
(Block-name: block)
(Block-expand: 0)
(Block-enable: 1)
G00 X-17.1653 Y-13.7338
G01 Z-2.0000
G01 Z0
G00 Z2.0000
(Block-name: block)
(Block-expand: 0)
(Block-enable: 1)
G00 X-17.1653 Y-16.2738
G01 Z-2.0000
G01 Z0
G00 Z2.0000
(Block-name: block)
(Block-expand: 0)
(Block-enable: 1)
G00 X-14.6253 Y-16.2738
G01 Z-2.0000
G01 Z0
G00 Z2.0000
(Block-name: block)
(Block-expand: 0)
(Block-enable: 1)
G00 X-19.7053 Y-16.2738
G01 Z-2.0000
G01 Z0
G00 Z2.0000
(Block-name: block)
(Block-expand: 0)
(Block-enable: 1)
G00 X-19.7053 Y-13.7338
G01 Z-2.0000
G01 Z0
G00 Z2.0000
(Block-name: block)
(Block-expand: 0)
(Block-enable: 1)
G00 X-19.7688 Y-35.0012
G01 Z-2.0000
G01 Z0
G00 Z2.0000
(Block-name: block)
(Block-expand: 0)
(Block-enable: 1)
G00 X-17.2288 Y-35.0012
G01 Z-2.0000
G01 Z0
G00 Z2.0000
(Block-name: block)
(Block-expand: 0)
(Block-enable: 1)
G00 X-14.6888 Y-35.0012
G01 Z-2.0000
G01 Z0
G00 Z2.0000
(Block-name: block)
(Block-expand: 0)
(Block-enable: 1)
G00 X-12.1488 Y-35.0012
G01 Z-2.0000
G01 Z0
G00 Z2.0000
(Block-name: block)
(Block-expand: 0)
(Block-enable: 1)
G00 X-22.3088 Y-35.0012
G01 Z-2.0000
G01 Z0
G00 Z2.0000
(Block-name: block)
(Block-expand: 0)
(Block-enable: 1)
G00 X-24.8488 Y-35.0012
G01 Z-2.0000
G01 Z0
G00 Z2.0000
(Block-name: block)
(Block-expand: 0)
(Block-enable: 1)
G00 X-55.9994 Y-35.0012
G01 Z-2.0000
G01 Z0
G00 Z2.0000
(Block-name: block)
(Block-expand: 0)
(Block-enable: 1)
G00 X-55.9994 Y-32.4612
G01 Z-2.0000
G01 Z0
G00 Z2.0000
(Block-name: block)
(Block-expand: 0)
(Block-enable: 1)
G00 X-58.5394 Y-32.4612
G01 Z-2.0000
G01 Z0
G00 Z2.0000
(Block-name: block)
(Block-expand: 0)
(Block-enable: 1)
G00 X-58.5394 Y-35.0012
G01 Z-2.0000
G01 Z0
G00 Z2.0000
(Block-name: block)
(Block-expand: 0)
(Block-enable: 1)
G00 X-61.0794 Y-35.0012
G01 Z-2.0000
G01 Z0
G00 Z2.0000
(Block-name: block)
(Block-expand: 0)
(Block-enable: 1)
G00 X-61.0794 Y-32.4612
G01 Z-2.0000
G01 Z0
G00 Z2.0000
(Block-name: block)
(Block-expand: 0)
(Block-enable: 1)
G00 X-60.6196 Y-15.0012
G01 Z-2.0000
G01 Z0
G00 Z2.0000
(Block-name: block)
(Block-expand: 0)
(Block-enable: 1)
G00 X-58.0796 Y-15.0012
G01 Z-2.0000
G01 Z0
G00 Z2.0000
(Block-name: block)
(Block-expand: 0)
(Block-enable: 1)
G00 X-55.5396 Y-15.0012
G01 Z-2.0000
G01 Z0
G00 Z2.0000
(Block-name: block)
(Block-expand: 0)
(Block-enable: 1)
G00 X-52.9996 Y-15.0012
G01 Z-2.0000
G01 Z0
G00 Z2.0000
(Block-name: block)
(Block-expand: 0)
(Block-enable: 1)
G00 X-63.1596 Y-15.0012
G01 Z-2.0000
G01 Z0
G00 Z2.0000
(Block-name: block)
(Block-expand: 0)
(Block-enable: 1)
G00 X-65.6996 Y-15.0012
G01 Z-2.0000
G01 Z0
G00 Z2.0000
(Block-name: block)
(Block-expand: 1)
(Block-enable: 1)
M05
G00 Z15.00
G00 X0.00 Y0.00
G00 Z22.00
(Block-name: block)
(Block-expand: 0)
(Block-enable: 1)


