(Block-name: Header)
(Block-expand: 0)
(Block-enable: 1)
(G-CODE GENERATED BY FLATCAM vUnstable - www.flatcam.org - Version Date: 2021/2/7)

(Name: drill_3.2mm.drl_exc_cnc_cnc)
(Type: G-code from Geometry)
(Units: MM)

(Created on Sunday, 13 February 2022 at 11:41)

(This preprocessor is the default preprocessor used by FlatCAM.)
(It is made to work with MACH3 compatible motion controllers.)

(TOOL DIAMETER: 1.0 mm)
(Feedrate_XY: 120.0 mm/min)
(Feedrate_Z: 60.0 mm/min)
(Feedrate rapids 1500.0 mm/min)

(Z_Cut: -2.0 mm)
(DepthPerCut: 0.5 mm <=>4 passes)
(Z_Move: 2.0 mm)
(Z Start: None mm)
(Z End: 15.0 mm)
(X,Y End: None mm)
(Steps per circle: 16)
(Preprocessor Geometry: default)

(X range:  -76.6013 ...   -3.4011  mm)
(Y range:  -46.6014 ...   -3.4011  mm)

(Spindle Speed: 300.0 RPM)
G21
G90
G94

G01 F120.00
G00 Z2.0000
(Block-name: block)
(Block-expand: 0)
(Block-enable: 1)

M03 S300.0
G01 F120.00
G00 X-3.9017 Y-5.0013
G01 F60.00
G01 Z-0.5000
G01 F120.00
G01 X-3.9070 Y-5.1090
G01 X-3.9228 Y-5.2158
G01 X-3.9490 Y-5.3205
G01 X-3.9854 Y-5.4221
G01 X-4.0315 Y-5.5196
G01 X-4.0870 Y-5.6122
G01 X-4.1513 Y-5.6988
G01 X-4.2237 Y-5.7788
G01 X-4.3037 Y-5.8513
G01 X-4.3904 Y-5.9155
G01 X-4.4829 Y-5.9710
G01 X-4.5805 Y-6.0172
G01 X-4.6821 Y-6.0535
G01 X-4.7867 Y-6.0797
G01 X-4.8935 Y-6.0956
G01 X-5.0013 Y-6.1009
G01 X-5.1090 Y-6.0956
G01 X-5.2158 Y-6.0797
G01 X-5.3205 Y-6.0535
G01 X-5.4221 Y-6.0172
G01 X-5.5196 Y-5.9710
G01 X-5.6122 Y-5.9155
G01 X-5.6988 Y-5.8513
G01 X-5.7788 Y-5.7788
G01 X-5.8513 Y-5.6988
G01 X-5.9155 Y-5.6122
G01 X-5.9710 Y-5.5196
G01 X-6.0172 Y-5.4221
G01 X-6.0535 Y-5.3205
G01 X-6.0797 Y-5.2158
G01 X-6.0956 Y-5.1090
G01 X-6.1009 Y-5.0013
G01 X-6.0956 Y-4.8935
G01 X-6.0797 Y-4.7867
G01 X-6.0535 Y-4.6821
G01 X-6.0172 Y-4.5805
G01 X-5.9710 Y-4.4829
G01 X-5.9155 Y-4.3904
G01 X-5.8513 Y-4.3037
G01 X-5.7788 Y-4.2237
G01 X-5.6988 Y-4.1513
G01 X-5.6122 Y-4.0870
G01 X-5.5196 Y-4.0315
G01 X-5.4221 Y-3.9854
G01 X-5.3205 Y-3.9490
G01 X-5.2158 Y-3.9228
G01 X-5.1090 Y-3.9070
G01 X-5.0013 Y-3.9017
G01 X-4.8935 Y-3.9070
G01 X-4.7867 Y-3.9228
G01 X-4.6821 Y-3.9490
G01 X-4.5805 Y-3.9854
G01 X-4.4829 Y-4.0315
G01 X-4.3904 Y-4.0870
G01 X-4.3037 Y-4.1513
G01 X-4.2237 Y-4.2237
G01 X-4.1513 Y-4.3037
G01 X-4.0870 Y-4.3904
G01 X-4.0315 Y-4.4829
G01 X-3.9854 Y-4.5805
G01 X-3.9490 Y-4.6821
G01 X-3.9228 Y-4.7867
G01 X-3.9070 Y-4.8935
G01 X-3.9017 Y-5.0013
G00 X-3.9017 Y-5.0013
G01 F60.00
G01 Z-1.0000
G01 F120.00
G01 X-3.9070 Y-4.8935
G01 X-3.9228 Y-4.7867
G01 X-3.9490 Y-4.6821
G01 X-3.9854 Y-4.5805
G01 X-4.0315 Y-4.4829
G01 X-4.0870 Y-4.3904
G01 X-4.1513 Y-4.3037
G01 X-4.2237 Y-4.2237
G01 X-4.3037 Y-4.1513
G01 X-4.3904 Y-4.0870
G01 X-4.4829 Y-4.0315
G01 X-4.5805 Y-3.9854
G01 X-4.6821 Y-3.9490
G01 X-4.7867 Y-3.9228
G01 X-4.8935 Y-3.9070
G01 X-5.0013 Y-3.9017
G01 X-5.1090 Y-3.9070
G01 X-5.2158 Y-3.9228
G01 X-5.3205 Y-3.9490
G01 X-5.4221 Y-3.9854
G01 X-5.5196 Y-4.0315
G01 X-5.6122 Y-4.0870
G01 X-5.6988 Y-4.1513
G01 X-5.7788 Y-4.2237
G01 X-5.8513 Y-4.3037
G01 X-5.9155 Y-4.3904
G01 X-5.9710 Y-4.4829
G01 X-6.0172 Y-4.5805
G01 X-6.0535 Y-4.6821
G01 X-6.0797 Y-4.7867
G01 X-6.0956 Y-4.8935
G01 X-6.1009 Y-5.0013
G01 X-6.0956 Y-5.1090
G01 X-6.0797 Y-5.2158
G01 X-6.0535 Y-5.3205
G01 X-6.0172 Y-5.4221
G01 X-5.9710 Y-5.5196
G01 X-5.9155 Y-5.6122
G01 X-5.8513 Y-5.6988
G01 X-5.7788 Y-5.7788
G01 X-5.6988 Y-5.8513
G01 X-5.6122 Y-5.9155
G01 X-5.5196 Y-5.9710
G01 X-5.4221 Y-6.0172
G01 X-5.3205 Y-6.0535
G01 X-5.2158 Y-6.0797
G01 X-5.1090 Y-6.0956
G01 X-5.0013 Y-6.1009
G01 X-4.8935 Y-6.0956
G01 X-4.7867 Y-6.0797
G01 X-4.6821 Y-6.0535
G01 X-4.5805 Y-6.0172
G01 X-4.4829 Y-5.9710
G01 X-4.3904 Y-5.9155
G01 X-4.3037 Y-5.8513
G01 X-4.2237 Y-5.7788
G01 X-4.1513 Y-5.6988
G01 X-4.0870 Y-5.6122
G01 X-4.0315 Y-5.5196
G01 X-3.9854 Y-5.4221
G01 X-3.9490 Y-5.3205
G01 X-3.9228 Y-5.2158
G01 X-3.9070 Y-5.1090
G01 X-3.9017 Y-5.0013
G00 X-3.9017 Y-5.0013
G01 F60.00
G01 Z-1.5000
G01 F120.00
G01 X-3.9070 Y-5.1090
G01 X-3.9228 Y-5.2158
G01 X-3.9490 Y-5.3205
G01 X-3.9854 Y-5.4221
G01 X-4.0315 Y-5.5196
G01 X-4.0870 Y-5.6122
G01 X-4.1513 Y-5.6988
G01 X-4.2237 Y-5.7788
G01 X-4.3037 Y-5.8513
G01 X-4.3904 Y-5.9155
G01 X-4.4829 Y-5.9710
G01 X-4.5805 Y-6.0172
G01 X-4.6821 Y-6.0535
G01 X-4.7867 Y-6.0797
G01 X-4.8935 Y-6.0956
G01 X-5.0013 Y-6.1009
G01 X-5.1090 Y-6.0956
G01 X-5.2158 Y-6.0797
G01 X-5.3205 Y-6.0535
G01 X-5.4221 Y-6.0172
G01 X-5.5196 Y-5.9710
G01 X-5.6122 Y-5.9155
G01 X-5.6988 Y-5.8513
G01 X-5.7788 Y-5.7788
G01 X-5.8513 Y-5.6988
G01 X-5.9155 Y-5.6122
G01 X-5.9710 Y-5.5196
G01 X-6.0172 Y-5.4221
G01 X-6.0535 Y-5.3205
G01 X-6.0797 Y-5.2158
G01 X-6.0956 Y-5.1090
G01 X-6.1009 Y-5.0013
G01 X-6.0956 Y-4.8935
G01 X-6.0797 Y-4.7867
G01 X-6.0535 Y-4.6821
G01 X-6.0172 Y-4.5805
G01 X-5.9710 Y-4.4829
G01 X-5.9155 Y-4.3904
G01 X-5.8513 Y-4.3037
G01 X-5.7788 Y-4.2237
G01 X-5.6988 Y-4.1513
G01 X-5.6122 Y-4.0870
G01 X-5.5196 Y-4.0315
G01 X-5.4221 Y-3.9854
G01 X-5.3205 Y-3.9490
G01 X-5.2158 Y-3.9228
G01 X-5.1090 Y-3.9070
G01 X-5.0013 Y-3.9017
G01 X-4.8935 Y-3.9070
G01 X-4.7867 Y-3.9228
G01 X-4.6821 Y-3.9490
G01 X-4.5805 Y-3.9854
G01 X-4.4829 Y-4.0315
G01 X-4.3904 Y-4.0870
G01 X-4.3037 Y-4.1513
G01 X-4.2237 Y-4.2237
G01 X-4.1513 Y-4.3037
G01 X-4.0870 Y-4.3904
G01 X-4.0315 Y-4.4829
G01 X-3.9854 Y-4.5805
G01 X-3.9490 Y-4.6821
G01 X-3.9228 Y-4.7867
G01 X-3.9070 Y-4.8935
G01 X-3.9017 Y-5.0013
G00 X-3.9017 Y-5.0013
G01 F60.00
G01 Z-2.0000
G01 F120.00
G01 X-3.9070 Y-4.8935
G01 X-3.9228 Y-4.7867
G01 X-3.9490 Y-4.6821
G01 X-3.9854 Y-4.5805
G01 X-4.0315 Y-4.4829
G01 X-4.0870 Y-4.3904
G01 X-4.1513 Y-4.3037
G01 X-4.2237 Y-4.2237
G01 X-4.3037 Y-4.1513
G01 X-4.3904 Y-4.0870
G01 X-4.4829 Y-4.0315
G01 X-4.5805 Y-3.9854
G01 X-4.6821 Y-3.9490
G01 X-4.7867 Y-3.9228
G01 X-4.8935 Y-3.9070
G01 X-5.0013 Y-3.9017
G01 X-5.1090 Y-3.9070
G01 X-5.2158 Y-3.9228
G01 X-5.3205 Y-3.9490
G01 X-5.4221 Y-3.9854
G01 X-5.5196 Y-4.0315
G01 X-5.6122 Y-4.0870
G01 X-5.6988 Y-4.1513
G01 X-5.7788 Y-4.2237
G01 X-5.8513 Y-4.3037
G01 X-5.9155 Y-4.3904
G01 X-5.9710 Y-4.4829
G01 X-6.0172 Y-4.5805
G01 X-6.0535 Y-4.6821
G01 X-6.0797 Y-4.7867
G01 X-6.0956 Y-4.8935
G01 X-6.1009 Y-5.0013
G01 X-6.0956 Y-5.1090
G01 X-6.0797 Y-5.2158
G01 X-6.0535 Y-5.3205
G01 X-6.0172 Y-5.4221
G01 X-5.9710 Y-5.5196
G01 X-5.9155 Y-5.6122
G01 X-5.8513 Y-5.6988
G01 X-5.7788 Y-5.7788
G01 X-5.6988 Y-5.8513
G01 X-5.6122 Y-5.9155
G01 X-5.5196 Y-5.9710
G01 X-5.4221 Y-6.0172
G01 X-5.3205 Y-6.0535
G01 X-5.2158 Y-6.0797
G01 X-5.1090 Y-6.0956
G01 X-5.0013 Y-6.1009
G01 X-4.8935 Y-6.0956
G01 X-4.7867 Y-6.0797
G01 X-4.6821 Y-6.0535
G01 X-4.5805 Y-6.0172
G01 X-4.4829 Y-5.9710
G01 X-4.3904 Y-5.9155
G01 X-4.3037 Y-5.8513
G01 X-4.2237 Y-5.7788
G01 X-4.1513 Y-5.6988
G01 X-4.0870 Y-5.6122
G01 X-4.0315 Y-5.5196
G01 X-3.9854 Y-5.4221
G01 X-3.9490 Y-5.3205
G01 X-3.9228 Y-5.2158
G01 X-3.9070 Y-5.1090
G01 X-3.9017 Y-5.0013
G00 Z2.0000
(Block-name: block)
(Block-expand: 0)
(Block-enable: 1)
G00 X-4.5513 Y-5.0013
G01 F60.00
G01 Z-0.5000
G01 F120.00
G01 X-4.5599 Y-5.0891
G01 X-4.5855 Y-5.1735
G01 X-4.6271 Y-5.2513
G01 X-4.6831 Y-5.3195
G01 X-4.7513 Y-5.3754
G01 X-4.8291 Y-5.4170
G01 X-4.9135 Y-5.4426
G01 X-5.0013 Y-5.4513
G01 X-5.0891 Y-5.4426
G01 X-5.1735 Y-5.4170
G01 X-5.2513 Y-5.3754
G01 X-5.3195 Y-5.3195
G01 X-5.3754 Y-5.2513
G01 X-5.4170 Y-5.1735
G01 X-5.4426 Y-5.0891
G01 X-5.4513 Y-5.0013
G01 X-5.4426 Y-4.9135
G01 X-5.4170 Y-4.8291
G01 X-5.3754 Y-4.7513
G01 X-5.3195 Y-4.6831
G01 X-5.2513 Y-4.6271
G01 X-5.1735 Y-4.5855
G01 X-5.0891 Y-4.5599
G01 X-5.0013 Y-4.5513
G01 X-4.9135 Y-4.5599
G01 X-4.8291 Y-4.5855
G01 X-4.7513 Y-4.6271
G01 X-4.6831 Y-4.6831
G01 X-4.6271 Y-4.7513
G01 X-4.5855 Y-4.8291
G01 X-4.5599 Y-4.9135
G01 X-4.5513 Y-5.0013
G00 X-4.5513 Y-5.0013
G01 F60.00
G01 Z-1.0000
G01 F120.00
G01 X-4.5599 Y-4.9135
G01 X-4.5855 Y-4.8291
G01 X-4.6271 Y-4.7513
G01 X-4.6831 Y-4.6831
G01 X-4.7513 Y-4.6271
G01 X-4.8291 Y-4.5855
G01 X-4.9135 Y-4.5599
G01 X-5.0013 Y-4.5513
G01 X-5.0891 Y-4.5599
G01 X-5.1735 Y-4.5855
G01 X-5.2513 Y-4.6271
G01 X-5.3195 Y-4.6831
G01 X-5.3754 Y-4.7513
G01 X-5.4170 Y-4.8291
G01 X-5.4426 Y-4.9135
G01 X-5.4513 Y-5.0013
G01 X-5.4426 Y-5.0891
G01 X-5.4170 Y-5.1735
G01 X-5.3754 Y-5.2513
G01 X-5.3195 Y-5.3195
G01 X-5.2513 Y-5.3754
G01 X-5.1735 Y-5.4170
G01 X-5.0891 Y-5.4426
G01 X-5.0013 Y-5.4513
G01 X-4.9135 Y-5.4426
G01 X-4.8291 Y-5.4170
G01 X-4.7513 Y-5.3754
G01 X-4.6831 Y-5.3195
G01 X-4.6271 Y-5.2513
G01 X-4.5855 Y-5.1735
G01 X-4.5599 Y-5.0891
G01 X-4.5513 Y-5.0013
G00 X-4.5513 Y-5.0013
G01 F60.00
G01 Z-1.5000
G01 F120.00
G01 X-4.5599 Y-5.0891
G01 X-4.5855 Y-5.1735
G01 X-4.6271 Y-5.2513
G01 X-4.6831 Y-5.3195
G01 X-4.7513 Y-5.3754
G01 X-4.8291 Y-5.4170
G01 X-4.9135 Y-5.4426
G01 X-5.0013 Y-5.4513
G01 X-5.0891 Y-5.4426
G01 X-5.1735 Y-5.4170
G01 X-5.2513 Y-5.3754
G01 X-5.3195 Y-5.3195
G01 X-5.3754 Y-5.2513
G01 X-5.4170 Y-5.1735
G01 X-5.4426 Y-5.0891
G01 X-5.4513 Y-5.0013
G01 X-5.4426 Y-4.9135
G01 X-5.4170 Y-4.8291
G01 X-5.3754 Y-4.7513
G01 X-5.3195 Y-4.6831
G01 X-5.2513 Y-4.6271
G01 X-5.1735 Y-4.5855
G01 X-5.0891 Y-4.5599
G01 X-5.0013 Y-4.5513
G01 X-4.9135 Y-4.5599
G01 X-4.8291 Y-4.5855
G01 X-4.7513 Y-4.6271
G01 X-4.6831 Y-4.6831
G01 X-4.6271 Y-4.7513
G01 X-4.5855 Y-4.8291
G01 X-4.5599 Y-4.9135
G01 X-4.5513 Y-5.0013
G00 X-4.5513 Y-5.0013
G01 F60.00
G01 Z-2.0000
G01 F120.00
G01 X-4.5599 Y-4.9135
G01 X-4.5855 Y-4.8291
G01 X-4.6271 Y-4.7513
G01 X-4.6831 Y-4.6831
G01 X-4.7513 Y-4.6271
G01 X-4.8291 Y-4.5855
G01 X-4.9135 Y-4.5599
G01 X-5.0013 Y-4.5513
G01 X-5.0891 Y-4.5599
G01 X-5.1735 Y-4.5855
G01 X-5.2513 Y-4.6271
G01 X-5.3195 Y-4.6831
G01 X-5.3754 Y-4.7513
G01 X-5.4170 Y-4.8291
G01 X-5.4426 Y-4.9135
G01 X-5.4513 Y-5.0013
G01 X-5.4426 Y-5.0891
G01 X-5.4170 Y-5.1735
G01 X-5.3754 Y-5.2513
G01 X-5.3195 Y-5.3195
G01 X-5.2513 Y-5.3754
G01 X-5.1735 Y-5.4170
G01 X-5.0891 Y-5.4426
G01 X-5.0013 Y-5.4513
G01 X-4.9135 Y-5.4426
G01 X-4.8291 Y-5.4170
G01 X-4.7513 Y-5.3754
G01 X-4.6831 Y-5.3195
G01 X-4.6271 Y-5.2513
G01 X-4.5855 Y-5.1735
G01 X-4.5599 Y-5.0891
G01 X-4.5513 Y-5.0013
G00 Z2.0000
(Block-name: block)
(Block-expand: 0)
(Block-enable: 1)
G00 X-4.5513 Y-45.0012
G01 F60.00
G01 Z-0.5000
G01 F120.00
G01 X-4.5599 Y-45.0890
G01 X-4.5855 Y-45.1734
G01 X-4.6271 Y-45.2512
G01 X-4.6831 Y-45.3194
G01 X-4.7513 Y-45.3753
G01 X-4.8291 Y-45.4169
G01 X-4.9135 Y-45.4425
G01 X-5.0013 Y-45.4512
G01 X-5.0891 Y-45.4425
G01 X-5.1735 Y-45.4169
G01 X-5.2513 Y-45.3753
G01 X-5.3195 Y-45.3194
G01 X-5.3754 Y-45.2512
G01 X-5.4170 Y-45.1734
G01 X-5.4426 Y-45.0890
G01 X-5.4513 Y-45.0012
G01 X-5.4426 Y-44.9134
G01 X-5.4170 Y-44.8290
G01 X-5.3754 Y-44.7512
G01 X-5.3195 Y-44.6830
G01 X-5.2513 Y-44.6270
G01 X-5.1735 Y-44.5854
G01 X-5.0891 Y-44.5598
G01 X-5.0013 Y-44.5512
G01 X-4.9135 Y-44.5598
G01 X-4.8291 Y-44.5854
G01 X-4.7513 Y-44.6270
G01 X-4.6831 Y-44.6830
G01 X-4.6271 Y-44.7512
G01 X-4.5855 Y-44.8290
G01 X-4.5599 Y-44.9134
G01 X-4.5513 Y-45.0012
G00 X-4.5513 Y-45.0012
G01 F60.00
G01 Z-1.0000
G01 F120.00
G01 X-4.5599 Y-44.9134
G01 X-4.5855 Y-44.8290
G01 X-4.6271 Y-44.7512
G01 X-4.6831 Y-44.6830
G01 X-4.7513 Y-44.6270
G01 X-4.8291 Y-44.5854
G01 X-4.9135 Y-44.5598
G01 X-5.0013 Y-44.5512
G01 X-5.0891 Y-44.5598
G01 X-5.1735 Y-44.5854
G01 X-5.2513 Y-44.6270
G01 X-5.3195 Y-44.6830
G01 X-5.3754 Y-44.7512
G01 X-5.4170 Y-44.8290
G01 X-5.4426 Y-44.9134
G01 X-5.4513 Y-45.0012
G01 X-5.4426 Y-45.0890
G01 X-5.4170 Y-45.1734
G01 X-5.3754 Y-45.2512
G01 X-5.3195 Y-45.3194
G01 X-5.2513 Y-45.3753
G01 X-5.1735 Y-45.4169
G01 X-5.0891 Y-45.4425
G01 X-5.0013 Y-45.4512
G01 X-4.9135 Y-45.4425
G01 X-4.8291 Y-45.4169
G01 X-4.7513 Y-45.3753
G01 X-4.6831 Y-45.3194
G01 X-4.6271 Y-45.2512
G01 X-4.5855 Y-45.1734
G01 X-4.5599 Y-45.0890
G01 X-4.5513 Y-45.0012
G00 X-4.5513 Y-45.0012
G01 F60.00
G01 Z-1.5000
G01 F120.00
G01 X-4.5599 Y-45.0890
G01 X-4.5855 Y-45.1734
G01 X-4.6271 Y-45.2512
G01 X-4.6831 Y-45.3194
G01 X-4.7513 Y-45.3753
G01 X-4.8291 Y-45.4169
G01 X-4.9135 Y-45.4425
G01 X-5.0013 Y-45.4512
G01 X-5.0891 Y-45.4425
G01 X-5.1735 Y-45.4169
G01 X-5.2513 Y-45.3753
G01 X-5.3195 Y-45.3194
G01 X-5.3754 Y-45.2512
G01 X-5.4170 Y-45.1734
G01 X-5.4426 Y-45.0890
G01 X-5.4513 Y-45.0012
G01 X-5.4426 Y-44.9134
G01 X-5.4170 Y-44.8290
G01 X-5.3754 Y-44.7512
G01 X-5.3195 Y-44.6830
G01 X-5.2513 Y-44.6270
G01 X-5.1735 Y-44.5854
G01 X-5.0891 Y-44.5598
G01 X-5.0013 Y-44.5512
G01 X-4.9135 Y-44.5598
G01 X-4.8291 Y-44.5854
G01 X-4.7513 Y-44.6270
G01 X-4.6831 Y-44.6830
G01 X-4.6271 Y-44.7512
G01 X-4.5855 Y-44.8290
G01 X-4.5599 Y-44.9134
G01 X-4.5513 Y-45.0012
G00 X-4.5513 Y-45.0012
G01 F60.00
G01 Z-2.0000
G01 F120.00
G01 X-4.5599 Y-44.9134
G01 X-4.5855 Y-44.8290
G01 X-4.6271 Y-44.7512
G01 X-4.6831 Y-44.6830
G01 X-4.7513 Y-44.6270
G01 X-4.8291 Y-44.5854
G01 X-4.9135 Y-44.5598
G01 X-5.0013 Y-44.5512
G01 X-5.0891 Y-44.5598
G01 X-5.1735 Y-44.5854
G01 X-5.2513 Y-44.6270
G01 X-5.3195 Y-44.6830
G01 X-5.3754 Y-44.7512
G01 X-5.4170 Y-44.8290
G01 X-5.4426 Y-44.9134
G01 X-5.4513 Y-45.0012
G01 X-5.4426 Y-45.0890
G01 X-5.4170 Y-45.1734
G01 X-5.3754 Y-45.2512
G01 X-5.3195 Y-45.3194
G01 X-5.2513 Y-45.3753
G01 X-5.1735 Y-45.4169
G01 X-5.0891 Y-45.4425
G01 X-5.0013 Y-45.4512
G01 X-4.9135 Y-45.4425
G01 X-4.8291 Y-45.4169
G01 X-4.7513 Y-45.3753
G01 X-4.6831 Y-45.3194
G01 X-4.6271 Y-45.2512
G01 X-4.5855 Y-45.1734
G01 X-4.5599 Y-45.0890
G01 X-4.5513 Y-45.0012
G00 Z2.0000
(Block-name: block)
(Block-expand: 0)
(Block-enable: 1)
G00 X-3.9017 Y-45.0012
G01 F60.00
G01 Z-0.5000
G01 F120.00
G01 X-3.9070 Y-45.1090
G01 X-3.9228 Y-45.2157
G01 X-3.9490 Y-45.3204
G01 X-3.9854 Y-45.4220
G01 X-4.0315 Y-45.5195
G01 X-4.0870 Y-45.6121
G01 X-4.1513 Y-45.6988
G01 X-4.2237 Y-45.7787
G01 X-4.3037 Y-45.8512
G01 X-4.3904 Y-45.9155
G01 X-4.4829 Y-45.9709
G01 X-4.5805 Y-46.0171
G01 X-4.6821 Y-46.0534
G01 X-4.7867 Y-46.0796
G01 X-4.8935 Y-46.0955
G01 X-5.0013 Y-46.1008
G01 X-5.1090 Y-46.0955
G01 X-5.2158 Y-46.0796
G01 X-5.3205 Y-46.0534
G01 X-5.4221 Y-46.0171
G01 X-5.5196 Y-45.9709
G01 X-5.6122 Y-45.9155
G01 X-5.6988 Y-45.8512
G01 X-5.7788 Y-45.7787
G01 X-5.8513 Y-45.6988
G01 X-5.9155 Y-45.6121
G01 X-5.9710 Y-45.5195
G01 X-6.0172 Y-45.4220
G01 X-6.0535 Y-45.3204
G01 X-6.0797 Y-45.2157
G01 X-6.0956 Y-45.1090
G01 X-6.1009 Y-45.0012
G01 X-6.0956 Y-44.8934
G01 X-6.0797 Y-44.7867
G01 X-6.0535 Y-44.6820
G01 X-6.0172 Y-44.5804
G01 X-5.9710 Y-44.4828
G01 X-5.9155 Y-44.3903
G01 X-5.8513 Y-44.3036
G01 X-5.7788 Y-44.2236
G01 X-5.6988 Y-44.1512
G01 X-5.6122 Y-44.0869
G01 X-5.5196 Y-44.0314
G01 X-5.4221 Y-43.9853
G01 X-5.3205 Y-43.9489
G01 X-5.2158 Y-43.9227
G01 X-5.1090 Y-43.9069
G01 X-5.0013 Y-43.9016
G01 X-4.8935 Y-43.9069
G01 X-4.7867 Y-43.9227
G01 X-4.6821 Y-43.9489
G01 X-4.5805 Y-43.9853
G01 X-4.4829 Y-44.0314
G01 X-4.3904 Y-44.0869
G01 X-4.3037 Y-44.1512
G01 X-4.2237 Y-44.2236
G01 X-4.1513 Y-44.3036
G01 X-4.0870 Y-44.3903
G01 X-4.0315 Y-44.4828
G01 X-3.9854 Y-44.5804
G01 X-3.9490 Y-44.6820
G01 X-3.9228 Y-44.7867
G01 X-3.9070 Y-44.8934
G01 X-3.9017 Y-45.0012
G00 X-3.9017 Y-45.0012
G01 F60.00
G01 Z-1.0000
G01 F120.00
G01 X-3.9070 Y-44.8934
G01 X-3.9228 Y-44.7867
G01 X-3.9490 Y-44.6820
G01 X-3.9854 Y-44.5804
G01 X-4.0315 Y-44.4828
G01 X-4.0870 Y-44.3903
G01 X-4.1513 Y-44.3036
G01 X-4.2237 Y-44.2236
G01 X-4.3037 Y-44.1512
G01 X-4.3904 Y-44.0869
G01 X-4.4829 Y-44.0314
G01 X-4.5805 Y-43.9853
G01 X-4.6821 Y-43.9489
G01 X-4.7867 Y-43.9227
G01 X-4.8935 Y-43.9069
G01 X-5.0013 Y-43.9016
G01 X-5.1090 Y-43.9069
G01 X-5.2158 Y-43.9227
G01 X-5.3205 Y-43.9489
G01 X-5.4221 Y-43.9853
G01 X-5.5196 Y-44.0314
G01 X-5.6122 Y-44.0869
G01 X-5.6988 Y-44.1512
G01 X-5.7788 Y-44.2236
G01 X-5.8513 Y-44.3036
G01 X-5.9155 Y-44.3903
G01 X-5.9710 Y-44.4828
G01 X-6.0172 Y-44.5804
G01 X-6.0535 Y-44.6820
G01 X-6.0797 Y-44.7867
G01 X-6.0956 Y-44.8934
G01 X-6.1009 Y-45.0012
G01 X-6.0956 Y-45.1090
G01 X-6.0797 Y-45.2157
G01 X-6.0535 Y-45.3204
G01 X-6.0172 Y-45.4220
G01 X-5.9710 Y-45.5195
G01 X-5.9155 Y-45.6121
G01 X-5.8513 Y-45.6988
G01 X-5.7788 Y-45.7787
G01 X-5.6988 Y-45.8512
G01 X-5.6122 Y-45.9155
G01 X-5.5196 Y-45.9709
G01 X-5.4221 Y-46.0171
G01 X-5.3205 Y-46.0534
G01 X-5.2158 Y-46.0796
G01 X-5.1090 Y-46.0955
G01 X-5.0013 Y-46.1008
G01 X-4.8935 Y-46.0955
G01 X-4.7867 Y-46.0796
G01 X-4.6821 Y-46.0534
G01 X-4.5805 Y-46.0171
G01 X-4.4829 Y-45.9709
G01 X-4.3904 Y-45.9155
G01 X-4.3037 Y-45.8512
G01 X-4.2237 Y-45.7787
G01 X-4.1513 Y-45.6988
G01 X-4.0870 Y-45.6121
G01 X-4.0315 Y-45.5195
G01 X-3.9854 Y-45.4220
G01 X-3.9490 Y-45.3204
G01 X-3.9228 Y-45.2157
G01 X-3.9070 Y-45.1090
G01 X-3.9017 Y-45.0012
G00 X-3.9017 Y-45.0012
G01 F60.00
G01 Z-1.5000
G01 F120.00
G01 X-3.9070 Y-45.1090
G01 X-3.9228 Y-45.2157
G01 X-3.9490 Y-45.3204
G01 X-3.9854 Y-45.4220
G01 X-4.0315 Y-45.5195
G01 X-4.0870 Y-45.6121
G01 X-4.1513 Y-45.6988
G01 X-4.2237 Y-45.7787
G01 X-4.3037 Y-45.8512
G01 X-4.3904 Y-45.9155
G01 X-4.4829 Y-45.9709
G01 X-4.5805 Y-46.0171
G01 X-4.6821 Y-46.0534
G01 X-4.7867 Y-46.0796
G01 X-4.8935 Y-46.0955
G01 X-5.0013 Y-46.1008
G01 X-5.1090 Y-46.0955
G01 X-5.2158 Y-46.0796
G01 X-5.3205 Y-46.0534
G01 X-5.4221 Y-46.0171
G01 X-5.5196 Y-45.9709
G01 X-5.6122 Y-45.9155
G01 X-5.6988 Y-45.8512
G01 X-5.7788 Y-45.7787
G01 X-5.8513 Y-45.6988
G01 X-5.9155 Y-45.6121
G01 X-5.9710 Y-45.5195
G01 X-6.0172 Y-45.4220
G01 X-6.0535 Y-45.3204
G01 X-6.0797 Y-45.2157
G01 X-6.0956 Y-45.1090
G01 X-6.1009 Y-45.0012
G01 X-6.0956 Y-44.8934
G01 X-6.0797 Y-44.7867
G01 X-6.0535 Y-44.6820
G01 X-6.0172 Y-44.5804
G01 X-5.9710 Y-44.4828
G01 X-5.9155 Y-44.3903
G01 X-5.8513 Y-44.3036
G01 X-5.7788 Y-44.2236
G01 X-5.6988 Y-44.1512
G01 X-5.6122 Y-44.0869
G01 X-5.5196 Y-44.0314
G01 X-5.4221 Y-43.9853
G01 X-5.3205 Y-43.9489
G01 X-5.2158 Y-43.9227
G01 X-5.1090 Y-43.9069
G01 X-5.0013 Y-43.9016
G01 X-4.8935 Y-43.9069
G01 X-4.7867 Y-43.9227
G01 X-4.6821 Y-43.9489
G01 X-4.5805 Y-43.9853
G01 X-4.4829 Y-44.0314
G01 X-4.3904 Y-44.0869
G01 X-4.3037 Y-44.1512
G01 X-4.2237 Y-44.2236
G01 X-4.1513 Y-44.3036
G01 X-4.0870 Y-44.3903
G01 X-4.0315 Y-44.4828
G01 X-3.9854 Y-44.5804
G01 X-3.9490 Y-44.6820
G01 X-3.9228 Y-44.7867
G01 X-3.9070 Y-44.8934
G01 X-3.9017 Y-45.0012
G00 X-3.9017 Y-45.0012
G01 F60.00
G01 Z-2.0000
G01 F120.00
G01 X-3.9070 Y-44.8934
G01 X-3.9228 Y-44.7867
G01 X-3.9490 Y-44.6820
G01 X-3.9854 Y-44.5804
G01 X-4.0315 Y-44.4828
G01 X-4.0870 Y-44.3903
G01 X-4.1513 Y-44.3036
G01 X-4.2237 Y-44.2236
G01 X-4.3037 Y-44.1512
G01 X-4.3904 Y-44.0869
G01 X-4.4829 Y-44.0314
G01 X-4.5805 Y-43.9853
G01 X-4.6821 Y-43.9489
G01 X-4.7867 Y-43.9227
G01 X-4.8935 Y-43.9069
G01 X-5.0013 Y-43.9016
G01 X-5.1090 Y-43.9069
G01 X-5.2158 Y-43.9227
G01 X-5.3205 Y-43.9489
G01 X-5.4221 Y-43.9853
G01 X-5.5196 Y-44.0314
G01 X-5.6122 Y-44.0869
G01 X-5.6988 Y-44.1512
G01 X-5.7788 Y-44.2236
G01 X-5.8513 Y-44.3036
G01 X-5.9155 Y-44.3903
G01 X-5.9710 Y-44.4828
G01 X-6.0172 Y-44.5804
G01 X-6.0535 Y-44.6820
G01 X-6.0797 Y-44.7867
G01 X-6.0956 Y-44.8934
G01 X-6.1009 Y-45.0012
G01 X-6.0956 Y-45.1090
G01 X-6.0797 Y-45.2157
G01 X-6.0535 Y-45.3204
G01 X-6.0172 Y-45.4220
G01 X-5.9710 Y-45.5195
G01 X-5.9155 Y-45.6121
G01 X-5.8513 Y-45.6988
G01 X-5.7788 Y-45.7787
G01 X-5.6988 Y-45.8512
G01 X-5.6122 Y-45.9155
G01 X-5.5196 Y-45.9709
G01 X-5.4221 Y-46.0171
G01 X-5.3205 Y-46.0534
G01 X-5.2158 Y-46.0796
G01 X-5.1090 Y-46.0955
G01 X-5.0013 Y-46.1008
G01 X-4.8935 Y-46.0955
G01 X-4.7867 Y-46.0796
G01 X-4.6821 Y-46.0534
G01 X-4.5805 Y-46.0171
G01 X-4.4829 Y-45.9709
G01 X-4.3904 Y-45.9155
G01 X-4.3037 Y-45.8512
G01 X-4.2237 Y-45.7787
G01 X-4.1513 Y-45.6988
G01 X-4.0870 Y-45.6121
G01 X-4.0315 Y-45.5195
G01 X-3.9854 Y-45.4220
G01 X-3.9490 Y-45.3204
G01 X-3.9228 Y-45.2157
G01 X-3.9070 Y-45.1090
G01 X-3.9017 Y-45.0012
G00 Z2.0000
(Block-name: block)
(Block-expand: 0)
(Block-enable: 1)
G00 X-73.9015 Y-45.0012
G01 F60.00
G01 Z-0.5000
G01 F120.00
G01 X-73.9068 Y-45.1090
G01 X-73.9227 Y-45.2157
G01 X-73.9489 Y-45.3204
G01 X-73.9852 Y-45.4220
G01 X-74.0314 Y-45.5195
G01 X-74.0868 Y-45.6121
G01 X-74.1511 Y-45.6988
G01 X-74.2236 Y-45.7787
G01 X-74.3035 Y-45.8512
G01 X-74.3902 Y-45.9155
G01 X-74.4828 Y-45.9709
G01 X-74.5803 Y-46.0171
G01 X-74.6819 Y-46.0534
G01 X-74.7866 Y-46.0796
G01 X-74.8933 Y-46.0955
G01 X-75.0011 Y-46.1008
G01 X-75.1089 Y-46.0955
G01 X-75.2156 Y-46.0796
G01 X-75.3203 Y-46.0534
G01 X-75.4219 Y-46.0171
G01 X-75.5195 Y-45.9709
G01 X-75.6120 Y-45.9155
G01 X-75.6987 Y-45.8512
G01 X-75.7787 Y-45.7787
G01 X-75.8511 Y-45.6988
G01 X-75.9154 Y-45.6121
G01 X-75.9709 Y-45.5195
G01 X-76.0170 Y-45.4220
G01 X-76.0534 Y-45.3204
G01 X-76.0796 Y-45.2157
G01 X-76.0954 Y-45.1090
G01 X-76.1007 Y-45.0012
G01 X-76.0954 Y-44.8934
G01 X-76.0796 Y-44.7867
G01 X-76.0534 Y-44.6820
G01 X-76.0170 Y-44.5804
G01 X-75.9709 Y-44.4828
G01 X-75.9154 Y-44.3903
G01 X-75.8511 Y-44.3036
G01 X-75.7787 Y-44.2236
G01 X-75.6987 Y-44.1512
G01 X-75.6120 Y-44.0869
G01 X-75.5195 Y-44.0314
G01 X-75.4219 Y-43.9853
G01 X-75.3203 Y-43.9489
G01 X-75.2156 Y-43.9227
G01 X-75.1089 Y-43.9069
G01 X-75.0011 Y-43.9016
G01 X-74.8933 Y-43.9069
G01 X-74.7866 Y-43.9227
G01 X-74.6819 Y-43.9489
G01 X-74.5803 Y-43.9853
G01 X-74.4828 Y-44.0314
G01 X-74.3902 Y-44.0869
G01 X-74.3035 Y-44.1512
G01 X-74.2236 Y-44.2236
G01 X-74.1511 Y-44.3036
G01 X-74.0868 Y-44.3903
G01 X-74.0314 Y-44.4828
G01 X-73.9852 Y-44.5804
G01 X-73.9489 Y-44.6820
G01 X-73.9227 Y-44.7867
G01 X-73.9068 Y-44.8934
G01 X-73.9015 Y-45.0012
G00 X-73.9015 Y-45.0012
G01 F60.00
G01 Z-1.0000
G01 F120.00
G01 X-73.9068 Y-44.8934
G01 X-73.9227 Y-44.7867
G01 X-73.9489 Y-44.6820
G01 X-73.9852 Y-44.5804
G01 X-74.0314 Y-44.4828
G01 X-74.0868 Y-44.3903
G01 X-74.1511 Y-44.3036
G01 X-74.2236 Y-44.2236
G01 X-74.3035 Y-44.1512
G01 X-74.3902 Y-44.0869
G01 X-74.4828 Y-44.0314
G01 X-74.5803 Y-43.9853
G01 X-74.6819 Y-43.9489
G01 X-74.7866 Y-43.9227
G01 X-74.8933 Y-43.9069
G01 X-75.0011 Y-43.9016
G01 X-75.1089 Y-43.9069
G01 X-75.2156 Y-43.9227
G01 X-75.3203 Y-43.9489
G01 X-75.4219 Y-43.9853
G01 X-75.5195 Y-44.0314
G01 X-75.6120 Y-44.0869
G01 X-75.6987 Y-44.1512
G01 X-75.7787 Y-44.2236
G01 X-75.8511 Y-44.3036
G01 X-75.9154 Y-44.3903
G01 X-75.9709 Y-44.4828
G01 X-76.0170 Y-44.5804
G01 X-76.0534 Y-44.6820
G01 X-76.0796 Y-44.7867
G01 X-76.0954 Y-44.8934
G01 X-76.1007 Y-45.0012
G01 X-76.0954 Y-45.1090
G01 X-76.0796 Y-45.2157
G01 X-76.0534 Y-45.3204
G01 X-76.0170 Y-45.4220
G01 X-75.9709 Y-45.5195
G01 X-75.9154 Y-45.6121
G01 X-75.8511 Y-45.6988
G01 X-75.7787 Y-45.7787
G01 X-75.6987 Y-45.8512
G01 X-75.6120 Y-45.9155
G01 X-75.5195 Y-45.9709
G01 X-75.4219 Y-46.0171
G01 X-75.3203 Y-46.0534
G01 X-75.2156 Y-46.0796
G01 X-75.1089 Y-46.0955
G01 X-75.0011 Y-46.1008
G01 X-74.8933 Y-46.0955
G01 X-74.7866 Y-46.0796
G01 X-74.6819 Y-46.0534
G01 X-74.5803 Y-46.0171
G01 X-74.4828 Y-45.9709
G01 X-74.3902 Y-45.9155
G01 X-74.3035 Y-45.8512
G01 X-74.2236 Y-45.7787
G01 X-74.1511 Y-45.6988
G01 X-74.0868 Y-45.6121
G01 X-74.0314 Y-45.5195
G01 X-73.9852 Y-45.4220
G01 X-73.9489 Y-45.3204
G01 X-73.9227 Y-45.2157
G01 X-73.9068 Y-45.1090
G01 X-73.9015 Y-45.0012
G00 X-73.9015 Y-45.0012
G01 F60.00
G01 Z-1.5000
G01 F120.00
G01 X-73.9068 Y-45.1090
G01 X-73.9227 Y-45.2157
G01 X-73.9489 Y-45.3204
G01 X-73.9852 Y-45.4220
G01 X-74.0314 Y-45.5195
G01 X-74.0868 Y-45.6121
G01 X-74.1511 Y-45.6988
G01 X-74.2236 Y-45.7787
G01 X-74.3035 Y-45.8512
G01 X-74.3902 Y-45.9155
G01 X-74.4828 Y-45.9709
G01 X-74.5803 Y-46.0171
G01 X-74.6819 Y-46.0534
G01 X-74.7866 Y-46.0796
G01 X-74.8933 Y-46.0955
G01 X-75.0011 Y-46.1008
G01 X-75.1089 Y-46.0955
G01 X-75.2156 Y-46.0796
G01 X-75.3203 Y-46.0534
G01 X-75.4219 Y-46.0171
G01 X-75.5195 Y-45.9709
G01 X-75.6120 Y-45.9155
G01 X-75.6987 Y-45.8512
G01 X-75.7787 Y-45.7787
G01 X-75.8511 Y-45.6988
G01 X-75.9154 Y-45.6121
G01 X-75.9709 Y-45.5195
G01 X-76.0170 Y-45.4220
G01 X-76.0534 Y-45.3204
G01 X-76.0796 Y-45.2157
G01 X-76.0954 Y-45.1090
G01 X-76.1007 Y-45.0012
G01 X-76.0954 Y-44.8934
G01 X-76.0796 Y-44.7867
G01 X-76.0534 Y-44.6820
G01 X-76.0170 Y-44.5804
G01 X-75.9709 Y-44.4828
G01 X-75.9154 Y-44.3903
G01 X-75.8511 Y-44.3036
G01 X-75.7787 Y-44.2236
G01 X-75.6987 Y-44.1512
G01 X-75.6120 Y-44.0869
G01 X-75.5195 Y-44.0314
G01 X-75.4219 Y-43.9853
G01 X-75.3203 Y-43.9489
G01 X-75.2156 Y-43.9227
G01 X-75.1089 Y-43.9069
G01 X-75.0011 Y-43.9016
G01 X-74.8933 Y-43.9069
G01 X-74.7866 Y-43.9227
G01 X-74.6819 Y-43.9489
G01 X-74.5803 Y-43.9853
G01 X-74.4828 Y-44.0314
G01 X-74.3902 Y-44.0869
G01 X-74.3035 Y-44.1512
G01 X-74.2236 Y-44.2236
G01 X-74.1511 Y-44.3036
G01 X-74.0868 Y-44.3903
G01 X-74.0314 Y-44.4828
G01 X-73.9852 Y-44.5804
G01 X-73.9489 Y-44.6820
G01 X-73.9227 Y-44.7867
G01 X-73.9068 Y-44.8934
G01 X-73.9015 Y-45.0012
G00 X-73.9015 Y-45.0012
G01 F60.00
G01 Z-2.0000
G01 F120.00
G01 X-73.9068 Y-44.8934
G01 X-73.9227 Y-44.7867
G01 X-73.9489 Y-44.6820
G01 X-73.9852 Y-44.5804
G01 X-74.0314 Y-44.4828
G01 X-74.0868 Y-44.3903
G01 X-74.1511 Y-44.3036
G01 X-74.2236 Y-44.2236
G01 X-74.3035 Y-44.1512
G01 X-74.3902 Y-44.0869
G01 X-74.4828 Y-44.0314
G01 X-74.5803 Y-43.9853
G01 X-74.6819 Y-43.9489
G01 X-74.7866 Y-43.9227
G01 X-74.8933 Y-43.9069
G01 X-75.0011 Y-43.9016
G01 X-75.1089 Y-43.9069
G01 X-75.2156 Y-43.9227
G01 X-75.3203 Y-43.9489
G01 X-75.4219 Y-43.9853
G01 X-75.5195 Y-44.0314
G01 X-75.6120 Y-44.0869
G01 X-75.6987 Y-44.1512
G01 X-75.7787 Y-44.2236
G01 X-75.8511 Y-44.3036
G01 X-75.9154 Y-44.3903
G01 X-75.9709 Y-44.4828
G01 X-76.0170 Y-44.5804
G01 X-76.0534 Y-44.6820
G01 X-76.0796 Y-44.7867
G01 X-76.0954 Y-44.8934
G01 X-76.1007 Y-45.0012
G01 X-76.0954 Y-45.1090
G01 X-76.0796 Y-45.2157
G01 X-76.0534 Y-45.3204
G01 X-76.0170 Y-45.4220
G01 X-75.9709 Y-45.5195
G01 X-75.9154 Y-45.6121
G01 X-75.8511 Y-45.6988
G01 X-75.7787 Y-45.7787
G01 X-75.6987 Y-45.8512
G01 X-75.6120 Y-45.9155
G01 X-75.5195 Y-45.9709
G01 X-75.4219 Y-46.0171
G01 X-75.3203 Y-46.0534
G01 X-75.2156 Y-46.0796
G01 X-75.1089 Y-46.0955
G01 X-75.0011 Y-46.1008
G01 X-74.8933 Y-46.0955
G01 X-74.7866 Y-46.0796
G01 X-74.6819 Y-46.0534
G01 X-74.5803 Y-46.0171
G01 X-74.4828 Y-45.9709
G01 X-74.3902 Y-45.9155
G01 X-74.3035 Y-45.8512
G01 X-74.2236 Y-45.7787
G01 X-74.1511 Y-45.6988
G01 X-74.0868 Y-45.6121
G01 X-74.0314 Y-45.5195
G01 X-73.9852 Y-45.4220
G01 X-73.9489 Y-45.3204
G01 X-73.9227 Y-45.2157
G01 X-73.9068 Y-45.1090
G01 X-73.9015 Y-45.0012
G00 Z2.0000
(Block-name: block)
(Block-expand: 0)
(Block-enable: 1)
G00 X-74.5511 Y-45.0012
G01 F60.00
G01 Z-0.5000
G01 F120.00
G01 X-74.5598 Y-45.0890
G01 X-74.5854 Y-45.1734
G01 X-74.6270 Y-45.2512
G01 X-74.6829 Y-45.3194
G01 X-74.7511 Y-45.3753
G01 X-74.8289 Y-45.4169
G01 X-74.9133 Y-45.4425
G01 X-75.0011 Y-45.4512
G01 X-75.0889 Y-45.4425
G01 X-75.1733 Y-45.4169
G01 X-75.2511 Y-45.3753
G01 X-75.3193 Y-45.3194
G01 X-75.3753 Y-45.2512
G01 X-75.4169 Y-45.1734
G01 X-75.4425 Y-45.0890
G01 X-75.4511 Y-45.0012
G01 X-75.4425 Y-44.9134
G01 X-75.4169 Y-44.8290
G01 X-75.3753 Y-44.7512
G01 X-75.3193 Y-44.6830
G01 X-75.2511 Y-44.6270
G01 X-75.1733 Y-44.5854
G01 X-75.0889 Y-44.5598
G01 X-75.0011 Y-44.5512
G01 X-74.9133 Y-44.5598
G01 X-74.8289 Y-44.5854
G01 X-74.7511 Y-44.6270
G01 X-74.6829 Y-44.6830
G01 X-74.6270 Y-44.7512
G01 X-74.5854 Y-44.8290
G01 X-74.5598 Y-44.9134
G01 X-74.5511 Y-45.0012
G00 X-74.5511 Y-45.0012
G01 F60.00
G01 Z-1.0000
G01 F120.00
G01 X-74.5598 Y-44.9134
G01 X-74.5854 Y-44.8290
G01 X-74.6270 Y-44.7512
G01 X-74.6829 Y-44.6830
G01 X-74.7511 Y-44.6270
G01 X-74.8289 Y-44.5854
G01 X-74.9133 Y-44.5598
G01 X-75.0011 Y-44.5512
G01 X-75.0889 Y-44.5598
G01 X-75.1733 Y-44.5854
G01 X-75.2511 Y-44.6270
G01 X-75.3193 Y-44.6830
G01 X-75.3753 Y-44.7512
G01 X-75.4169 Y-44.8290
G01 X-75.4425 Y-44.9134
G01 X-75.4511 Y-45.0012
G01 X-75.4425 Y-45.0890
G01 X-75.4169 Y-45.1734
G01 X-75.3753 Y-45.2512
G01 X-75.3193 Y-45.3194
G01 X-75.2511 Y-45.3753
G01 X-75.1733 Y-45.4169
G01 X-75.0889 Y-45.4425
G01 X-75.0011 Y-45.4512
G01 X-74.9133 Y-45.4425
G01 X-74.8289 Y-45.4169
G01 X-74.7511 Y-45.3753
G01 X-74.6829 Y-45.3194
G01 X-74.6270 Y-45.2512
G01 X-74.5854 Y-45.1734
G01 X-74.5598 Y-45.0890
G01 X-74.5511 Y-45.0012
G00 X-74.5511 Y-45.0012
G01 F60.00
G01 Z-1.5000
G01 F120.00
G01 X-74.5598 Y-45.0890
G01 X-74.5854 Y-45.1734
G01 X-74.6270 Y-45.2512
G01 X-74.6829 Y-45.3194
G01 X-74.7511 Y-45.3753
G01 X-74.8289 Y-45.4169
G01 X-74.9133 Y-45.4425
G01 X-75.0011 Y-45.4512
G01 X-75.0889 Y-45.4425
G01 X-75.1733 Y-45.4169
G01 X-75.2511 Y-45.3753
G01 X-75.3193 Y-45.3194
G01 X-75.3753 Y-45.2512
G01 X-75.4169 Y-45.1734
G01 X-75.4425 Y-45.0890
G01 X-75.4511 Y-45.0012
G01 X-75.4425 Y-44.9134
G01 X-75.4169 Y-44.8290
G01 X-75.3753 Y-44.7512
G01 X-75.3193 Y-44.6830
G01 X-75.2511 Y-44.6270
G01 X-75.1733 Y-44.5854
G01 X-75.0889 Y-44.5598
G01 X-75.0011 Y-44.5512
G01 X-74.9133 Y-44.5598
G01 X-74.8289 Y-44.5854
G01 X-74.7511 Y-44.6270
G01 X-74.6829 Y-44.6830
G01 X-74.6270 Y-44.7512
G01 X-74.5854 Y-44.8290
G01 X-74.5598 Y-44.9134
G01 X-74.5511 Y-45.0012
G00 X-74.5511 Y-45.0012
G01 F60.00
G01 Z-2.0000
G01 F120.00
G01 X-74.5598 Y-44.9134
G01 X-74.5854 Y-44.8290
G01 X-74.6270 Y-44.7512
G01 X-74.6829 Y-44.6830
G01 X-74.7511 Y-44.6270
G01 X-74.8289 Y-44.5854
G01 X-74.9133 Y-44.5598
G01 X-75.0011 Y-44.5512
G01 X-75.0889 Y-44.5598
G01 X-75.1733 Y-44.5854
G01 X-75.2511 Y-44.6270
G01 X-75.3193 Y-44.6830
G01 X-75.3753 Y-44.7512
G01 X-75.4169 Y-44.8290
G01 X-75.4425 Y-44.9134
G01 X-75.4511 Y-45.0012
G01 X-75.4425 Y-45.0890
G01 X-75.4169 Y-45.1734
G01 X-75.3753 Y-45.2512
G01 X-75.3193 Y-45.3194
G01 X-75.2511 Y-45.3753
G01 X-75.1733 Y-45.4169
G01 X-75.0889 Y-45.4425
G01 X-75.0011 Y-45.4512
G01 X-74.9133 Y-45.4425
G01 X-74.8289 Y-45.4169
G01 X-74.7511 Y-45.3753
G01 X-74.6829 Y-45.3194
G01 X-74.6270 Y-45.2512
G01 X-74.5854 Y-45.1734
G01 X-74.5598 Y-45.0890
G01 X-74.5511 Y-45.0012
G00 Z2.0000
(Block-name: block)
(Block-expand: 0)
(Block-enable: 1)
G00 X-74.5511 Y-5.0013
G01 F60.00
G01 Z-0.5000
G01 F120.00
G01 X-74.5598 Y-5.0891
G01 X-74.5854 Y-5.1735
G01 X-74.6270 Y-5.2513
G01 X-74.6829 Y-5.3195
G01 X-74.7511 Y-5.3754
G01 X-74.8289 Y-5.4170
G01 X-74.9133 Y-5.4426
G01 X-75.0011 Y-5.4513
G01 X-75.0889 Y-5.4426
G01 X-75.1733 Y-5.4170
G01 X-75.2511 Y-5.3754
G01 X-75.3193 Y-5.3195
G01 X-75.3753 Y-5.2513
G01 X-75.4169 Y-5.1735
G01 X-75.4425 Y-5.0891
G01 X-75.4511 Y-5.0013
G01 X-75.4425 Y-4.9135
G01 X-75.4169 Y-4.8291
G01 X-75.3753 Y-4.7513
G01 X-75.3193 Y-4.6831
G01 X-75.2511 Y-4.6271
G01 X-75.1733 Y-4.5855
G01 X-75.0889 Y-4.5599
G01 X-75.0011 Y-4.5513
G01 X-74.9133 Y-4.5599
G01 X-74.8289 Y-4.5855
G01 X-74.7511 Y-4.6271
G01 X-74.6829 Y-4.6831
G01 X-74.6270 Y-4.7513
G01 X-74.5854 Y-4.8291
G01 X-74.5598 Y-4.9135
G01 X-74.5511 Y-5.0013
G00 X-74.5511 Y-5.0013
G01 F60.00
G01 Z-1.0000
G01 F120.00
G01 X-74.5598 Y-4.9135
G01 X-74.5854 Y-4.8291
G01 X-74.6270 Y-4.7513
G01 X-74.6829 Y-4.6831
G01 X-74.7511 Y-4.6271
G01 X-74.8289 Y-4.5855
G01 X-74.9133 Y-4.5599
G01 X-75.0011 Y-4.5513
G01 X-75.0889 Y-4.5599
G01 X-75.1733 Y-4.5855
G01 X-75.2511 Y-4.6271
G01 X-75.3193 Y-4.6831
G01 X-75.3753 Y-4.7513
G01 X-75.4169 Y-4.8291
G01 X-75.4425 Y-4.9135
G01 X-75.4511 Y-5.0013
G01 X-75.4425 Y-5.0891
G01 X-75.4169 Y-5.1735
G01 X-75.3753 Y-5.2513
G01 X-75.3193 Y-5.3195
G01 X-75.2511 Y-5.3754
G01 X-75.1733 Y-5.4170
G01 X-75.0889 Y-5.4426
G01 X-75.0011 Y-5.4513
G01 X-74.9133 Y-5.4426
G01 X-74.8289 Y-5.4170
G01 X-74.7511 Y-5.3754
G01 X-74.6829 Y-5.3195
G01 X-74.6270 Y-5.2513
G01 X-74.5854 Y-5.1735
G01 X-74.5598 Y-5.0891
G01 X-74.5511 Y-5.0013
G00 X-74.5511 Y-5.0013
G01 F60.00
G01 Z-1.5000
G01 F120.00
G01 X-74.5598 Y-5.0891
G01 X-74.5854 Y-5.1735
G01 X-74.6270 Y-5.2513
G01 X-74.6829 Y-5.3195
G01 X-74.7511 Y-5.3754
G01 X-74.8289 Y-5.4170
G01 X-74.9133 Y-5.4426
G01 X-75.0011 Y-5.4513
G01 X-75.0889 Y-5.4426
G01 X-75.1733 Y-5.4170
G01 X-75.2511 Y-5.3754
G01 X-75.3193 Y-5.3195
G01 X-75.3753 Y-5.2513
G01 X-75.4169 Y-5.1735
G01 X-75.4425 Y-5.0891
G01 X-75.4511 Y-5.0013
G01 X-75.4425 Y-4.9135
G01 X-75.4169 Y-4.8291
G01 X-75.3753 Y-4.7513
G01 X-75.3193 Y-4.6831
G01 X-75.2511 Y-4.6271
G01 X-75.1733 Y-4.5855
G01 X-75.0889 Y-4.5599
G01 X-75.0011 Y-4.5513
G01 X-74.9133 Y-4.5599
G01 X-74.8289 Y-4.5855
G01 X-74.7511 Y-4.6271
G01 X-74.6829 Y-4.6831
G01 X-74.6270 Y-4.7513
G01 X-74.5854 Y-4.8291
G01 X-74.5598 Y-4.9135
G01 X-74.5511 Y-5.0013
G00 X-74.5511 Y-5.0013
G01 F60.00
G01 Z-2.0000
G01 F120.00
G01 X-74.5598 Y-4.9135
G01 X-74.5854 Y-4.8291
G01 X-74.6270 Y-4.7513
G01 X-74.6829 Y-4.6831
G01 X-74.7511 Y-4.6271
G01 X-74.8289 Y-4.5855
G01 X-74.9133 Y-4.5599
G01 X-75.0011 Y-4.5513
G01 X-75.0889 Y-4.5599
G01 X-75.1733 Y-4.5855
G01 X-75.2511 Y-4.6271
G01 X-75.3193 Y-4.6831
G01 X-75.3753 Y-4.7513
G01 X-75.4169 Y-4.8291
G01 X-75.4425 Y-4.9135
G01 X-75.4511 Y-5.0013
G01 X-75.4425 Y-5.0891
G01 X-75.4169 Y-5.1735
G01 X-75.3753 Y-5.2513
G01 X-75.3193 Y-5.3195
G01 X-75.2511 Y-5.3754
G01 X-75.1733 Y-5.4170
G01 X-75.0889 Y-5.4426
G01 X-75.0011 Y-5.4513
G01 X-74.9133 Y-5.4426
G01 X-74.8289 Y-5.4170
G01 X-74.7511 Y-5.3754
G01 X-74.6829 Y-5.3195
G01 X-74.6270 Y-5.2513
G01 X-74.5854 Y-5.1735
G01 X-74.5598 Y-5.0891
G01 X-74.5511 Y-5.0013
G00 Z2.0000
(Block-name: block)
(Block-expand: 0)
(Block-enable: 1)
G00 X-73.9015 Y-5.0013
G01 F60.00
G01 Z-0.5000
G01 F120.00
G01 X-73.9068 Y-5.1090
G01 X-73.9227 Y-5.2158
G01 X-73.9489 Y-5.3205
G01 X-73.9852 Y-5.4221
G01 X-74.0314 Y-5.5196
G01 X-74.0868 Y-5.6122
G01 X-74.1511 Y-5.6988
G01 X-74.2236 Y-5.7788
G01 X-74.3035 Y-5.8513
G01 X-74.3902 Y-5.9155
G01 X-74.4828 Y-5.9710
G01 X-74.5803 Y-6.0172
G01 X-74.6819 Y-6.0535
G01 X-74.7866 Y-6.0797
G01 X-74.8933 Y-6.0956
G01 X-75.0011 Y-6.1009
G01 X-75.1089 Y-6.0956
G01 X-75.2156 Y-6.0797
G01 X-75.3203 Y-6.0535
G01 X-75.4219 Y-6.0172
G01 X-75.5195 Y-5.9710
G01 X-75.6120 Y-5.9155
G01 X-75.6987 Y-5.8513
G01 X-75.7787 Y-5.7788
G01 X-75.8511 Y-5.6988
G01 X-75.9154 Y-5.6122
G01 X-75.9709 Y-5.5196
G01 X-76.0170 Y-5.4221
G01 X-76.0534 Y-5.3205
G01 X-76.0796 Y-5.2158
G01 X-76.0954 Y-5.1090
G01 X-76.1007 Y-5.0013
G01 X-76.0954 Y-4.8935
G01 X-76.0796 Y-4.7867
G01 X-76.0534 Y-4.6821
G01 X-76.0170 Y-4.5805
G01 X-75.9709 Y-4.4829
G01 X-75.9154 Y-4.3904
G01 X-75.8511 Y-4.3037
G01 X-75.7787 Y-4.2237
G01 X-75.6987 Y-4.1513
G01 X-75.6120 Y-4.0870
G01 X-75.5195 Y-4.0315
G01 X-75.4219 Y-3.9854
G01 X-75.3203 Y-3.9490
G01 X-75.2156 Y-3.9228
G01 X-75.1089 Y-3.9070
G01 X-75.0011 Y-3.9017
G01 X-74.8933 Y-3.9070
G01 X-74.7866 Y-3.9228
G01 X-74.6819 Y-3.9490
G01 X-74.5803 Y-3.9854
G01 X-74.4828 Y-4.0315
G01 X-74.3902 Y-4.0870
G01 X-74.3035 Y-4.1513
G01 X-74.2236 Y-4.2237
G01 X-74.1511 Y-4.3037
G01 X-74.0868 Y-4.3904
G01 X-74.0314 Y-4.4829
G01 X-73.9852 Y-4.5805
G01 X-73.9489 Y-4.6821
G01 X-73.9227 Y-4.7867
G01 X-73.9068 Y-4.8935
G01 X-73.9015 Y-5.0013
G00 X-73.9015 Y-5.0013
G01 F60.00
G01 Z-1.0000
G01 F120.00
G01 X-73.9068 Y-4.8935
G01 X-73.9227 Y-4.7867
G01 X-73.9489 Y-4.6821
G01 X-73.9852 Y-4.5805
G01 X-74.0314 Y-4.4829
G01 X-74.0868 Y-4.3904
G01 X-74.1511 Y-4.3037
G01 X-74.2236 Y-4.2237
G01 X-74.3035 Y-4.1513
G01 X-74.3902 Y-4.0870
G01 X-74.4828 Y-4.0315
G01 X-74.5803 Y-3.9854
G01 X-74.6819 Y-3.9490
G01 X-74.7866 Y-3.9228
G01 X-74.8933 Y-3.9070
G01 X-75.0011 Y-3.9017
G01 X-75.1089 Y-3.9070
G01 X-75.2156 Y-3.9228
G01 X-75.3203 Y-3.9490
G01 X-75.4219 Y-3.9854
G01 X-75.5195 Y-4.0315
G01 X-75.6120 Y-4.0870
G01 X-75.6987 Y-4.1513
G01 X-75.7787 Y-4.2237
G01 X-75.8511 Y-4.3037
G01 X-75.9154 Y-4.3904
G01 X-75.9709 Y-4.4829
G01 X-76.0170 Y-4.5805
G01 X-76.0534 Y-4.6821
G01 X-76.0796 Y-4.7867
G01 X-76.0954 Y-4.8935
G01 X-76.1007 Y-5.0013
G01 X-76.0954 Y-5.1090
G01 X-76.0796 Y-5.2158
G01 X-76.0534 Y-5.3205
G01 X-76.0170 Y-5.4221
G01 X-75.9709 Y-5.5196
G01 X-75.9154 Y-5.6122
G01 X-75.8511 Y-5.6988
G01 X-75.7787 Y-5.7788
G01 X-75.6987 Y-5.8513
G01 X-75.6120 Y-5.9155
G01 X-75.5195 Y-5.9710
G01 X-75.4219 Y-6.0172
G01 X-75.3203 Y-6.0535
G01 X-75.2156 Y-6.0797
G01 X-75.1089 Y-6.0956
G01 X-75.0011 Y-6.1009
G01 X-74.8933 Y-6.0956
G01 X-74.7866 Y-6.0797
G01 X-74.6819 Y-6.0535
G01 X-74.5803 Y-6.0172
G01 X-74.4828 Y-5.9710
G01 X-74.3902 Y-5.9155
G01 X-74.3035 Y-5.8513
G01 X-74.2236 Y-5.7788
G01 X-74.1511 Y-5.6988
G01 X-74.0868 Y-5.6122
G01 X-74.0314 Y-5.5196
G01 X-73.9852 Y-5.4221
G01 X-73.9489 Y-5.3205
G01 X-73.9227 Y-5.2158
G01 X-73.9068 Y-5.1090
G01 X-73.9015 Y-5.0013
G00 X-73.9015 Y-5.0013
G01 F60.00
G01 Z-1.5000
G01 F120.00
G01 X-73.9068 Y-5.1090
G01 X-73.9227 Y-5.2158
G01 X-73.9489 Y-5.3205
G01 X-73.9852 Y-5.4221
G01 X-74.0314 Y-5.5196
G01 X-74.0868 Y-5.6122
G01 X-74.1511 Y-5.6988
G01 X-74.2236 Y-5.7788
G01 X-74.3035 Y-5.8513
G01 X-74.3902 Y-5.9155
G01 X-74.4828 Y-5.9710
G01 X-74.5803 Y-6.0172
G01 X-74.6819 Y-6.0535
G01 X-74.7866 Y-6.0797
G01 X-74.8933 Y-6.0956
G01 X-75.0011 Y-6.1009
G01 X-75.1089 Y-6.0956
G01 X-75.2156 Y-6.0797
G01 X-75.3203 Y-6.0535
G01 X-75.4219 Y-6.0172
G01 X-75.5195 Y-5.9710
G01 X-75.6120 Y-5.9155
G01 X-75.6987 Y-5.8513
G01 X-75.7787 Y-5.7788
G01 X-75.8511 Y-5.6988
G01 X-75.9154 Y-5.6122
G01 X-75.9709 Y-5.5196
G01 X-76.0170 Y-5.4221
G01 X-76.0534 Y-5.3205
G01 X-76.0796 Y-5.2158
G01 X-76.0954 Y-5.1090
G01 X-76.1007 Y-5.0013
G01 X-76.0954 Y-4.8935
G01 X-76.0796 Y-4.7867
G01 X-76.0534 Y-4.6821
G01 X-76.0170 Y-4.5805
G01 X-75.9709 Y-4.4829
G01 X-75.9154 Y-4.3904
G01 X-75.8511 Y-4.3037
G01 X-75.7787 Y-4.2237
G01 X-75.6987 Y-4.1513
G01 X-75.6120 Y-4.0870
G01 X-75.5195 Y-4.0315
G01 X-75.4219 Y-3.9854
G01 X-75.3203 Y-3.9490
G01 X-75.2156 Y-3.9228
G01 X-75.1089 Y-3.9070
G01 X-75.0011 Y-3.9017
G01 X-74.8933 Y-3.9070
G01 X-74.7866 Y-3.9228
G01 X-74.6819 Y-3.9490
G01 X-74.5803 Y-3.9854
G01 X-74.4828 Y-4.0315
G01 X-74.3902 Y-4.0870
G01 X-74.3035 Y-4.1513
G01 X-74.2236 Y-4.2237
G01 X-74.1511 Y-4.3037
G01 X-74.0868 Y-4.3904
G01 X-74.0314 Y-4.4829
G01 X-73.9852 Y-4.5805
G01 X-73.9489 Y-4.6821
G01 X-73.9227 Y-4.7867
G01 X-73.9068 Y-4.8935
G01 X-73.9015 Y-5.0013
G00 X-73.9015 Y-5.0013
G01 F60.00
G01 Z-2.0000
G01 F120.00
G01 X-73.9068 Y-4.8935
G01 X-73.9227 Y-4.7867
G01 X-73.9489 Y-4.6821
G01 X-73.9852 Y-4.5805
G01 X-74.0314 Y-4.4829
G01 X-74.0868 Y-4.3904
G01 X-74.1511 Y-4.3037
G01 X-74.2236 Y-4.2237
G01 X-74.3035 Y-4.1513
G01 X-74.3902 Y-4.0870
G01 X-74.4828 Y-4.0315
G01 X-74.5803 Y-3.9854
G01 X-74.6819 Y-3.9490
G01 X-74.7866 Y-3.9228
G01 X-74.8933 Y-3.9070
G01 X-75.0011 Y-3.9017
G01 X-75.1089 Y-3.9070
G01 X-75.2156 Y-3.9228
G01 X-75.3203 Y-3.9490
G01 X-75.4219 Y-3.9854
G01 X-75.5195 Y-4.0315
G01 X-75.6120 Y-4.0870
G01 X-75.6987 Y-4.1513
G01 X-75.7787 Y-4.2237
G01 X-75.8511 Y-4.3037
G01 X-75.9154 Y-4.3904
G01 X-75.9709 Y-4.4829
G01 X-76.0170 Y-4.5805
G01 X-76.0534 Y-4.6821
G01 X-76.0796 Y-4.7867
G01 X-76.0954 Y-4.8935
G01 X-76.1007 Y-5.0013
G01 X-76.0954 Y-5.1090
G01 X-76.0796 Y-5.2158
G01 X-76.0534 Y-5.3205
G01 X-76.0170 Y-5.4221
G01 X-75.9709 Y-5.5196
G01 X-75.9154 Y-5.6122
G01 X-75.8511 Y-5.6988
G01 X-75.7787 Y-5.7788
G01 X-75.6987 Y-5.8513
G01 X-75.6120 Y-5.9155
G01 X-75.5195 Y-5.9710
G01 X-75.4219 Y-6.0172
G01 X-75.3203 Y-6.0535
G01 X-75.2156 Y-6.0797
G01 X-75.1089 Y-6.0956
G01 X-75.0011 Y-6.1009
G01 X-74.8933 Y-6.0956
G01 X-74.7866 Y-6.0797
G01 X-74.6819 Y-6.0535
G01 X-74.5803 Y-6.0172
G01 X-74.4828 Y-5.9710
G01 X-74.3902 Y-5.9155
G01 X-74.3035 Y-5.8513
G01 X-74.2236 Y-5.7788
G01 X-74.1511 Y-5.6988
G01 X-74.0868 Y-5.6122
G01 X-74.0314 Y-5.5196
G01 X-73.9852 Y-5.4221
G01 X-73.9489 Y-5.3205
G01 X-73.9227 Y-5.2158
G01 X-73.9068 Y-5.1090
G01 X-73.9015 Y-5.0013
G00 Z2.0000
(Block-name: block)
(Block-expand: 1)
(Block-enable: 1)
M05
G00 Z2.0000
G00 Z15.00
G00 X0.00 Y0.00
(Block-name: block)
(Block-expand: 0)
(Block-enable: 1)


