(G-CODE GENERATED BY FLATCAM vUnstable - www.flatcam.org - Version Date: 2021/2/7)

(Name: tag-connect_breakout-Edge_Cuts_cutout_cnc)
(Type: G-code from Geometry)
(Units: MM)

(Created on Sunday, 13 February 2022 at 11:44)

(This preprocessor is the default preprocessor used by FlatCAM.)
(It is made to work with MACH3 compatible motion controllers.)

(TOOL DIAMETER: 1.0 mm)
(Feedrate_XY: 120.0 mm/min)
(Feedrate_Z: 60.0 mm/min)
(Feedrate rapids 1500.0 mm/min)

(Z_Cut: -2.0 mm)
(DepthPerCut: 0.5 mm <=>4 passes)
(Z_Move: 2.0 mm)
(Z Start: None mm)
(Z End: 22.0 mm)
(X,Y End: 0.0000, 0.0000 mm)
(Steps per circle: 16)
(Preprocessor Geometry: default)

(X range:  -79.6500 ...   -0.3500  mm)
(Y range:  -49.6500 ...   -0.3500  mm)

(Spindle Speed: 300.0 RPM)
G21
G90
G94

G01 F120.00
G00 Z2.0000

M03 S300.0
G01 F120.00
G00 X-0.3507 Y-45.0294
G01 F60.00
G01 Z-0.5000
G01 F120.00
G01 X-0.3625 Y-45.1268
G01 X-0.6669 Y-46.6575
G01 X-0.7039 Y-46.7795
G01 X-0.7640 Y-46.8919
G01 X-1.6311 Y-48.1896
G01 X-1.7119 Y-48.2881
G01 X-1.8104 Y-48.3689
G01 X-3.1081 Y-49.2360
G01 X-3.2205 Y-49.2961
G01 X-3.3425 Y-49.3331
G01 X-4.8732 Y-49.6375
G01 X-4.9657 Y-49.6491
G01 X-75.0000 Y-49.6500
G01 X-75.1268 Y-49.6375
G01 X-76.6575 Y-49.3331
G01 X-76.7474 Y-49.3083
G01 X-76.8371 Y-49.2688
G01 X-78.1896 Y-48.3689
G01 X-78.2881 Y-48.2881
G01 X-78.3689 Y-48.1896
G01 X-79.2360 Y-46.8919
G01 X-79.2961 Y-46.7795
G01 X-79.3300 Y-46.6720
G01 X-79.6375 Y-45.1268
G01 X-79.6491 Y-45.0343
G01 X-79.6500 Y-5.0000
G01 X-79.6375 Y-4.8732
G01 X-79.3331 Y-3.3425
G01 X-79.3083 Y-3.2526
G01 X-79.2688 Y-3.1629
G01 X-78.3689 Y-1.8104
G01 X-78.2881 Y-1.7119
G01 X-78.1896 Y-1.6311
G01 X-76.8919 Y-0.7640
G01 X-76.7795 Y-0.7039
G01 X-76.6720 Y-0.6700
G01 X-75.1268 Y-0.3625
G01 X-75.0147 Y-0.3502
G01 X-5.0000 Y-0.3500
G01 X-4.8732 Y-0.3625
G01 X-3.3425 Y-0.6669
G01 X-3.2526 Y-0.6917
G01 X-3.1628 Y-0.7312
G01 X-1.8104 Y-1.6311
G01 X-1.7119 Y-1.7119
G01 X-1.6311 Y-1.8104
G01 X-0.7640 Y-3.1081
G01 X-0.7039 Y-3.2205
G01 X-0.6700 Y-3.3280
G01 X-0.3625 Y-4.8732
G01 X-0.3509 Y-4.9657
G01 X-0.3507 Y-45.0294
G00 X-0.3507 Y-45.0294
G01 F60.00
G01 Z-1.0000
G01 F120.00
G01 X-0.3509 Y-4.9657
G01 X-0.3625 Y-4.8732
G01 X-0.6700 Y-3.3280
G01 X-0.7039 Y-3.2205
G01 X-0.7640 Y-3.1081
G01 X-1.6311 Y-1.8104
G01 X-1.7119 Y-1.7119
G01 X-1.8104 Y-1.6311
G01 X-3.1628 Y-0.7312
G01 X-3.2526 Y-0.6917
G01 X-3.3425 Y-0.6669
G01 X-4.8732 Y-0.3625
G01 X-5.0000 Y-0.3500
G01 X-75.0147 Y-0.3502
G01 X-75.1268 Y-0.3625
G01 X-76.6720 Y-0.6700
G01 X-76.7795 Y-0.7039
G01 X-76.8919 Y-0.7640
G01 X-78.1896 Y-1.6311
G01 X-78.2881 Y-1.7119
G01 X-78.3689 Y-1.8104
G01 X-79.2688 Y-3.1629
G01 X-79.3083 Y-3.2526
G01 X-79.3331 Y-3.3425
G01 X-79.6375 Y-4.8732
G01 X-79.6500 Y-5.0000
G01 X-79.6491 Y-45.0343
G01 X-79.6375 Y-45.1268
G01 X-79.3300 Y-46.6720
G01 X-79.2961 Y-46.7795
G01 X-79.2360 Y-46.8919
G01 X-78.3689 Y-48.1896
G01 X-78.2881 Y-48.2881
G01 X-78.1896 Y-48.3689
G01 X-76.8371 Y-49.2688
G01 X-76.7474 Y-49.3083
G01 X-76.6575 Y-49.3331
G01 X-75.1268 Y-49.6375
G01 X-75.0000 Y-49.6500
G01 X-4.9657 Y-49.6491
G01 X-4.8732 Y-49.6375
G01 X-3.3425 Y-49.3331
G01 X-3.2205 Y-49.2961
G01 X-3.1081 Y-49.2360
G01 X-1.8104 Y-48.3689
G01 X-1.7119 Y-48.2881
G01 X-1.6311 Y-48.1896
G01 X-0.7640 Y-46.8919
G01 X-0.7039 Y-46.7795
G01 X-0.6669 Y-46.6575
G01 X-0.3625 Y-45.1268
G01 X-0.3507 Y-45.0294
G00 X-0.3507 Y-45.0294
G01 F60.00
G01 Z-1.5000
G01 F120.00
G01 X-0.3625 Y-45.1268
G01 X-0.6669 Y-46.6575
G01 X-0.7039 Y-46.7795
G01 X-0.7640 Y-46.8919
G01 X-1.6311 Y-48.1896
G01 X-1.7119 Y-48.2881
G01 X-1.8104 Y-48.3689
G01 X-3.1081 Y-49.2360
G01 X-3.2205 Y-49.2961
G01 X-3.3425 Y-49.3331
G01 X-4.8732 Y-49.6375
G01 X-4.9657 Y-49.6491
G01 X-75.0000 Y-49.6500
G01 X-75.1268 Y-49.6375
G01 X-76.6575 Y-49.3331
G01 X-76.7474 Y-49.3083
G01 X-76.8371 Y-49.2688
G01 X-78.1896 Y-48.3689
G01 X-78.2881 Y-48.2881
G01 X-78.3689 Y-48.1896
G01 X-79.2360 Y-46.8919
G01 X-79.2961 Y-46.7795
G01 X-79.3300 Y-46.6720
G01 X-79.6375 Y-45.1268
G01 X-79.6491 Y-45.0343
G01 X-79.6500 Y-5.0000
G01 X-79.6375 Y-4.8732
G01 X-79.3331 Y-3.3425
G01 X-79.3083 Y-3.2526
G01 X-79.2688 Y-3.1629
G01 X-78.3689 Y-1.8104
G01 X-78.2881 Y-1.7119
G01 X-78.1896 Y-1.6311
G01 X-76.8919 Y-0.7640
G01 X-76.7795 Y-0.7039
G01 X-76.6720 Y-0.6700
G01 X-75.1268 Y-0.3625
G01 X-75.0147 Y-0.3502
G01 X-5.0000 Y-0.3500
G01 X-4.8732 Y-0.3625
G01 X-3.3425 Y-0.6669
G01 X-3.2526 Y-0.6917
G01 X-3.1628 Y-0.7312
G01 X-1.8104 Y-1.6311
G01 X-1.7119 Y-1.7119
G01 X-1.6311 Y-1.8104
G01 X-0.7640 Y-3.1081
G01 X-0.7039 Y-3.2205
G01 X-0.6700 Y-3.3280
G01 X-0.3625 Y-4.8732
G01 X-0.3509 Y-4.9657
G01 X-0.3507 Y-45.0294
G00 X-0.3507 Y-45.0294
G01 F60.00
G01 Z-2.0000
G01 F120.00
G01 X-0.3509 Y-4.9657
G01 X-0.3625 Y-4.8732
G01 X-0.6700 Y-3.3280
G01 X-0.7039 Y-3.2205
G01 X-0.7640 Y-3.1081
G01 X-1.6311 Y-1.8104
G01 X-1.7119 Y-1.7119
G01 X-1.8104 Y-1.6311
G01 X-3.1628 Y-0.7312
G01 X-3.2526 Y-0.6917
G01 X-3.3425 Y-0.6669
G01 X-4.8732 Y-0.3625
G01 X-5.0000 Y-0.3500
G01 X-75.0147 Y-0.3502
G01 X-75.1268 Y-0.3625
G01 X-76.6720 Y-0.6700
G01 X-76.7795 Y-0.7039
G01 X-76.8919 Y-0.7640
G01 X-78.1896 Y-1.6311
G01 X-78.2881 Y-1.7119
G01 X-78.3689 Y-1.8104
G01 X-79.2688 Y-3.1629
G01 X-79.3083 Y-3.2526
G01 X-79.3331 Y-3.3425
G01 X-79.6375 Y-4.8732
G01 X-79.6500 Y-5.0000
G01 X-79.6491 Y-45.0343
G01 X-79.6375 Y-45.1268
G01 X-79.3300 Y-46.6720
G01 X-79.2961 Y-46.7795
G01 X-79.2360 Y-46.8919
G01 X-78.3689 Y-48.1896
G01 X-78.2881 Y-48.2881
G01 X-78.1896 Y-48.3689
G01 X-76.8371 Y-49.2688
G01 X-76.7474 Y-49.3083
G01 X-76.6575 Y-49.3331
G01 X-75.1268 Y-49.6375
G01 X-75.0000 Y-49.6500
G01 X-4.9657 Y-49.6491
G01 X-4.8732 Y-49.6375
G01 X-3.3425 Y-49.3331
G01 X-3.2205 Y-49.2961
G01 X-3.1081 Y-49.2360
G01 X-1.8104 Y-48.3689
G01 X-1.7119 Y-48.2881
G01 X-1.6311 Y-48.1896
G01 X-0.7640 Y-46.8919
G01 X-0.7039 Y-46.7795
G01 X-0.6669 Y-46.6575
G01 X-0.3625 Y-45.1268
G01 X-0.3507 Y-45.0294
G00 Z2.0000
M05
G00 Z2.0000
G00 Z22.00
G00 X0.0 Y0.0


